ncols         214
nrows         311
xllcorner     649474.25
yllcorner     7314523
cellsize      100
NODATA_value  -9999
-9999 -9999 -9999 -9999 -9999 -9999 -9999 -9999 -9999 -9999 -9999 -9999 -9999 -9999 -9999 -9999 -9999 -9999 -9999 -9999 -9999 -9999 -9999 -9999 -9999 -9999 -9999 -9999 -9999 -9999 -9999 -9999 -9999 -9999 -9999 -9999 -9999 -9999 -9999 -9999 -9999 -9999 -9999 -9999 -9999 -9999 -9999 -9999 -9999 -9999 -9999 3 2 13 3 3 0 -9999 -9999 0 10 0 0 5 0 0 10 -9999 -9999 -9999 -9999 -9999 -9999 -9999 -9999 -9999 -9999 -9999 -9999 -9999 -9999 -9999 -9999 -9999 -9999 -9999 -9999 -9999 -9999 -9999 -9999 -9999 -9999 -9999 -9999 -9999 -9999 -9999 -9999 -9999 -9999 -9999 -9999 -9999 -9999 -9999 -9999 -9999 -9999 -9999 -9999 -9999 -9999 -9999 -9999 -9999 -9999 -9999 -9999 -9999 -9999 -9999 -9999 -9999 -9999 -9999 -9999 -9999 -9999 -9999 -9999 -9999 -9999 -9999 -9999 -9999 -9999 -9999 -9999 -9999 -9999 -9999 -9999 -9999 -9999 -9999 -9999 -9999 -9999 -9999 -9999 -9999 -9999 -9999 -9999 -9999 -9999 -9999 -9999 -9999 -9999 -9999 -9999 -9999 -9999 -9999 -9999 -9999 -9999 -9999 -9999 -9999 -9999 -9999 -9999 -9999 -9999 -9999 -9999 -9999 -9999 -9999 -9999 -9999 -9999 -9999 -9999 -9999 -9999 -9999 -9999 -9999 -9999 -9999 -9999 -9999 -9999 -9999 -9999 -9999 -9999 -9999 -9999 -9999 -9999 -9999 -9999 -9999 -9999 -9999 -9999 -9999 -9999 -9999 
-9999 -9999 -9999 -9999 -9999 -9999 -9999 -9999 -9999 -9999 -9999 -9999 -9999 -9999 -9999 -9999 -9999 -9999 -9999 -9999 -9999 -9999 -9999 -9999 -9999 -9999 -9999 -9999 -9999 -9999 -9999 -9999 -9999 -9999 -9999 -9999 -9999 -9999 -9999 -9999 -9999 -9999 -9999 -9999 -9999 -9999 -9999 -9999 -9999 -9999 -9999 3 3 13 13 13 13 13 12 12 13 13 13 13 13 13 7 7 13 13 13 13 13 13 13 13 13 7 12 12 12 10 12 12 12 13 12 7 12 7 7 13 7 7 10 7 7 13 3 3 7 7 13 3 3 3 3 3 3 3 3 3 3 5 12 13 12 12 2 10 10 10 10 5 0 3 2 3 0 10 3 3 3 3 3 3 3 -9999 -9999 -9999 -9999 -9999 -9999 -9999 -9999 -9999 -9999 -9999 -9999 -9999 -9999 -9999 -9999 -9999 -9999 -9999 -9999 -9999 -9999 -9999 -9999 -9999 -9999 -9999 -9999 -9999 -9999 -9999 -9999 -9999 -9999 -9999 -9999 -9999 -9999 -9999 -9999 -9999 -9999 -9999 -9999 -9999 -9999 -9999 -9999 -9999 -9999 -9999 -9999 -9999 -9999 -9999 -9999 -9999 -9999 -9999 -9999 -9999 -9999 -9999 -9999 -9999 -9999 -9999 -9999 -9999 -9999 -9999 -9999 -9999 -9999 -9999 -9999 -9999 
-9999 -9999 -9999 -9999 -9999 -9999 -9999 -9999 -9999 -9999 -9999 -9999 -9999 -9999 -9999 -9999 -9999 -9999 -9999 -9999 -9999 -9999 -9999 -9999 -9999 -9999 -9999 -9999 -9999 -9999 -9999 -9999 -9999 -9999 -9999 -9999 -9999 -9999 -9999 -9999 -9999 -9999 -9999 -9999 -9999 -9999 -9999 -9999 -9999 -9999 -9999 3 13 13 13 13 13 13 12 12 12 12 12 13 13 12 7 13 13 7 13 13 13 13 13 13 13 13 13 13 13 7 12 12 12 12 12 5 12 12 12 7 12 12 7 3 7 7 12 3 3 7 3 3 3 3 13 3 3 3 12 3 13 13 12 12 13 13 12 12 13 13 3 3 13 3 13 7 7 7 7 13 7 13 13 3 3 13 3 7 3 3 13 10 5 12 7 3 3 3 3 13 3 3 3 7 7 7 3 3 3 13 7 3 3 7 7 7 7 3 3 3 10 10 10 10 10 3 0 2 0 10 0 0 -9999 -9999 -9999 -9999 -9999 -9999 -9999 -9999 -9999 -9999 -9999 -9999 -9999 -9999 -9999 -9999 -9999 -9999 -9999 -9999 -9999 -9999 -9999 -9999 -9999 -9999 -9999 -9999 -9999 -9999 
-9999 -9999 -9999 -9999 -9999 -9999 -9999 -9999 -9999 -9999 -9999 -9999 -9999 -9999 -9999 -9999 -9999 -9999 -9999 -9999 -9999 -9999 -9999 -9999 -9999 -9999 -9999 -9999 -9999 -9999 -9999 -9999 -9999 -9999 -9999 -9999 -9999 -9999 -9999 -9999 -9999 -9999 -9999 -9999 -9999 -9999 -9999 -9999 -9999 -9999 -9999 10 13 13 13 13 7 7 7 13 12 12 13 12 12 12 12 13 7 13 13 13 13 13 13 7 13 13 13 13 13 13 12 12 12 12 12 12 12 12 12 12 7 13 7 13 3 7 7 13 3 7 3 2 2 2 13 3 12 12 13 13 13 12 12 12 13 7 12 12 12 12 13 13 13 13 3 3 3 2 3 13 3 3 3 3 3 3 3 3 3 3 7 3 3 3 3 5 3 3 3 7 3 12 7 13 7 13 3 13 13 13 13 13 13 3 3 3 3 7 7 7 13 3 13 7 7 13 13 3 3 7 7 7 7 3 7 7 7 7 3 13 -9999 -9999 -9999 -9999 -9999 -9999 -9999 -9999 -9999 -9999 -9999 -9999 -9999 -9999 -9999 -9999 -9999 -9999 -9999 -9999 -9999 -9999 
-9999 -9999 -9999 -9999 -9999 -9999 -9999 -9999 -9999 -9999 -9999 -9999 -9999 -9999 -9999 -9999 -9999 -9999 -9999 -9999 -9999 -9999 -9999 -9999 -9999 -9999 -9999 -9999 -9999 -9999 -9999 -9999 -9999 -9999 -9999 -9999 -9999 -9999 -9999 -9999 -9999 -9999 -9999 -9999 -9999 -9999 -9999 -9999 -9999 -9999 -9999 12 12 10 3 3 12 12 7 12 12 3 10 12 12 12 12 13 13 13 13 13 13 13 13 12 3 3 13 13 13 13 10 10 12 12 12 12 7 12 7 7 12 12 13 13 7 7 12 13 7 7 13 12 13 13 13 13 12 12 12 7 7 7 7 12 7 13 12 12 12 12 7 12 12 7 7 3 2 2 3 3 3 3 3 7 12 3 3 3 3 3 7 7 3 3 3 3 3 3 3 3 3 7 7 7 13 7 3 7 13 3 13 3 3 3 3 13 3 3 13 13 3 3 3 13 3 3 7 3 3 7 7 13 3 13 7 7 7 7 7 -9999 -9999 -9999 -9999 -9999 -9999 -9999 -9999 -9999 -9999 -9999 -9999 -9999 -9999 -9999 -9999 -9999 -9999 -9999 -9999 -9999 -9999 -9999 
-9999 -9999 -9999 -9999 -9999 -9999 -9999 -9999 -9999 -9999 -9999 -9999 -9999 -9999 -9999 -9999 -9999 -9999 -9999 -9999 -9999 -9999 -9999 -9999 -9999 -9999 -9999 -9999 -9999 -9999 -9999 -9999 -9999 -9999 -9999 -9999 -9999 -9999 -9999 -9999 -9999 -9999 -9999 -9999 -9999 -9999 -9999 -9999 -9999 -9999 -9999 10 10 10 3 10 10 12 10 13 2 3 12 12 12 13 13 13 13 13 13 13 13 13 13 13 7 13 7 12 12 12 12 12 12 7 12 12 7 13 12 13 12 12 13 13 7 7 7 7 7 7 12 13 12 7 13 13 12 12 12 12 7 13 13 13 7 13 13 10 13 12 12 12 12 12 7 12 3 3 12 2 2 3 3 3 12 12 7 13 7 10 7 3 3 3 3 3 3 3 3 3 3 7 7 7 7 3 3 7 3 3 3 3 3 3 13 13 7 13 13 3 3 3 3 13 13 3 13 7 13 7 7 7 7 7 7 7 7 7 7 -9999 -9999 -9999 -9999 -9999 -9999 -9999 -9999 -9999 -9999 -9999 -9999 -9999 -9999 -9999 -9999 -9999 -9999 -9999 -9999 -9999 -9999 -9999 
-9999 -9999 -9999 -9999 -9999 -9999 -9999 -9999 -9999 -9999 -9999 -9999 -9999 -9999 -9999 -9999 -9999 -9999 -9999 -9999 -9999 -9999 -9999 -9999 -9999 -9999 -9999 -9999 -9999 -9999 -9999 -9999 -9999 -9999 -9999 -9999 -9999 -9999 -9999 -9999 -9999 -9999 -9999 -9999 -9999 -9999 -9999 -9999 -9999 -9999 -9999 10 10 10 10 10 10 10 10 10 2 12 12 12 12 13 13 13 13 13 13 13 13 7 13 13 7 13 13 13 12 12 10 12 12 12 12 12 13 13 12 12 7 12 13 7 7 12 12 7 12 7 7 7 7 7 13 12 7 7 7 12 13 7 13 13 13 13 13 13 7 12 10 5 12 12 3 7 12 3 5 3 3 12 3 7 3 12 13 13 13 3 7 3 3 3 3 3 13 3 3 3 3 3 3 7 7 7 7 7 3 13 13 3 3 13 13 13 13 13 3 3 3 13 3 7 13 13 13 13 7 7 7 7 7 3 7 7 7 7 3 -9999 -9999 -9999 -9999 -9999 -9999 -9999 -9999 -9999 -9999 -9999 -9999 -9999 -9999 -9999 -9999 -9999 -9999 -9999 -9999 -9999 -9999 -9999 
-9999 -9999 -9999 -9999 -9999 -9999 -9999 -9999 -9999 -9999 -9999 -9999 -9999 -9999 -9999 -9999 -9999 -9999 -9999 -9999 -9999 -9999 -9999 -9999 -9999 -9999 -9999 -9999 -9999 -9999 -9999 -9999 -9999 -9999 -9999 -9999 -9999 -9999 -9999 -9999 -9999 -9999 -9999 -9999 -9999 -9999 -9999 -9999 -9999 -9999 -9999 10 10 10 10 10 10 5 12 12 10 12 12 13 13 7 13 13 13 13 13 13 13 13 7 13 7 7 13 13 7 10 10 12 12 12 12 12 12 12 12 12 12 7 12 13 13 7 13 13 7 7 7 7 7 7 7 7 12 7 12 12 7 13 13 13 13 13 13 13 13 13 13 12 12 10 12 12 10 7 7 12 3 3 7 7 7 3 3 13 13 3 7 7 3 3 3 3 12 13 3 13 7 13 3 3 7 7 7 7 13 13 13 13 13 13 13 13 13 13 13 13 13 13 3 3 3 13 13 13 7 7 7 3 7 3 3 3 3 3 3 -9999 -9999 -9999 -9999 -9999 -9999 -9999 -9999 -9999 -9999 -9999 -9999 -9999 -9999 -9999 -9999 -9999 -9999 -9999 -9999 -9999 -9999 -9999 
-9999 -9999 -9999 -9999 -9999 -9999 -9999 -9999 -9999 -9999 -9999 -9999 -9999 -9999 -9999 -9999 -9999 -9999 -9999 -9999 -9999 -9999 -9999 -9999 -9999 -9999 -9999 -9999 -9999 -9999 -9999 -9999 -9999 -9999 -9999 -9999 -9999 -9999 -9999 -9999 -9999 -9999 -9999 -9999 -9999 -9999 -9999 -9999 -9999 -9999 -9999 2 10 10 10 12 10 10 12 10 12 12 13 13 13 13 7 7 13 13 13 13 13 13 7 13 13 7 12 13 10 13 13 12 5 12 12 12 12 12 12 12 12 12 12 13 7 13 13 13 7 12 7 7 3 7 7 13 13 7 12 12 12 13 13 13 13 13 13 13 13 13 13 13 13 13 3 7 12 7 13 13 5 13 13 3 3 3 3 3 3 3 3 7 3 3 3 3 7 7 13 13 7 13 3 13 13 7 7 7 13 13 7 13 13 13 3 3 3 3 3 3 13 13 3 13 13 13 13 13 7 3 7 7 3 7 3 3 3 3 3 -9999 -9999 -9999 -9999 -9999 -9999 -9999 -9999 -9999 -9999 -9999 -9999 -9999 -9999 -9999 -9999 -9999 -9999 -9999 -9999 -9999 -9999 -9999 
-9999 -9999 -9999 -9999 -9999 -9999 -9999 -9999 -9999 -9999 -9999 -9999 -9999 -9999 -9999 -9999 -9999 -9999 -9999 -9999 -9999 -9999 -9999 -9999 -9999 -9999 -9999 -9999 -9999 -9999 -9999 -9999 -9999 -9999 -9999 -9999 -9999 -9999 -9999 -9999 -9999 -9999 -9999 -9999 -9999 -9999 -9999 -9999 -9999 -9999 2 2 3 3 3 10 12 13 13 3 12 12 13 13 13 13 7 7 13 13 13 13 13 13 7 13 7 12 7 12 10 10 10 12 12 12 12 10 10 12 12 12 10 12 12 12 13 12 13 13 12 12 12 12 12 7 13 13 13 13 12 12 13 13 13 13 13 13 13 13 13 3 13 10 13 3 13 10 10 7 2 3 3 3 7 3 3 7 13 13 3 3 3 3 3 3 13 13 3 7 13 13 13 3 7 13 13 13 7 7 13 3 7 13 13 3 3 3 3 3 3 3 3 3 3 13 13 13 13 3 7 7 7 7 7 7 7 7 7 3 3 -9999 -9999 -9999 -9999 -9999 -9999 -9999 -9999 -9999 -9999 -9999 -9999 -9999 -9999 -9999 -9999 -9999 -9999 -9999 -9999 -9999 -9999 -9999 
-9999 -9999 -9999 -9999 -9999 -9999 -9999 -9999 -9999 -9999 -9999 -9999 -9999 -9999 -9999 -9999 -9999 -9999 -9999 -9999 -9999 -9999 -9999 -9999 -9999 -9999 -9999 -9999 -9999 -9999 -9999 -9999 -9999 -9999 -9999 -9999 -9999 -9999 -9999 -9999 -9999 -9999 -9999 -9999 -9999 -9999 -9999 -9999 -9999 -9999 5 10 10 3 13 10 13 13 13 10 10 12 12 13 7 7 7 13 13 13 13 13 13 13 13 7 12 12 12 12 10 10 12 12 10 12 12 12 10 12 12 12 12 13 13 7 13 13 13 13 13 7 13 12 7 13 13 13 13 13 13 13 13 13 13 3 13 3 3 3 3 3 3 3 3 3 13 13 7 7 13 13 13 3 3 3 3 7 13 3 13 13 3 3 7 7 13 13 13 3 3 13 13 7 13 13 13 13 3 3 3 3 13 3 13 13 13 13 13 13 3 3 3 3 3 3 3 3 7 7 7 13 13 3 3 7 7 7 3 12 3 -9999 -9999 -9999 -9999 -9999 -9999 -9999 -9999 -9999 -9999 -9999 -9999 -9999 -9999 -9999 -9999 -9999 -9999 -9999 -9999 -9999 -9999 -9999 
-9999 -9999 -9999 -9999 -9999 -9999 -9999 -9999 -9999 -9999 -9999 -9999 -9999 -9999 -9999 -9999 -9999 -9999 -9999 -9999 -9999 -9999 -9999 -9999 -9999 -9999 -9999 -9999 -9999 -9999 -9999 -9999 -9999 -9999 -9999 -9999 -9999 -9999 -9999 -9999 -9999 -9999 -9999 -9999 -9999 -9999 -9999 -9999 -9999 -9999 2 10 3 3 13 13 13 13 13 7 10 12 12 12 12 7 7 7 13 13 13 13 13 13 13 12 12 12 12 12 10 5 12 12 12 12 12 12 12 12 12 7 13 13 13 7 13 13 13 7 13 13 13 7 7 13 13 13 7 13 13 13 13 13 13 3 3 3 3 3 3 3 3 3 3 3 3 13 13 7 13 13 3 3 3 3 3 7 7 7 13 13 3 3 7 3 13 13 13 13 13 13 13 7 13 3 13 3 13 3 3 3 13 13 3 3 3 13 13 3 3 3 13 3 3 13 3 13 3 3 7 13 13 7 7 7 7 7 12 3 3 -9999 -9999 -9999 -9999 -9999 -9999 -9999 -9999 -9999 -9999 -9999 -9999 -9999 -9999 -9999 -9999 -9999 -9999 -9999 -9999 -9999 -9999 -9999 
-9999 -9999 -9999 -9999 -9999 -9999 -9999 -9999 -9999 -9999 -9999 -9999 -9999 -9999 -9999 -9999 -9999 -9999 -9999 -9999 -9999 -9999 -9999 -9999 -9999 -9999 -9999 -9999 -9999 -9999 -9999 -9999 -9999 -9999 -9999 -9999 -9999 -9999 -9999 -9999 -9999 -9999 -9999 -9999 -9999 -9999 -9999 -9999 -9999 -9999 3 2 13 13 13 13 13 13 12 10 12 13 13 13 10 12 7 3 13 13 13 7 12 7 12 12 12 12 12 10 10 12 12 12 12 10 12 12 12 12 13 7 7 13 13 13 13 7 13 13 13 13 13 7 13 7 3 3 13 13 13 7 13 13 3 3 3 3 3 3 3 3 3 3 3 3 3 13 13 13 13 7 3 3 3 3 3 3 3 7 3 3 3 13 3 13 13 13 3 13 13 13 13 7 13 13 13 3 13 13 3 13 13 13 13 13 3 13 13 3 7 3 13 3 13 13 13 3 3 3 13 3 3 7 3 7 7 7 12 3 3 -9999 -9999 -9999 -9999 -9999 -9999 -9999 -9999 -9999 -9999 -9999 -9999 -9999 -9999 -9999 -9999 -9999 -9999 -9999 -9999 -9999 -9999 -9999 
-9999 -9999 -9999 -9999 -9999 -9999 -9999 -9999 -9999 -9999 -9999 -9999 -9999 -9999 -9999 -9999 -9999 -9999 -9999 -9999 -9999 -9999 -9999 -9999 -9999 -9999 -9999 -9999 -9999 -9999 -9999 -9999 -9999 -9999 -9999 -9999 -9999 -9999 -9999 -9999 -9999 -9999 -9999 -9999 -9999 -9999 -9999 -9999 -9999 -9999 3 3 3 13 13 3 3 13 13 13 13 13 13 13 12 12 13 13 12 13 13 7 12 7 12 12 12 10 12 10 10 12 12 10 12 12 12 10 12 12 7 7 13 13 12 7 13 13 13 13 13 13 13 13 7 3 3 13 13 13 13 13 7 3 3 3 3 3 3 3 3 3 13 3 3 3 3 10 3 13 13 3 3 3 3 3 3 2 5 7 7 7 7 3 13 13 13 13 13 13 13 13 13 7 7 13 3 13 3 3 13 7 13 13 13 13 3 13 13 3 3 3 3 3 3 3 3 3 3 3 3 3 3 7 3 3 3 7 12 3 3 -9999 -9999 -9999 -9999 -9999 -9999 -9999 -9999 -9999 -9999 -9999 -9999 -9999 -9999 -9999 -9999 -9999 -9999 -9999 -9999 -9999 -9999 -9999 
-9999 -9999 -9999 -9999 -9999 -9999 -9999 -9999 -9999 -9999 -9999 -9999 -9999 -9999 -9999 -9999 -9999 -9999 -9999 -9999 -9999 -9999 -9999 -9999 -9999 -9999 -9999 -9999 -9999 -9999 -9999 -9999 -9999 -9999 -9999 -9999 -9999 -9999 -9999 -9999 -9999 -9999 -9999 -9999 -9999 -9999 -9999 -9999 -9999 -9999 3 3 3 13 13 3 13 13 13 13 13 13 13 13 13 12 12 13 13 7 12 12 12 12 12 10 10 12 12 12 10 10 12 12 12 12 12 12 12 7 7 7 7 13 13 13 13 13 13 13 13 13 13 13 7 3 13 13 13 13 13 7 7 3 3 3 3 3 13 13 13 13 13 3 3 3 3 3 3 3 13 13 3 3 3 3 3 3 7 7 3 13 3 13 13 13 13 13 13 13 13 13 7 7 13 13 13 3 13 3 13 7 13 3 13 3 3 13 13 13 3 3 3 3 3 3 13 3 3 3 3 7 13 7 3 3 7 3 7 3 13 -9999 -9999 -9999 -9999 -9999 -9999 -9999 -9999 -9999 -9999 -9999 -9999 -9999 -9999 -9999 -9999 -9999 -9999 -9999 -9999 -9999 -9999 -9999 
-9999 -9999 -9999 -9999 -9999 -9999 -9999 -9999 -9999 -9999 -9999 -9999 -9999 -9999 -9999 -9999 -9999 -9999 -9999 -9999 -9999 -9999 -9999 -9999 -9999 -9999 -9999 -9999 -9999 -9999 -9999 -9999 -9999 -9999 -9999 -9999 -9999 -9999 -9999 -9999 -9999 -9999 -9999 -9999 -9999 -9999 -9999 -9999 -9999 -9999 3 3 5 13 13 13 13 13 13 13 13 13 12 10 10 12 12 13 7 7 12 10 12 12 10 12 12 12 12 5 12 10 12 12 12 12 12 7 12 7 7 13 13 13 13 13 13 13 13 13 13 13 13 13 13 3 13 13 13 13 13 7 3 10 3 3 3 3 13 13 13 13 13 13 13 3 3 3 3 3 3 3 3 3 3 3 3 3 7 7 7 7 7 13 13 13 13 13 13 13 13 13 7 7 13 13 13 3 3 3 7 13 13 13 3 3 3 7 13 13 13 13 3 7 7 3 3 3 3 3 3 13 13 13 13 13 7 7 3 3 13 -9999 -9999 -9999 -9999 -9999 -9999 -9999 -9999 -9999 -9999 -9999 -9999 -9999 -9999 -9999 -9999 -9999 -9999 -9999 -9999 -9999 -9999 -9999 
-9999 -9999 -9999 -9999 -9999 -9999 -9999 -9999 -9999 -9999 -9999 -9999 -9999 -9999 -9999 -9999 -9999 -9999 -9999 -9999 -9999 -9999 -9999 -9999 -9999 -9999 -9999 -9999 -9999 -9999 -9999 -9999 -9999 -9999 -9999 -9999 -9999 -9999 -9999 -9999 -9999 -9999 -9999 -9999 -9999 -9999 -9999 -9999 -9999 -9999 10 10 13 13 13 13 13 13 13 13 13 13 12 12 13 13 12 12 12 7 12 12 12 12 12 12 10 12 12 12 12 12 10 7 7 7 12 7 7 13 13 13 13 13 13 13 13 13 13 13 13 13 13 13 13 13 13 13 13 13 13 7 7 3 3 3 3 3 13 13 13 7 13 3 13 13 13 13 3 3 3 3 3 3 3 3 7 3 7 7 7 7 13 3 3 13 13 13 13 13 13 7 7 7 13 13 3 13 7 13 3 3 3 3 3 3 7 7 13 13 13 3 3 7 7 13 7 3 3 13 3 3 13 7 13 13 13 13 3 3 3 -9999 -9999 -9999 -9999 -9999 -9999 -9999 -9999 -9999 -9999 -9999 -9999 -9999 -9999 -9999 -9999 -9999 -9999 -9999 -9999 -9999 -9999 -9999 
-9999 -9999 -9999 -9999 -9999 -9999 -9999 -9999 -9999 -9999 -9999 -9999 -9999 -9999 -9999 -9999 -9999 -9999 -9999 -9999 -9999 -9999 -9999 -9999 -9999 -9999 -9999 -9999 -9999 -9999 -9999 -9999 -9999 -9999 -9999 -9999 -9999 -9999 -9999 -9999 -9999 -9999 -9999 -9999 -9999 -9999 -9999 -9999 -9999 -9999 13 13 13 13 13 13 13 13 13 7 13 13 13 7 13 13 13 12 12 12 10 12 12 12 12 12 10 12 12 10 7 12 7 7 13 7 13 7 7 13 13 13 13 13 13 13 7 13 13 13 13 13 7 13 13 13 13 13 13 13 13 7 3 3 3 3 3 3 13 7 7 7 13 13 13 13 13 13 3 3 3 3 3 3 3 3 3 3 7 7 7 13 13 3 3 13 13 13 7 13 3 7 7 13 13 7 7 13 7 7 7 3 3 3 13 13 7 7 13 13 7 7 13 13 7 7 7 7 3 3 3 3 13 3 3 13 3 13 13 7 7 -9999 -9999 -9999 -9999 -9999 -9999 -9999 -9999 -9999 -9999 -9999 -9999 -9999 -9999 -9999 -9999 -9999 -9999 -9999 -9999 -9999 -9999 -9999 
-9999 -9999 -9999 -9999 -9999 -9999 -9999 -9999 -9999 -9999 -9999 -9999 -9999 -9999 -9999 -9999 -9999 -9999 -9999 -9999 -9999 -9999 -9999 -9999 -9999 -9999 -9999 -9999 -9999 -9999 -9999 -9999 -9999 -9999 -9999 -9999 -9999 -9999 -9999 -9999 -9999 -9999 -9999 -9999 -9999 -9999 -9999 -9999 -9999 -9999 13 13 13 13 13 13 13 13 13 7 13 12 12 12 13 13 13 7 12 12 10 12 12 10 10 12 10 12 12 12 7 7 7 13 13 13 13 7 7 13 13 13 13 13 13 13 7 13 13 13 13 13 13 13 13 13 13 13 13 13 3 7 3 3 3 3 3 13 13 3 3 3 7 13 13 13 13 13 13 13 3 3 3 3 3 3 3 3 7 7 7 13 13 13 7 13 13 7 13 13 3 7 7 13 13 7 7 7 7 3 7 7 3 13 13 3 13 7 13 13 7 7 13 13 13 7 7 7 3 3 3 3 3 3 3 7 3 3 12 7 7 -9999 -9999 -9999 -9999 -9999 -9999 -9999 -9999 -9999 -9999 -9999 -9999 -9999 -9999 -9999 -9999 -9999 -9999 -9999 -9999 -9999 -9999 -9999 
-9999 -9999 -9999 -9999 -9999 -9999 -9999 -9999 -9999 -9999 -9999 -9999 -9999 -9999 -9999 -9999 -9999 -9999 -9999 -9999 -9999 -9999 -9999 -9999 -9999 -9999 -9999 -9999 -9999 -9999 -9999 -9999 -9999 -9999 -9999 -9999 -9999 -9999 -9999 -9999 -9999 -9999 -9999 -9999 -9999 -9999 -9999 -9999 -9999 -9999 7 7 13 13 13 13 13 13 7 12 7 12 10 12 7 12 13 10 12 12 12 12 12 12 10 12 12 12 12 7 7 7 7 13 13 13 13 13 7 7 3 13 13 13 7 3 7 7 7 13 13 13 3 13 13 13 13 13 13 3 3 7 3 3 7 13 13 13 7 7 7 13 13 13 13 13 13 7 13 13 3 3 3 3 7 3 3 3 3 7 7 7 3 3 7 13 13 13 13 3 3 3 3 3 3 3 13 3 7 7 7 7 7 3 3 13 3 3 7 7 7 7 7 13 13 12 7 7 3 3 3 3 3 3 13 13 13 7 12 13 3 -9999 -9999 -9999 -9999 -9999 -9999 -9999 -9999 -9999 -9999 -9999 -9999 -9999 -9999 -9999 -9999 -9999 -9999 -9999 -9999 -9999 -9999 -9999 
-9999 -9999 -9999 -9999 -9999 -9999 -9999 -9999 -9999 -9999 -9999 -9999 -9999 -9999 -9999 -9999 -9999 -9999 -9999 -9999 -9999 -9999 -9999 -9999 -9999 -9999 -9999 -9999 -9999 -9999 -9999 -9999 -9999 -9999 -9999 -9999 -9999 -9999 -9999 -9999 -9999 -9999 -9999 -9999 -9999 -9999 -9999 -9999 -9999 -9999 12 7 13 7 13 7 13 13 12 12 12 12 10 12 12 12 12 12 5 12 12 12 12 12 12 5 12 12 12 12 7 12 7 7 13 13 13 13 7 13 2 7 13 2 7 13 7 7 7 7 7 13 13 7 13 13 13 13 13 13 13 3 3 13 7 13 13 13 3 7 7 3 13 13 13 13 13 13 3 3 3 13 7 12 3 3 3 3 3 7 7 7 7 3 7 7 13 13 3 3 3 3 3 3 3 3 3 3 3 13 7 7 7 3 3 13 13 13 13 13 7 7 7 7 13 7 7 7 3 3 3 3 3 13 13 13 13 7 7 3 3 -9999 -9999 -9999 -9999 -9999 -9999 -9999 -9999 -9999 -9999 -9999 -9999 -9999 -9999 -9999 -9999 -9999 -9999 -9999 -9999 -9999 -9999 -9999 
-9999 -9999 -9999 -9999 -9999 -9999 -9999 -9999 -9999 -9999 -9999 -9999 -9999 -9999 -9999 -9999 -9999 -9999 -9999 -9999 -9999 -9999 -9999 -9999 -9999 -9999 -9999 -9999 -9999 -9999 -9999 -9999 -9999 -9999 -9999 -9999 -9999 -9999 -9999 -9999 -9999 -9999 -9999 -9999 -9999 -9999 -9999 -9999 -9999 -9999 12 12 7 12 13 13 12 12 12 5 12 10 12 10 10 12 12 12 10 12 12 12 12 12 12 10 12 12 12 12 12 12 3 13 13 13 13 13 13 7 13 3 13 3 7 13 13 7 7 7 7 13 7 13 13 13 13 13 13 13 7 12 3 7 13 13 13 13 3 7 7 7 13 7 13 13 13 13 3 3 3 13 7 7 13 10 7 3 12 3 3 7 3 3 3 3 3 3 3 3 3 12 3 12 12 3 3 3 3 7 7 7 7 7 13 13 13 13 13 13 13 7 3 7 7 7 7 7 3 3 3 3 3 13 3 3 7 7 13 13 7 -9999 -9999 -9999 -9999 -9999 -9999 -9999 -9999 -9999 -9999 -9999 -9999 -9999 -9999 -9999 -9999 -9999 -9999 -9999 -9999 -9999 -9999 -9999 
-9999 -9999 -9999 -9999 -9999 -9999 -9999 -9999 -9999 -9999 -9999 -9999 -9999 -9999 -9999 -9999 -9999 -9999 -9999 -9999 -9999 -9999 -9999 -9999 -9999 -9999 -9999 -9999 -9999 -9999 -9999 -9999 -9999 -9999 -9999 -9999 -9999 -9999 -9999 -9999 -9999 -9999 -9999 -9999 -9999 -9999 -9999 -9999 -9999 -9999 2 12 10 10 12 12 10 5 2 3 12 12 12 10 7 10 10 10 10 12 12 12 12 12 12 12 7 7 7 12 7 13 13 13 13 13 13 13 7 13 13 7 3 7 7 13 13 7 7 7 7 3 7 7 13 13 13 13 13 7 7 7 7 13 13 13 13 3 3 3 3 3 3 7 7 13 13 3 3 3 3 13 13 7 7 7 7 7 12 3 7 12 3 3 3 3 3 3 3 3 3 3 3 3 3 3 3 3 3 3 3 7 7 7 7 13 3 13 13 13 3 7 7 7 7 7 7 13 3 3 3 3 3 3 3 3 3 13 3 7 3 -9999 -9999 -9999 -9999 -9999 -9999 -9999 -9999 -9999 -9999 -9999 -9999 -9999 -9999 -9999 -9999 -9999 -9999 -9999 -9999 -9999 -9999 -9999 
-9999 -9999 -9999 -9999 -9999 -9999 -9999 -9999 -9999 -9999 -9999 -9999 -9999 -9999 -9999 -9999 -9999 -9999 -9999 -9999 -9999 -9999 -9999 -9999 -9999 -9999 -9999 -9999 -9999 -9999 -9999 -9999 -9999 -9999 -9999 -9999 -9999 -9999 -9999 -9999 -9999 -9999 -9999 -9999 -9999 -9999 -9999 -9999 -9999 -9999 2 2 2 2 2 2 2 2 2 10 12 10 10 10 10 5 10 5 12 12 12 12 12 12 12 12 12 12 7 13 13 13 13 13 13 13 13 7 13 3 7 13 3 7 7 7 13 3 3 7 13 7 3 13 13 7 13 13 13 13 13 7 7 7 13 13 13 3 3 3 3 3 3 3 7 3 13 3 3 3 3 3 12 7 13 7 13 7 3 2 12 3 2 3 3 3 7 12 3 3 3 3 3 3 13 13 3 3 3 3 3 3 3 7 7 7 13 13 3 3 7 7 7 7 7 7 13 3 3 3 3 3 3 3 7 13 3 3 13 3 13 -9999 -9999 -9999 -9999 -9999 -9999 -9999 -9999 -9999 -9999 -9999 -9999 -9999 -9999 -9999 -9999 -9999 -9999 -9999 -9999 -9999 -9999 -9999 
-9999 -9999 -9999 -9999 -9999 -9999 -9999 -9999 -9999 -9999 -9999 -9999 -9999 -9999 -9999 -9999 -9999 -9999 -9999 -9999 -9999 -9999 -9999 -9999 -9999 -9999 -9999 -9999 -9999 -9999 -9999 -9999 -9999 -9999 -9999 -9999 -9999 -9999 -9999 -9999 -9999 -9999 -9999 -9999 -9999 -9999 -9999 -9999 -9999 0 2 3 2 2 2 2 2 2 5 10 10 12 10 10 10 10 10 5 5 12 12 12 12 12 12 12 12 12 7 7 13 13 13 13 13 13 3 3 3 13 7 13 13 13 7 7 13 13 7 7 7 13 13 13 7 7 13 13 13 13 13 7 7 13 7 7 13 3 3 3 3 3 3 3 3 3 13 3 3 10 12 3 13 7 7 12 12 12 3 3 7 12 2 12 10 7 7 12 12 7 12 3 3 3 3 3 10 12 3 3 3 3 3 3 13 13 13 13 3 3 7 7 7 7 7 7 7 3 7 3 3 3 7 13 3 3 3 13 3 13 -9999 -9999 -9999 -9999 -9999 -9999 -9999 -9999 -9999 -9999 -9999 -9999 -9999 -9999 -9999 -9999 -9999 -9999 -9999 -9999 -9999 -9999 -9999 -9999 
-9999 -9999 -9999 -9999 -9999 -9999 -9999 -9999 -9999 -9999 -9999 -9999 -9999 -9999 -9999 -9999 -9999 -9999 -9999 -9999 -9999 -9999 -9999 -9999 -9999 -9999 -9999 -9999 -9999 -9999 -9999 -9999 -9999 -9999 -9999 -9999 -9999 -9999 -9999 -9999 -9999 -9999 -9999 -9999 -9999 -9999 -9999 -9999 -9999 2 3 2 10 2 2 2 2 2 10 7 5 10 2 2 2 2 10 5 12 12 12 12 12 12 12 12 12 7 7 7 13 13 13 13 13 13 13 13 13 7 7 13 7 7 7 7 13 3 13 7 7 3 3 7 13 7 13 13 12 13 13 7 7 13 13 7 7 7 3 3 3 3 3 3 3 3 3 3 3 3 2 12 12 12 12 12 12 12 12 12 12 13 12 12 12 12 7 7 7 12 7 3 3 3 3 13 13 3 3 3 3 13 13 3 3 3 3 3 3 7 7 7 7 7 7 7 7 7 7 13 3 7 7 3 13 13 3 13 13 3 -9999 -9999 -9999 -9999 -9999 -9999 -9999 -9999 -9999 -9999 -9999 -9999 -9999 -9999 -9999 -9999 -9999 -9999 -9999 -9999 -9999 -9999 -9999 -9999 
-9999 -9999 -9999 -9999 -9999 -9999 -9999 -9999 -9999 -9999 -9999 -9999 -9999 -9999 -9999 -9999 -9999 -9999 -9999 -9999 -9999 -9999 -9999 -9999 -9999 -9999 -9999 -9999 -9999 -9999 -9999 -9999 -9999 -9999 -9999 -9999 -9999 -9999 -9999 -9999 -9999 -9999 -9999 -9999 -9999 -9999 -9999 -9999 -9999 3 2 2 10 10 2 2 2 12 13 10 3 2 2 2 2 2 2 3 12 12 12 12 12 12 12 10 7 13 13 7 13 7 13 13 13 13 13 13 7 13 13 7 7 3 3 7 7 7 13 13 13 3 13 13 13 13 13 13 13 13 13 13 7 7 13 13 13 7 3 3 3 3 3 3 3 3 3 3 3 2 2 12 12 12 12 7 12 12 12 12 12 13 13 12 7 12 7 3 3 13 7 7 13 13 7 13 13 13 3 3 7 13 3 13 3 3 13 3 3 3 3 12 13 3 7 7 7 7 7 13 7 7 3 3 13 3 13 13 13 3 -9999 -9999 -9999 -9999 -9999 -9999 -9999 -9999 -9999 -9999 -9999 -9999 -9999 -9999 -9999 -9999 -9999 -9999 -9999 -9999 -9999 -9999 -9999 -9999 
-9999 -9999 -9999 -9999 -9999 -9999 -9999 -9999 -9999 -9999 -9999 -9999 -9999 -9999 -9999 -9999 -9999 -9999 -9999 -9999 -9999 -9999 -9999 -9999 -9999 -9999 -9999 -9999 -9999 -9999 -9999 -9999 -9999 -9999 -9999 -9999 -9999 -9999 -9999 -9999 -9999 -9999 -9999 -9999 -9999 -9999 -9999 -9999 -9999 13 3 10 10 10 2 2 2 12 13 3 3 2 2 2 10 10 10 10 10 12 12 12 12 12 7 12 13 13 7 13 13 7 7 13 13 13 3 13 13 7 13 7 7 13 7 7 7 13 13 13 7 13 13 13 13 7 13 13 13 7 13 13 13 7 13 7 13 7 3 3 3 3 3 3 3 3 3 3 3 13 12 12 12 12 12 7 12 12 12 12 7 3 7 7 7 12 7 3 7 7 7 13 13 7 7 13 13 13 7 3 7 7 13 3 3 3 13 3 3 3 7 3 7 13 3 3 7 7 7 13 7 7 13 13 3 3 3 3 3 3 -9999 -9999 -9999 -9999 -9999 -9999 -9999 -9999 -9999 -9999 -9999 -9999 -9999 -9999 -9999 -9999 -9999 -9999 -9999 -9999 -9999 -9999 -9999 -9999 
-9999 -9999 -9999 -9999 -9999 -9999 -9999 -9999 -9999 -9999 -9999 -9999 -9999 -9999 -9999 -9999 -9999 -9999 -9999 -9999 -9999 -9999 -9999 -9999 -9999 -9999 -9999 -9999 -9999 -9999 -9999 -9999 -9999 -9999 -9999 -9999 -9999 -9999 -9999 -9999 -9999 -9999 -9999 -9999 -9999 -9999 -9999 -9999 -9999 13 13 13 12 10 3 2 12 10 12 12 12 10 2 5 10 10 10 10 10 10 12 12 12 12 7 7 13 13 13 13 13 13 13 3 13 7 13 13 13 7 7 7 13 13 7 13 13 13 7 13 13 13 13 13 13 13 7 7 7 7 13 7 13 13 7 3 13 7 3 3 3 3 3 3 3 3 3 3 13 13 13 12 12 12 10 12 12 7 13 3 3 3 13 13 7 7 3 3 7 7 7 13 13 13 13 13 13 7 3 3 3 7 7 7 3 3 3 3 3 3 7 3 3 3 3 3 7 7 7 7 7 7 7 7 13 3 13 3 3 3 -9999 -9999 -9999 -9999 -9999 -9999 -9999 -9999 -9999 -9999 -9999 -9999 -9999 -9999 -9999 -9999 -9999 -9999 -9999 -9999 -9999 -9999 -9999 -9999 
-9999 -9999 -9999 -9999 -9999 -9999 -9999 -9999 -9999 -9999 -9999 -9999 -9999 -9999 -9999 -9999 -9999 -9999 -9999 -9999 -9999 -9999 -9999 -9999 -9999 -9999 -9999 -9999 -9999 -9999 -9999 -9999 -9999 -9999 -9999 -9999 -9999 -9999 -9999 -9999 -9999 -9999 -9999 -9999 -9999 -9999 -9999 -9999 -9999 13 13 13 10 3 2 2 3 10 12 10 5 2 10 10 10 12 10 10 10 10 10 12 12 12 7 13 13 13 13 13 13 13 13 13 13 7 13 7 13 13 7 7 13 13 7 13 13 7 7 7 13 13 7 7 13 13 13 7 7 7 13 13 13 13 7 13 13 7 3 3 3 3 3 3 3 3 3 13 13 13 12 12 12 12 12 12 7 7 13 3 3 3 13 13 7 3 3 13 7 3 3 3 13 13 13 13 7 7 3 3 3 7 3 13 3 3 3 3 3 3 3 3 3 3 3 3 3 13 7 7 7 7 7 7 13 7 7 3 3 3 -9999 -9999 -9999 -9999 -9999 -9999 -9999 -9999 -9999 -9999 -9999 -9999 -9999 -9999 -9999 -9999 -9999 -9999 -9999 -9999 -9999 -9999 -9999 -9999 
-9999 -9999 -9999 -9999 -9999 -9999 -9999 -9999 -9999 -9999 -9999 -9999 -9999 -9999 -9999 -9999 -9999 -9999 -9999 -9999 -9999 -9999 -9999 -9999 -9999 -9999 -9999 -9999 -9999 -9999 -9999 -9999 -9999 -9999 -9999 -9999 -9999 -9999 -9999 -9999 -9999 -9999 -9999 -9999 -9999 -9999 -9999 -9999 -9999 13 13 13 5 3 2 3 10 7 12 5 10 10 10 12 10 10 10 10 10 10 10 12 12 12 7 7 13 13 7 13 13 7 13 13 13 13 13 7 13 3 13 7 13 13 7 7 7 7 13 7 13 12 7 13 13 13 13 12 12 7 13 13 12 13 7 13 13 3 12 3 3 5 3 3 3 10 10 13 7 12 12 12 12 12 12 12 7 7 3 3 3 3 3 13 7 3 7 7 3 3 3 3 13 13 13 7 7 13 3 3 3 3 3 13 3 3 3 3 3 3 3 3 3 3 3 3 7 7 7 7 7 3 7 13 7 7 7 3 3 3 -9999 -9999 -9999 -9999 -9999 -9999 -9999 -9999 -9999 -9999 -9999 -9999 -9999 -9999 -9999 -9999 -9999 -9999 -9999 -9999 -9999 -9999 -9999 -9999 
-9999 -9999 -9999 -9999 -9999 -9999 -9999 -9999 -9999 -9999 -9999 -9999 -9999 -9999 -9999 -9999 -9999 -9999 -9999 -9999 -9999 -9999 -9999 -9999 -9999 -9999 -9999 -9999 -9999 -9999 -9999 -9999 -9999 -9999 -9999 -9999 -9999 -9999 -9999 -9999 -9999 -9999 -9999 -9999 -9999 -9999 -9999 -9999 -9999 13 13 7 13 10 10 13 12 12 10 5 10 12 12 10 12 10 10 10 10 10 10 10 12 12 7 13 13 13 13 13 13 13 7 3 7 13 3 13 7 13 13 13 7 13 13 13 13 7 13 13 7 12 7 13 13 13 7 12 7 13 13 12 12 13 12 12 2 2 2 3 10 3 12 3 3 13 13 7 12 12 12 12 12 12 12 12 7 7 3 3 3 3 3 3 3 3 3 3 7 3 3 13 13 13 13 13 13 7 3 3 3 3 3 3 3 3 3 3 3 3 7 7 7 3 7 3 13 13 13 3 3 3 3 7 7 7 7 3 3 13 -9999 -9999 -9999 -9999 -9999 -9999 -9999 -9999 -9999 -9999 -9999 -9999 -9999 -9999 -9999 -9999 -9999 -9999 -9999 -9999 -9999 -9999 -9999 -9999 
-9999 -9999 -9999 -9999 -9999 -9999 -9999 -9999 -9999 -9999 -9999 -9999 -9999 -9999 -9999 -9999 -9999 -9999 -9999 -9999 -9999 -9999 -9999 -9999 -9999 -9999 -9999 -9999 -9999 -9999 -9999 -9999 -9999 -9999 -9999 -9999 -9999 -9999 -9999 -9999 -9999 -9999 -9999 -9999 -9999 -9999 -9999 -9999 -9999 13 13 7 13 12 10 10 12 12 12 12 10 7 12 12 10 12 10 10 10 10 10 10 10 12 12 7 7 13 13 7 13 7 13 13 7 13 13 7 7 13 13 13 7 7 13 13 13 7 13 13 12 7 13 13 13 13 13 7 7 7 7 12 7 13 12 13 12 2 12 3 12 12 12 7 13 7 7 12 12 12 12 7 12 12 12 7 3 3 3 3 3 3 3 3 3 12 3 3 3 3 3 3 3 13 13 13 7 13 13 3 3 3 3 3 3 3 3 3 3 3 7 7 7 7 3 3 13 13 3 10 13 7 3 7 7 7 3 3 3 3 -9999 -9999 -9999 -9999 -9999 -9999 -9999 -9999 -9999 -9999 -9999 -9999 -9999 -9999 -9999 -9999 -9999 -9999 -9999 -9999 -9999 -9999 -9999 -9999 
-9999 -9999 -9999 -9999 -9999 -9999 -9999 -9999 -9999 -9999 -9999 -9999 -9999 -9999 -9999 -9999 -9999 -9999 -9999 -9999 -9999 -9999 -9999 -9999 -9999 -9999 -9999 -9999 -9999 -9999 -9999 -9999 -9999 -9999 -9999 -9999 -9999 -9999 -9999 -9999 -9999 -9999 -9999 -9999 -9999 -9999 -9999 -9999 -9999 12 12 13 10 7 7 12 10 12 12 10 10 5 12 12 12 12 10 10 10 10 10 10 10 12 12 7 7 7 7 13 7 7 7 7 13 13 13 13 13 13 3 13 7 7 7 7 7 7 13 7 7 7 7 13 13 13 7 12 12 12 7 12 7 7 12 3 3 7 12 3 7 10 3 12 12 7 12 12 12 12 12 7 7 12 7 7 3 3 3 3 3 3 3 3 3 7 12 3 3 3 3 3 3 13 13 13 13 3 3 3 3 3 3 3 3 12 3 3 3 3 3 3 12 7 7 13 13 13 13 13 7 7 13 7 7 7 7 7 3 7 -9999 -9999 -9999 -9999 -9999 -9999 -9999 -9999 -9999 -9999 -9999 -9999 -9999 -9999 -9999 -9999 -9999 -9999 -9999 -9999 -9999 -9999 -9999 -9999 
-9999 -9999 -9999 -9999 -9999 -9999 -9999 -9999 -9999 -9999 -9999 -9999 -9999 -9999 -9999 -9999 -9999 -9999 -9999 -9999 -9999 -9999 -9999 -9999 -9999 -9999 -9999 -9999 -9999 -9999 -9999 -9999 -9999 -9999 -9999 -9999 -9999 -9999 -9999 -9999 -9999 -9999 -9999 -9999 -9999 -9999 -9999 -9999 -9999 7 10 10 12 12 10 12 10 12 10 12 10 12 12 12 12 12 12 12 10 10 10 10 10 12 12 12 7 7 13 7 7 7 7 7 13 13 13 13 13 13 7 13 13 7 7 7 7 7 7 12 12 7 13 13 13 13 12 12 12 12 12 7 13 12 7 7 13 13 13 13 12 7 7 12 12 12 12 12 12 12 12 12 12 12 12 7 3 3 3 3 3 3 3 3 3 3 3 3 12 3 3 3 3 13 13 13 13 13 7 3 3 12 3 3 3 12 5 3 3 7 7 7 7 7 7 7 7 13 13 13 13 7 13 13 7 7 7 3 3 3 -9999 -9999 -9999 -9999 -9999 -9999 -9999 -9999 -9999 -9999 -9999 -9999 -9999 -9999 -9999 -9999 -9999 -9999 -9999 -9999 -9999 -9999 -9999 -9999 
-9999 -9999 -9999 -9999 -9999 -9999 -9999 -9999 -9999 -9999 -9999 -9999 -9999 -9999 -9999 -9999 -9999 -9999 -9999 -9999 -9999 -9999 -9999 -9999 -9999 -9999 -9999 -9999 -9999 -9999 -9999 -9999 -9999 -9999 -9999 -9999 -9999 -9999 -9999 -9999 -9999 -9999 -9999 -9999 -9999 -9999 -9999 -9999 -9999 10 10 12 10 5 5 5 10 12 12 12 12 12 12 12 12 12 12 12 12 10 10 10 10 10 12 12 13 7 12 7 13 13 7 13 7 7 7 13 7 7 7 13 13 7 7 7 13 7 12 7 7 7 7 7 12 13 12 5 12 10 5 7 7 12 7 7 7 7 7 7 13 7 7 7 12 12 12 12 12 12 12 12 12 12 13 12 12 3 3 3 3 3 3 3 3 3 3 3 12 3 3 3 3 3 13 13 13 7 10 3 3 12 3 12 3 3 3 3 3 7 13 13 7 13 13 7 7 13 13 13 13 7 13 3 7 7 7 3 3 3 -9999 -9999 -9999 -9999 -9999 -9999 -9999 -9999 -9999 -9999 -9999 -9999 -9999 -9999 -9999 -9999 -9999 -9999 -9999 -9999 -9999 -9999 -9999 -9999 
-9999 -9999 -9999 -9999 -9999 -9999 -9999 -9999 -9999 -9999 -9999 -9999 -9999 -9999 -9999 -9999 -9999 -9999 -9999 -9999 -9999 -9999 -9999 -9999 -9999 -9999 -9999 -9999 -9999 -9999 -9999 -9999 -9999 -9999 -9999 -9999 -9999 -9999 -9999 -9999 -9999 -9999 -9999 -9999 -9999 -9999 -9999 -9999 -9999 10 10 10 10 10 12 12 12 12 12 12 12 12 12 12 12 12 12 12 12 12 10 10 10 10 12 12 13 13 7 7 7 7 7 7 7 13 7 13 7 13 7 13 7 7 7 13 7 7 7 12 7 7 7 7 12 12 12 12 12 12 5 7 7 7 7 7 10 12 7 13 7 13 12 12 12 12 12 12 12 12 7 7 7 7 13 7 13 3 3 3 3 3 3 3 3 3 3 3 3 13 3 3 3 3 13 13 13 13 3 3 3 12 12 10 12 3 12 7 3 7 13 13 7 13 13 7 7 7 13 13 13 13 7 13 13 7 7 7 7 3 -9999 -9999 -9999 -9999 -9999 -9999 -9999 -9999 -9999 -9999 -9999 -9999 -9999 -9999 -9999 -9999 -9999 -9999 -9999 -9999 -9999 -9999 -9999 -9999 
-9999 -9999 -9999 -9999 -9999 -9999 -9999 -9999 -9999 -9999 -9999 -9999 -9999 -9999 -9999 -9999 -9999 -9999 -9999 -9999 -9999 -9999 -9999 -9999 -9999 -9999 -9999 -9999 -9999 -9999 -9999 -9999 -9999 -9999 -9999 -9999 -9999 -9999 -9999 -9999 -9999 -9999 -9999 -9999 -9999 -9999 -9999 -9999 -9999 7 3 3 5 5 12 12 12 12 12 12 12 12 12 12 7 12 12 12 12 12 10 12 12 12 12 12 12 7 7 7 7 7 7 7 7 13 13 13 7 7 7 7 7 7 7 7 7 7 7 7 7 7 12 12 7 12 12 7 12 7 12 12 12 10 12 12 12 12 12 12 12 12 12 12 12 12 12 12 12 12 7 7 3 12 3 3 3 3 3 3 3 3 3 3 3 3 3 3 3 3 13 13 3 3 3 3 13 13 13 7 12 7 7 13 12 3 3 7 7 7 7 13 13 13 13 13 7 7 13 13 13 13 13 13 13 13 13 13 3 3 -9999 -9999 -9999 -9999 -9999 -9999 -9999 -9999 -9999 -9999 -9999 -9999 -9999 -9999 -9999 -9999 -9999 -9999 -9999 -9999 -9999 -9999 -9999 -9999 
-9999 -9999 -9999 -9999 -9999 -9999 -9999 -9999 -9999 -9999 -9999 -9999 -9999 -9999 -9999 -9999 -9999 -9999 -9999 -9999 -9999 -9999 -9999 -9999 -9999 -9999 -9999 -9999 -9999 -9999 -9999 -9999 -9999 -9999 -9999 -9999 -9999 -9999 -9999 -9999 -9999 -9999 -9999 -9999 -9999 -9999 -9999 -9999 -9999 12 3 10 5 12 12 12 12 12 12 7 12 12 12 12 12 12 12 12 12 12 12 12 12 12 7 7 12 7 7 7 7 13 7 7 7 13 13 7 7 7 7 7 7 12 13 7 7 7 12 12 12 12 12 12 12 12 12 12 12 12 12 12 12 5 5 12 12 7 12 12 12 12 12 12 12 12 12 12 12 12 12 12 3 3 3 3 3 3 3 3 3 3 3 3 3 3 3 3 3 3 3 13 13 3 3 3 13 7 7 3 12 7 7 7 7 7 7 7 7 7 7 3 7 13 13 13 13 7 7 13 13 7 13 13 13 13 13 3 3 7 -9999 -9999 -9999 -9999 -9999 -9999 -9999 -9999 -9999 -9999 -9999 -9999 -9999 -9999 -9999 -9999 -9999 -9999 -9999 -9999 -9999 -9999 -9999 -9999 
-9999 -9999 -9999 -9999 -9999 -9999 -9999 -9999 -9999 -9999 -9999 -9999 -9999 -9999 -9999 -9999 -9999 -9999 -9999 -9999 -9999 -9999 -9999 -9999 -9999 -9999 -9999 -9999 -9999 -9999 -9999 -9999 -9999 -9999 -9999 -9999 -9999 -9999 -9999 -9999 -9999 -9999 -9999 -9999 -9999 -9999 -9999 -9999 -9999 10 5 5 10 12 12 12 12 12 7 12 12 7 12 7 12 12 12 12 12 12 10 12 10 3 2 12 10 12 7 12 7 7 7 7 7 7 13 7 7 7 7 7 7 7 7 7 7 12 12 12 12 12 12 12 12 12 12 12 12 12 12 10 12 7 10 12 7 7 7 7 7 7 12 12 12 12 12 13 12 12 12 7 5 3 3 3 3 3 3 3 3 3 3 3 3 3 3 3 3 3 13 13 3 3 3 3 3 13 7 7 12 7 7 7 7 7 7 7 7 7 7 7 13 7 13 13 13 13 7 13 7 13 13 13 13 13 13 7 3 7 3 3 3 -9999 -9999 -9999 -9999 -9999 -9999 -9999 -9999 -9999 -9999 -9999 -9999 -9999 -9999 -9999 -9999 -9999 -9999 -9999 -9999 -9999 
-9999 -9999 -9999 -9999 -9999 -9999 -9999 -9999 -9999 -9999 -9999 -9999 -9999 -9999 -9999 -9999 -9999 -9999 -9999 -9999 -9999 -9999 -9999 -9999 -9999 -9999 -9999 -9999 -9999 -9999 -9999 -9999 -9999 -9999 -9999 -9999 -9999 -9999 -9999 -9999 -9999 -9999 -9999 -9999 -9999 -9999 -9999 -9999 -9999 13 3 12 12 12 12 12 12 12 7 12 7 12 12 7 7 7 13 12 7 7 12 12 12 2 10 12 12 12 12 7 12 7 7 7 7 7 13 7 13 7 7 7 7 7 7 7 7 7 12 12 7 12 12 12 12 5 5 5 5 12 12 12 12 12 12 7 7 13 7 7 13 12 12 12 12 7 7 7 13 12 7 7 7 3 3 3 3 3 3 3 3 3 3 3 3 3 3 3 3 3 3 3 3 3 3 3 3 3 3 7 7 7 7 12 7 3 7 7 7 7 7 7 7 7 7 7 13 13 13 13 13 13 13 13 7 13 13 7 7 13 7 7 3 3 3 3 -9999 -9999 -9999 -9999 -9999 -9999 -9999 -9999 -9999 -9999 -9999 -9999 -9999 -9999 -9999 -9999 -9999 -9999 
-9999 -9999 -9999 -9999 -9999 -9999 -9999 -9999 -9999 -9999 -9999 -9999 -9999 -9999 -9999 -9999 -9999 -9999 -9999 -9999 -9999 -9999 -9999 -9999 -9999 -9999 -9999 -9999 -9999 -9999 -9999 -9999 -9999 -9999 -9999 -9999 -9999 -9999 -9999 -9999 -9999 -9999 -9999 -9999 -9999 -9999 -9999 -9999 -9999 3 10 12 12 7 12 12 12 12 7 12 7 7 7 13 13 13 7 7 7 13 7 12 12 12 7 12 12 12 12 12 7 7 7 12 12 7 7 7 7 7 7 7 7 12 7 7 7 7 7 7 12 12 12 12 5 12 12 10 5 5 12 12 12 12 12 12 7 13 7 7 12 12 12 12 7 7 7 7 7 7 13 13 7 3 3 3 3 3 3 3 3 3 3 3 3 3 3 3 3 3 3 3 3 3 3 3 3 3 7 13 7 7 7 7 7 7 7 7 7 7 7 7 7 13 7 7 13 13 13 13 13 7 13 13 13 13 13 13 7 7 7 13 3 3 3 3 13 13 -9999 -9999 -9999 -9999 -9999 -9999 -9999 -9999 -9999 -9999 -9999 -9999 -9999 -9999 -9999 -9999 
-9999 -9999 -9999 -9999 -9999 -9999 -9999 -9999 -9999 -9999 -9999 -9999 -9999 -9999 -9999 -9999 -9999 -9999 -9999 -9999 -9999 -9999 -9999 -9999 -9999 -9999 -9999 -9999 -9999 -9999 -9999 -9999 -9999 -9999 -9999 -9999 -9999 -9999 -9999 -9999 -9999 -9999 -9999 -9999 -9999 -9999 -9999 -9999 -9999 10 12 12 7 7 12 7 12 7 7 7 13 13 13 13 13 13 13 12 7 7 7 12 12 12 7 12 12 12 12 7 7 7 7 12 7 13 12 12 12 12 7 7 7 7 12 7 7 12 12 7 12 12 7 12 12 12 5 10 5 12 12 7 12 12 12 12 10 13 12 12 12 12 12 12 12 12 7 7 7 7 7 7 3 3 3 3 3 3 3 3 3 12 3 3 3 3 10 3 3 3 3 3 3 3 3 3 3 3 7 7 7 7 7 7 7 7 7 7 7 7 7 7 7 13 13 7 7 13 13 13 13 7 13 13 13 7 7 7 7 7 7 3 13 3 3 3 13 7 7 7 -9999 -9999 -9999 -9999 -9999 -9999 -9999 -9999 -9999 -9999 -9999 -9999 -9999 -9999 
-9999 -9999 -9999 -9999 -9999 -9999 -9999 -9999 -9999 -9999 -9999 -9999 -9999 -9999 -9999 -9999 -9999 -9999 -9999 -9999 -9999 -9999 -9999 -9999 -9999 -9999 -9999 -9999 -9999 -9999 -9999 -9999 -9999 -9999 -9999 -9999 -9999 -9999 -9999 -9999 -9999 -9999 -9999 -9999 -9999 -9999 -9999 -9999 -9999 10 10 7 7 13 7 13 7 12 7 13 13 13 13 13 13 13 13 13 7 7 7 13 13 7 7 7 7 12 12 12 7 7 7 12 12 12 12 12 7 7 12 12 12 12 10 12 12 7 12 12 12 12 5 5 12 12 12 12 5 5 10 12 12 12 12 12 12 12 7 7 12 12 12 12 12 12 12 12 12 7 7 7 3 7 10 7 12 7 7 3 3 13 3 13 7 13 12 5 3 3 3 3 3 3 3 3 3 7 7 12 7 7 7 7 12 7 13 7 7 3 7 7 13 13 13 7 7 13 13 13 13 13 7 7 13 7 7 7 7 7 13 3 3 3 3 7 7 13 13 13 13 13 -9999 -9999 -9999 -9999 -9999 -9999 -9999 -9999 -9999 -9999 -9999 -9999 
-9999 -9999 -9999 -9999 -9999 -9999 -9999 -9999 -9999 -9999 -9999 -9999 -9999 -9999 -9999 -9999 -9999 -9999 -9999 -9999 -9999 -9999 -9999 -9999 -9999 -9999 -9999 -9999 -9999 -9999 -9999 -9999 -9999 -9999 -9999 -9999 -9999 -9999 -9999 -9999 -9999 -9999 -9999 -9999 -9999 -9999 -9999 -9999 -9999 7 7 7 7 13 13 13 7 7 7 7 13 13 13 13 7 13 13 13 13 13 13 7 13 7 13 13 7 7 7 12 7 7 12 12 12 12 12 12 7 7 7 7 10 10 10 12 12 12 12 12 12 12 12 12 2 2 2 2 2 2 10 5 12 12 12 5 12 12 7 7 12 12 12 12 12 12 12 7 12 13 13 13 13 7 12 12 12 7 3 3 3 3 3 3 7 7 7 7 3 3 3 3 3 3 3 3 3 13 13 7 13 7 12 7 3 7 7 7 7 7 7 7 13 13 13 13 7 13 13 13 13 13 13 7 3 7 7 7 13 13 7 3 3 3 13 3 7 13 7 7 13 13 7 13 7 -9999 -9999 -9999 -9999 -9999 -9999 -9999 -9999 -9999 
-9999 -9999 -9999 -9999 -9999 -9999 -9999 -9999 -9999 -9999 -9999 -9999 -9999 -9999 -9999 -9999 -9999 -9999 -9999 -9999 -9999 -9999 -9999 -9999 -9999 -9999 -9999 -9999 -9999 -9999 -9999 -9999 -9999 -9999 -9999 -9999 -9999 -9999 -9999 -9999 -9999 -9999 -9999 -9999 -9999 -9999 -9999 -9999 -9999 12 7 7 7 13 13 13 13 3 7 7 13 13 13 13 13 7 13 3 13 13 7 7 13 13 7 13 7 7 13 12 12 7 12 12 12 12 12 12 12 12 12 7 12 10 12 5 12 12 12 12 12 12 10 2 2 2 2 2 2 2 2 2 2 10 10 10 5 12 12 12 12 10 12 12 12 12 12 12 7 7 13 7 13 13 7 12 12 12 7 13 3 3 3 3 13 13 7 12 3 3 3 3 3 3 3 3 7 7 12 12 7 7 7 7 7 7 7 7 7 7 7 7 13 13 13 13 7 7 7 7 13 13 13 13 7 7 7 7 7 7 7 7 7 7 7 3 7 13 7 7 7 13 3 7 3 7 3 -9999 -9999 -9999 -9999 -9999 -9999 -9999 
-9999 -9999 -9999 -9999 -9999 -9999 -9999 -9999 -9999 -9999 -9999 -9999 -9999 -9999 -9999 -9999 -9999 -9999 -9999 -9999 -9999 -9999 -9999 -9999 -9999 -9999 -9999 -9999 -9999 -9999 -9999 -9999 -9999 -9999 -9999 -9999 -9999 -9999 -9999 -9999 -9999 -9999 -9999 -9999 -9999 -9999 -9999 -9999 3 12 12 7 7 7 7 13 7 7 13 13 13 13 7 13 13 13 3 3 13 13 13 7 7 7 7 13 13 13 13 12 12 12 12 12 12 12 12 12 12 12 12 12 12 7 7 12 12 12 12 12 10 2 2 2 2 2 2 2 2 2 2 2 2 2 2 2 2 12 12 12 12 7 12 12 12 12 12 12 12 12 12 12 7 12 12 7 7 3 3 3 3 13 13 13 12 12 12 7 7 3 3 3 13 3 7 13 13 13 12 7 7 7 7 7 7 7 7 7 7 13 13 13 13 13 13 13 7 7 7 7 7 13 7 13 7 7 7 7 7 3 12 7 7 7 7 13 13 13 7 7 13 7 7 7 7 7 3 3 3 -9999 -9999 -9999 -9999 -9999 
-9999 -9999 -9999 -9999 -9999 -9999 -9999 -9999 -9999 -9999 -9999 -9999 -9999 -9999 -9999 -9999 -9999 -9999 -9999 -9999 -9999 -9999 -9999 -9999 -9999 -9999 -9999 -9999 -9999 -9999 -9999 -9999 -9999 -9999 -9999 -9999 -9999 -9999 -9999 -9999 -9999 -9999 -9999 -9999 -9999 -9999 -9999 -9999 12 12 12 7 7 13 7 13 13 13 13 13 13 13 13 13 7 13 13 13 7 13 13 13 12 13 7 13 13 13 13 12 7 7 7 12 12 12 12 12 12 12 12 12 7 13 12 12 12 12 10 10 10 2 2 2 10 10 10 10 12 10 10 10 2 2 2 2 2 2 10 12 12 12 12 12 12 12 12 12 12 12 12 12 12 12 12 7 7 7 12 3 3 13 7 12 12 12 12 12 12 3 3 3 13 7 7 3 13 13 7 12 7 7 7 13 7 7 7 7 7 7 13 13 7 13 13 13 7 3 3 13 7 7 13 7 7 7 7 7 7 3 7 13 7 7 7 7 13 13 7 7 13 13 13 7 7 7 3 3 7 3 3 -9999 -9999 -9999 
-9999 -9999 -9999 -9999 7 13 13 13 7 7 13 13 13 13 13 13 -9999 -9999 -9999 -9999 -9999 -9999 -9999 -9999 -9999 -9999 -9999 -9999 -9999 -9999 -9999 -9999 -9999 -9999 -9999 -9999 -9999 -9999 -9999 -9999 -9999 -9999 -9999 -9999 -9999 -9999 -9999 -9999 12 12 12 12 7 13 7 7 13 7 13 13 13 7 13 13 13 13 13 13 7 13 13 13 13 7 7 13 13 13 13 12 7 7 7 12 12 12 12 12 12 12 12 13 13 12 12 12 12 12 10 2 2 2 2 10 10 10 10 10 10 10 10 10 10 10 2 2 2 2 2 10 2 2 5 12 12 12 12 12 12 12 12 12 12 7 12 7 7 7 7 3 3 13 13 7 12 12 7 13 10 3 12 3 3 13 7 13 13 12 7 12 12 7 7 7 7 7 7 7 7 13 13 13 7 13 3 3 7 7 7 7 3 3 3 3 7 13 7 7 7 13 13 7 7 7 12 7 7 7 13 13 13 13 7 7 7 7 7 7 7 3 7 10 3 -9999 
-9999 -9999 -9999 -9999 13 13 13 13 13 13 13 7 13 13 13 13 13 13 13 13 7 13 13 13 7 12 7 7 7 7 7 13 10 5 3 3 3 12 5 10 10 12 5 5 10 10 10 5 12 12 12 7 7 13 7 7 7 13 13 13 13 13 3 7 7 7 13 7 7 7 13 13 13 7 7 13 7 7 7 12 12 12 10 10 5 12 12 12 12 12 12 12 12 10 12 12 12 12 2 2 2 10 10 10 10 10 10 10 10 10 10 10 10 10 10 10 10 2 10 10 12 10 2 2 5 5 12 12 12 12 12 12 12 12 12 12 12 7 7 7 13 13 13 7 12 12 12 7 7 7 7 7 12 7 7 7 13 12 12 12 12 12 7 7 7 7 7 13 13 13 13 13 7 7 3 3 3 7 7 7 3 3 3 3 7 13 13 7 7 7 7 7 7 7 12 7 7 7 13 13 13 13 7 7 7 7 13 13 7 7 7 7 3 5 
-9999 -9999 -9999 -9999 13 7 13 13 13 7 7 13 7 13 13 13 13 7 7 7 7 13 7 13 13 12 12 12 7 7 7 13 10 10 12 10 5 10 10 10 12 12 10 10 10 10 3 12 12 12 12 7 7 7 7 7 7 7 13 7 7 13 13 13 7 7 13 7 7 7 7 13 13 7 13 13 7 7 7 12 12 12 12 10 10 12 12 12 12 12 12 10 10 12 10 10 5 10 2 2 2 10 10 10 10 10 10 10 10 10 10 10 10 10 10 10 10 10 10 10 10 10 10 2 2 2 5 12 12 12 12 12 12 12 12 12 12 12 12 7 7 13 12 12 12 12 12 12 12 12 7 7 12 7 7 12 12 12 7 12 7 7 13 13 7 7 7 13 13 13 3 3 3 3 7 3 3 3 3 7 3 3 7 7 7 7 13 13 13 7 7 7 7 7 7 7 7 7 13 7 13 13 7 7 7 7 13 7 3 3 7 7 3 3 
-9999 -9999 -9999 -9999 13 13 7 13 13 13 7 13 13 13 13 13 13 7 7 7 7 12 7 13 13 10 12 12 12 12 10 10 10 12 12 10 10 10 10 13 5 5 5 12 12 10 2 5 12 12 12 12 12 12 7 7 7 7 13 7 13 13 13 13 7 7 13 7 7 7 7 7 13 7 7 7 7 13 13 12 12 12 12 12 10 5 12 12 12 12 12 5 12 10 5 10 2 2 2 12 12 10 10 10 10 10 10 10 10 10 10 10 10 10 10 10 10 10 10 10 10 10 12 12 2 2 2 12 12 12 12 12 7 7 7 12 12 12 12 12 12 12 12 12 12 12 12 12 12 12 12 12 7 12 12 12 12 12 12 12 12 12 7 13 7 7 7 7 13 13 13 7 13 3 12 3 3 3 3 3 7 3 7 7 7 7 7 7 13 13 7 7 7 7 7 13 13 7 7 7 13 13 13 13 13 13 7 13 7 7 7 7 7 3 
-9999 -9999 -9999 -9999 7 7 13 7 7 7 7 13 7 13 13 13 7 7 12 10 12 7 10 7 12 10 10 10 10 3 10 12 7 12 10 5 10 5 5 12 12 5 10 5 12 10 3 10 7 12 7 12 12 12 12 12 10 12 7 7 7 13 13 7 7 7 7 7 7 13 12 7 7 7 7 12 7 7 12 12 12 12 12 12 12 5 12 12 10 12 12 10 12 10 5 10 2 2 12 12 7 12 10 10 10 10 10 10 10 10 10 10 10 10 10 10 10 10 10 10 10 10 12 12 10 2 2 10 10 5 5 5 12 12 7 12 12 12 12 12 12 7 12 12 12 13 13 13 12 12 12 12 12 12 12 7 12 12 12 7 7 13 13 13 13 7 7 7 13 7 7 12 7 7 7 12 7 12 12 3 7 3 7 3 3 7 7 7 7 13 13 7 7 7 7 3 13 7 7 7 13 13 13 13 13 7 3 7 7 13 7 7 3 13 
-9999 -9999 -9999 -9999 13 7 7 7 7 7 7 7 13 13 13 13 7 7 7 5 12 10 10 10 10 7 13 13 10 10 12 12 12 10 12 10 10 10 12 12 12 5 10 10 7 10 10 12 12 12 12 12 12 12 7 12 12 7 7 7 7 7 7 7 12 7 7 7 7 7 7 7 7 13 7 12 12 12 12 12 12 12 12 12 5 12 12 12 12 12 12 12 12 10 10 2 2 12 7 7 12 12 12 10 10 10 10 10 10 10 10 10 10 10 10 10 10 10 10 10 10 10 10 10 12 12 12 2 2 2 2 5 12 12 12 12 12 12 12 12 12 12 12 12 12 7 12 12 12 12 12 12 7 12 12 12 7 12 12 12 12 12 12 13 7 13 13 7 13 7 12 12 12 12 12 7 7 12 3 3 7 3 3 3 3 7 7 7 13 13 13 13 7 7 7 7 13 7 7 7 7 13 13 13 7 13 7 7 7 7 13 7 7 13 
-9999 -9999 -9999 -9999 10 7 7 7 7 13 13 13 13 13 13 13 13 13 13 7 7 13 7 7 12 7 13 13 7 7 7 7 7 10 12 10 10 5 5 5 12 5 12 10 10 10 10 12 12 12 12 7 7 7 7 12 12 12 7 7 7 7 7 7 7 7 7 7 7 7 12 12 12 7 12 12 12 7 12 12 12 12 12 12 12 12 12 12 7 12 12 12 12 10 10 2 2 7 3 13 10 12 12 12 12 10 10 10 10 10 10 10 10 10 10 10 10 7 10 10 10 10 12 10 12 12 12 10 12 12 12 12 10 12 12 5 12 12 12 12 12 7 7 12 12 12 12 12 12 7 12 7 12 12 12 12 12 12 12 12 12 12 7 7 13 7 7 12 12 12 7 12 7 7 7 7 7 7 3 7 3 3 3 3 3 7 7 7 13 7 13 13 7 7 7 7 7 7 7 7 7 13 13 13 13 13 3 13 13 13 7 7 13 13 
-9999 -9999 -9999 -9999 10 7 7 7 7 7 7 13 13 13 13 13 13 13 13 7 13 7 12 13 7 7 7 7 7 13 7 7 13 10 10 5 5 5 10 10 5 10 12 12 12 12 12 12 12 12 12 12 12 12 10 12 12 12 12 7 13 7 7 7 7 7 7 7 13 7 10 12 12 12 12 10 12 12 12 12 12 12 12 12 12 12 12 12 12 12 12 12 12 12 12 12 12 12 12 13 12 7 10 13 12 12 10 12 10 10 10 10 10 10 10 10 10 10 7 10 10 10 10 12 12 12 12 12 12 12 12 12 12 12 10 12 12 12 12 12 12 12 12 12 12 12 12 7 7 7 12 7 12 12 7 13 12 12 12 12 12 12 7 12 12 12 7 7 12 12 12 7 7 12 7 7 7 7 7 7 13 3 13 7 7 3 7 7 7 7 13 7 7 7 3 7 7 13 7 7 7 7 13 7 7 13 13 13 7 7 3 13 13 13 
-9999 -9999 -9999 -9999 12 12 7 7 13 7 7 13 7 13 13 13 13 13 13 13 13 13 13 7 13 13 13 7 7 13 7 7 7 10 10 5 12 10 3 10 5 12 12 12 12 12 12 12 12 12 12 12 12 12 10 12 12 12 12 12 12 12 7 12 12 7 7 7 7 13 12 12 12 12 12 12 12 12 12 12 12 12 12 12 12 12 12 10 12 12 10 12 12 12 12 12 12 7 7 7 7 13 13 12 12 12 10 10 10 10 10 10 10 10 10 10 10 10 10 10 10 10 12 12 12 12 12 12 12 12 12 12 10 12 12 12 12 12 12 12 12 10 12 12 12 13 12 12 12 12 12 7 12 12 12 12 12 12 12 12 12 12 12 12 12 7 12 12 12 12 7 12 12 12 7 7 7 7 7 3 13 13 13 13 7 3 3 3 7 7 7 7 7 7 13 7 7 13 7 7 7 13 7 7 13 13 13 13 13 7 3 13 13 13 
-9999 -9999 -9999 -9999 12 12 12 7 7 7 7 13 7 13 13 13 13 13 13 13 7 7 7 13 13 13 7 13 13 13 13 7 7 10 5 12 5 10 10 10 3 12 12 12 12 12 12 12 12 12 12 12 12 12 10 10 10 12 12 12 10 12 12 10 12 7 7 7 7 12 12 12 7 12 7 10 12 5 12 12 10 12 7 13 12 5 10 12 12 12 12 12 12 12 12 12 7 7 7 7 13 7 7 7 7 12 12 12 10 12 12 7 10 12 10 10 12 10 10 10 10 12 12 7 12 12 10 10 12 12 12 10 12 12 12 12 12 12 12 12 12 12 12 12 12 13 12 12 12 12 12 12 12 12 12 12 12 12 12 12 12 12 12 12 12 7 12 12 12 7 13 7 13 7 7 13 13 13 7 3 3 13 13 13 13 3 3 3 3 7 3 7 7 7 13 13 7 3 7 7 7 13 7 7 7 7 13 13 13 13 13 13 7 7 
-9999 -9999 -9999 13 5 10 12 7 7 7 7 7 13 13 13 13 13 13 13 13 13 7 7 7 7 7 7 13 13 7 13 13 13 13 12 12 5 5 10 5 5 12 12 12 12 12 12 12 12 12 12 12 12 12 12 12 5 12 12 10 12 10 12 12 12 12 12 12 12 12 10 7 5 12 12 12 10 5 12 12 12 12 12 5 5 5 12 12 12 12 12 12 12 12 12 12 7 13 7 13 13 7 7 13 13 7 12 10 12 12 12 10 12 12 12 7 12 12 10 12 10 12 12 12 12 12 10 12 12 12 12 12 12 12 12 12 12 12 12 12 12 12 10 12 12 12 7 13 12 12 12 12 12 13 12 12 12 12 12 12 12 12 12 12 12 12 12 12 7 7 7 13 13 13 7 7 7 3 13 3 13 3 3 13 13 13 3 3 3 3 3 3 3 7 7 13 3 7 7 7 13 13 7 7 7 7 7 13 13 13 7 7 7 10 
-9999 -9999 -9999 12 12 12 7 7 7 7 7 7 13 13 13 13 13 13 13 7 13 13 13 12 7 7 13 13 7 7 7 7 7 13 10 3 5 5 10 10 12 7 12 12 12 12 12 12 12 12 12 12 12 10 12 10 12 5 3 3 5 5 5 5 12 10 12 12 12 12 12 12 12 12 5 12 10 5 12 12 12 10 10 10 10 12 12 7 12 12 12 7 12 7 7 7 13 13 13 13 13 13 13 13 13 13 7 12 12 12 12 10 12 12 12 12 7 12 12 12 7 7 7 12 10 10 10 12 12 12 12 12 12 12 12 12 12 12 12 12 12 12 12 10 7 7 7 7 12 12 12 12 7 13 7 7 12 12 12 12 12 12 12 12 12 12 7 7 7 7 7 13 7 7 3 3 7 3 13 13 13 7 13 13 13 13 3 12 10 7 3 7 3 3 3 3 7 7 7 7 13 13 13 7 7 7 7 13 13 7 7 7 7 13 
-9999 -9999 -9999 12 12 7 7 7 7 7 7 13 13 13 13 13 13 13 13 7 7 7 7 12 12 7 7 7 7 7 7 7 12 10 10 3 3 12 5 10 12 12 12 12 12 12 12 12 12 12 12 12 10 10 10 12 12 12 3 3 10 5 5 5 5 12 12 12 12 10 12 12 10 12 10 12 12 12 12 12 12 10 10 5 10 3 12 12 7 7 7 7 7 12 7 7 7 13 13 13 3 13 13 13 3 7 13 13 12 7 12 12 12 12 10 12 12 12 10 10 12 12 7 12 10 10 10 12 12 7 12 13 12 12 12 12 12 12 12 12 12 12 12 12 12 7 12 7 12 12 12 12 7 13 13 7 12 12 12 12 12 12 12 7 13 12 7 13 13 7 7 7 13 7 13 7 7 13 13 13 13 13 13 3 13 3 3 3 7 7 7 13 13 3 3 3 7 12 7 13 13 13 13 7 7 7 7 13 7 7 7 13 13 13 
-9999 -9999 -9999 7 7 7 7 7 7 7 13 13 13 13 13 7 7 13 7 12 10 7 10 7 10 3 3 5 7 12 7 12 12 7 12 5 12 5 10 12 12 12 12 12 12 12 12 12 7 12 10 10 10 10 5 12 13 13 3 5 10 10 10 5 5 12 5 5 12 5 12 12 12 12 12 12 7 12 12 12 12 10 10 10 10 10 5 12 7 7 13 7 7 7 7 7 13 7 7 7 13 3 13 13 13 13 13 13 7 3 13 12 12 7 12 12 12 12 7 12 12 7 10 12 10 12 12 12 12 12 13 13 7 7 13 7 7 12 7 12 12 12 12 12 12 12 12 7 7 7 7 12 12 7 13 13 13 13 7 7 12 12 12 7 13 7 7 7 13 13 7 12 13 7 7 7 7 13 13 13 13 13 3 3 13 3 7 7 3 7 7 13 3 13 13 7 7 7 13 13 13 13 3 3 7 7 7 7 7 7 7 7 13 13 
-9999 -9999 -9999 7 7 7 7 7 7 7 13 13 13 13 13 7 7 7 7 12 7 12 7 10 10 10 10 10 10 12 10 5 7 12 5 5 12 5 10 12 12 12 12 12 12 12 7 12 12 10 5 10 10 12 10 3 3 3 10 10 10 10 10 10 5 5 5 5 12 5 12 12 12 12 12 12 12 12 7 13 10 12 12 12 12 10 5 12 12 7 7 7 13 13 13 12 12 7 7 7 7 13 13 13 13 13 13 13 13 7 13 7 12 10 10 10 10 10 12 10 12 10 12 12 12 12 12 12 12 7 13 13 13 13 7 7 12 12 12 12 12 12 12 12 12 12 12 7 13 13 12 12 7 12 13 13 13 13 13 13 7 12 12 7 13 13 7 7 13 13 7 7 7 7 7 7 7 7 13 3 3 3 3 3 3 7 12 7 7 7 7 7 13 13 13 13 13 7 13 13 13 13 13 3 7 7 7 7 7 7 7 7 13 13 
-9999 -9999 -9999 12 7 7 7 7 7 7 13 13 13 13 13 13 7 7 7 7 7 13 7 13 12 12 10 12 10 10 12 10 10 3 5 5 5 5 5 5 12 12 12 12 12 12 12 12 12 7 12 10 12 5 10 3 3 5 5 5 10 10 10 10 12 10 10 5 12 10 12 7 12 12 12 7 7 7 7 7 7 13 7 12 7 12 12 12 7 7 13 13 13 13 13 10 7 7 7 7 7 13 13 13 13 13 13 13 13 3 13 13 13 12 10 12 12 12 12 12 10 10 10 12 12 12 12 12 12 7 13 13 13 7 13 13 7 7 12 12 12 12 12 12 12 7 7 13 13 13 13 10 12 12 7 13 7 13 13 13 12 12 12 7 13 13 12 7 3 3 7 7 7 7 3 3 7 3 3 3 3 3 3 3 3 12 3 7 3 7 7 7 13 13 13 13 13 13 13 13 13 3 3 7 7 7 7 7 7 7 7 13 13 13 
-9999 -9999 -9999 7 7 7 7 7 13 7 13 13 13 13 13 13 13 13 13 13 7 13 13 7 12 7 7 7 7 10 12 10 10 5 5 12 12 3 12 10 12 12 12 12 12 12 12 12 12 12 12 5 12 12 5 3 10 5 10 12 5 12 12 12 12 12 12 10 12 12 12 12 12 7 12 7 12 7 7 7 7 7 7 7 7 7 12 10 12 7 7 7 13 13 13 13 13 12 12 7 7 7 13 13 13 13 13 13 13 13 13 3 3 13 7 12 12 12 7 12 12 12 12 12 12 12 12 12 10 7 7 13 13 13 13 13 7 7 12 12 12 12 12 12 10 7 7 7 13 13 13 12 12 12 7 3 7 7 13 13 12 12 7 7 13 13 13 7 3 13 7 13 7 7 3 3 13 13 13 7 7 13 13 10 5 7 7 7 3 3 7 7 13 7 13 7 13 7 13 13 3 13 13 3 7 13 13 13 7 13 7 7 13 13 
-9999 -9999 -9999 7 12 7 7 7 13 7 13 13 13 13 13 13 13 13 13 13 7 7 7 7 7 7 7 7 10 10 10 12 12 7 7 5 5 5 12 5 3 7 12 12 12 12 12 12 12 12 12 5 12 5 7 12 5 10 5 7 12 12 12 12 12 12 7 12 12 12 12 12 12 7 13 7 13 13 7 13 7 7 7 7 13 7 13 12 12 7 7 7 7 13 13 13 13 13 7 7 7 7 7 7 13 13 13 13 13 13 13 13 13 3 7 7 12 12 7 12 12 10 12 12 12 12 12 7 7 7 13 13 13 13 13 13 7 7 7 12 12 12 7 7 12 7 7 7 13 13 13 7 12 7 13 13 7 3 3 13 7 7 7 13 13 13 13 3 3 3 13 7 7 13 7 7 3 3 7 7 3 13 13 13 7 7 3 7 3 3 7 7 13 3 3 7 13 7 13 13 3 13 3 7 7 7 13 7 7 7 13 13 13 -9999 
-9999 -9999 -9999 7 7 12 7 7 7 13 7 13 13 13 13 13 13 13 13 13 7 7 7 7 7 7 13 10 5 10 7 7 7 7 12 5 5 12 10 10 5 5 7 12 12 12 12 12 12 12 10 10 5 10 5 12 10 10 7 7 12 12 12 12 12 7 7 7 7 12 12 12 12 7 7 7 7 13 7 7 13 13 7 7 7 7 13 7 7 7 7 13 13 13 7 13 13 13 13 7 7 7 7 7 13 13 13 13 13 13 13 13 13 13 13 13 12 7 7 10 7 12 12 12 12 12 12 7 7 13 13 13 13 13 13 13 7 12 12 12 12 12 12 12 7 7 7 7 13 13 13 13 7 13 13 3 3 13 13 3 13 13 7 12 7 7 13 3 7 13 7 7 12 12 7 13 7 7 12 3 13 7 7 13 7 12 3 3 7 3 3 3 3 3 3 3 3 3 13 13 10 10 7 7 7 7 7 7 7 7 7 13 13 -9999 
-9999 -9999 -9999 7 7 10 5 7 7 13 7 7 13 13 13 13 13 13 13 13 13 13 7 7 7 7 12 10 10 12 7 7 13 7 10 5 5 5 10 3 5 10 7 12 12 7 12 12 12 12 10 2 10 10 12 5 10 10 12 12 12 12 7 7 7 7 7 7 3 10 12 12 12 12 7 13 13 13 7 7 7 7 7 7 7 7 13 7 7 7 7 7 7 13 13 13 13 13 13 7 7 7 7 7 7 13 13 13 3 13 13 13 13 13 13 13 13 12 12 12 7 12 7 7 12 12 7 12 7 13 13 13 13 13 13 7 7 7 7 7 7 7 7 7 7 13 7 13 13 13 13 13 13 13 13 3 3 3 13 13 13 13 13 13 13 12 13 13 7 7 7 7 3 13 13 13 3 7 7 12 10 13 13 13 7 7 7 7 13 3 3 3 3 3 3 3 3 3 3 7 3 7 3 3 3 3 7 7 7 7 7 7 13 -9999 
-9999 -9999 -9999 7 13 7 10 7 7 7 7 13 13 7 13 13 13 13 13 13 13 13 13 13 7 12 12 7 7 7 7 7 13 13 12 7 3 5 10 10 5 5 7 12 12 7 12 12 12 12 10 10 10 3 10 5 12 12 12 12 12 12 7 12 13 7 13 13 10 12 12 12 12 7 13 7 13 7 7 7 7 13 13 7 7 7 7 7 7 7 13 7 7 7 7 13 13 13 13 7 7 7 7 7 7 13 13 13 3 3 13 13 13 13 13 13 7 7 12 12 12 7 7 7 12 12 12 12 7 7 13 13 13 7 7 7 7 7 7 7 13 7 13 7 13 7 7 13 13 13 13 13 13 13 13 7 3 3 3 3 3 3 13 7 7 7 12 7 7 7 7 13 3 13 3 13 7 7 7 7 7 13 13 13 12 12 12 13 7 7 3 7 7 3 3 3 3 7 3 7 3 7 3 3 13 7 7 13 7 7 7 7 13 -9999 
-9999 -9999 -9999 7 7 7 7 7 7 7 13 13 7 13 13 13 13 13 13 13 13 13 7 13 10 12 12 7 7 7 7 13 13 7 7 10 5 10 10 10 10 5 12 7 12 7 12 13 13 12 10 10 10 5 10 5 5 12 12 12 12 12 7 7 7 7 13 13 13 10 12 7 10 7 13 13 13 7 7 7 7 7 7 7 13 7 7 7 7 13 7 7 7 7 7 7 13 13 13 13 13 7 7 7 7 7 13 3 13 3 3 13 13 13 13 13 13 13 7 7 7 7 13 12 13 7 7 7 7 13 13 13 13 7 7 13 7 7 7 13 13 13 7 13 13 7 13 13 13 13 13 13 13 7 7 7 13 3 3 10 13 13 13 7 12 12 12 12 7 7 12 7 3 3 13 7 7 7 12 7 3 13 13 12 7 7 12 13 7 7 7 7 12 12 3 3 3 3 7 3 3 3 3 7 13 7 7 13 13 13 13 7 7 -9999 
-9999 -9999 -9999 13 7 7 7 13 7 7 13 13 13 13 13 13 13 13 13 3 13 13 13 13 7 12 7 7 13 13 13 13 13 13 13 5 5 3 3 5 5 5 12 12 12 12 12 12 12 10 10 10 10 10 5 5 10 5 12 12 12 7 12 7 7 7 7 7 7 7 10 7 3 13 13 13 13 13 7 7 13 13 7 7 7 13 7 7 7 13 7 7 7 7 7 7 13 13 13 13 13 13 7 7 7 7 7 13 13 13 13 13 13 3 13 13 13 13 13 7 7 13 13 13 13 7 7 7 7 7 13 13 7 7 12 12 13 7 7 7 13 13 13 7 7 7 13 13 13 13 13 13 13 7 7 7 13 7 13 7 13 12 12 12 12 12 12 12 7 13 7 7 3 3 7 13 12 7 13 7 7 3 13 7 13 7 12 7 7 7 7 3 7 7 7 3 3 3 3 3 7 7 13 13 13 13 13 13 13 13 13 13 13 -9999 
-9999 -9999 -9999 13 13 7 7 7 7 7 7 7 13 7 13 13 13 13 13 13 13 13 13 7 7 7 7 13 13 7 7 13 13 7 7 10 10 10 10 5 12 5 5 12 10 5 12 10 10 10 10 10 5 5 5 10 10 12 12 12 12 12 12 7 7 7 7 7 7 13 13 7 13 13 13 13 7 7 7 7 13 13 7 7 7 7 7 13 7 13 7 7 7 7 7 7 13 7 13 13 13 7 13 7 7 7 13 13 13 3 13 13 13 13 13 13 13 13 13 13 13 13 13 13 13 13 13 7 7 7 7 7 7 7 7 7 12 13 13 7 13 13 7 13 7 13 7 13 13 13 13 13 7 7 7 13 13 13 13 7 13 12 12 12 12 12 12 7 7 13 13 13 13 13 7 13 13 7 13 7 7 13 7 7 12 12 7 7 7 13 13 13 3 3 3 7 3 7 3 7 7 7 13 13 13 13 13 13 7 13 7 7 13 -9999 
-9999 -9999 -9999 13 13 13 7 7 7 7 7 13 13 13 13 13 13 13 13 13 13 13 13 13 13 7 13 7 13 7 7 7 13 12 7 10 7 12 5 5 5 5 5 5 12 5 5 5 12 10 10 5 5 12 10 10 12 12 12 12 12 12 12 10 7 7 7 7 13 7 13 13 13 13 13 13 13 7 7 13 13 3 3 3 7 7 13 13 7 7 13 3 3 13 13 7 7 7 13 13 13 7 13 13 13 7 7 13 13 13 13 13 3 13 13 13 13 13 13 13 13 13 13 13 13 3 13 13 7 13 7 13 13 7 7 7 7 13 13 13 13 13 13 13 13 7 7 13 13 13 13 7 12 7 7 7 13 12 12 12 12 12 12 12 12 7 7 7 13 7 13 13 7 13 13 13 13 12 12 12 12 12 12 12 7 7 7 7 7 13 13 13 13 13 13 3 7 7 7 13 13 7 7 13 13 13 13 13 7 13 7 7 13 -9999 
-9999 -9999 -9999 13 3 3 7 7 7 13 7 13 7 13 7 13 13 13 13 13 13 7 13 13 7 7 7 7 13 13 12 12 10 10 10 10 5 5 5 5 5 12 10 5 12 12 5 10 10 10 3 2 5 5 10 12 7 12 12 12 12 7 12 13 7 13 13 7 13 3 7 7 13 13 13 13 7 7 7 13 13 13 3 3 7 7 7 7 7 13 13 3 13 7 13 3 7 3 7 13 13 7 7 13 13 13 3 13 13 13 13 13 13 13 13 13 13 13 3 13 13 13 13 13 13 3 13 13 13 12 7 7 7 7 12 7 7 13 7 13 13 7 13 13 13 7 13 7 13 13 13 12 12 12 12 12 7 12 12 12 12 12 12 12 7 7 7 13 3 7 13 13 7 13 7 7 12 12 12 12 12 7 12 12 13 7 13 13 13 13 13 13 13 13 13 13 5 3 7 7 3 7 7 7 13 13 13 13 13 7 7 7 3 -9999 
-9999 -9999 -9999 13 13 13 13 13 7 7 7 13 13 7 13 13 7 13 13 13 13 7 7 13 13 7 12 12 12 12 10 5 5 5 5 10 10 5 5 10 12 10 10 5 5 12 12 10 10 10 5 10 12 10 3 12 12 12 7 7 7 7 7 7 7 13 13 7 13 13 7 13 13 7 13 13 13 13 7 7 13 13 13 13 7 13 13 7 13 7 7 13 7 13 7 7 7 3 3 13 13 13 7 3 13 13 13 13 13 13 13 13 3 13 13 13 13 13 13 13 13 13 13 13 13 13 13 13 7 12 12 12 7 12 7 13 13 13 13 13 13 13 13 13 13 7 13 7 13 7 12 7 12 12 12 12 12 12 12 12 12 12 12 12 7 13 13 7 7 7 13 13 13 13 13 7 7 12 12 12 12 12 12 12 7 7 7 7 7 13 13 13 13 13 13 13 3 7 7 7 13 7 7 7 13 13 13 13 13 7 7 7 7 -9999 
-9999 -9999 -9999 13 13 13 13 13 7 3 7 13 13 7 7 7 13 13 13 13 7 7 7 13 13 13 10 5 12 10 10 5 3 3 5 3 12 5 5 5 10 10 10 5 5 12 12 5 10 10 10 5 5 5 10 12 12 7 7 7 7 7 7 7 7 13 13 7 7 13 7 13 3 13 13 3 13 13 13 7 7 7 13 13 7 7 13 13 7 7 7 7 7 13 7 7 7 13 13 13 13 13 7 13 13 13 13 13 13 13 13 13 13 13 13 13 13 13 13 13 13 13 13 13 13 13 13 13 7 12 12 12 7 12 13 7 13 13 13 13 7 7 7 7 13 7 7 7 7 12 12 12 12 12 12 12 12 12 12 12 10 12 12 12 7 13 13 13 13 7 13 13 12 12 12 7 12 12 12 12 12 12 7 7 7 7 3 3 7 13 13 13 13 13 13 13 7 7 13 13 13 13 13 13 13 13 13 13 7 7 7 7 7 -9999 
-9999 -9999 -9999 13 3 3 3 13 13 13 13 3 13 7 7 7 13 13 13 13 7 7 7 13 13 7 13 12 12 5 5 5 10 10 10 7 5 5 12 12 10 10 5 3 3 10 5 5 10 12 10 10 12 5 12 7 12 7 7 7 7 7 7 7 13 13 7 7 13 7 13 13 13 13 13 13 13 13 13 7 7 7 7 13 13 7 7 7 7 7 7 7 13 7 7 7 7 7 13 7 13 13 13 7 13 7 13 13 13 13 13 13 13 7 7 13 13 13 13 13 13 13 13 13 13 13 13 7 7 7 12 7 12 12 7 13 13 13 13 13 13 13 13 7 12 12 12 7 7 12 12 12 12 12 12 12 12 12 12 12 12 12 7 7 7 13 12 7 13 12 12 12 12 12 12 12 12 12 12 12 12 12 12 7 7 7 7 7 7 7 13 13 13 13 13 13 7 7 7 13 13 13 13 3 13 13 13 7 7 7 13 13 13 -9999 
-9999 -9999 -9999 13 13 13 13 7 7 13 13 13 13 13 7 7 13 13 13 7 10 7 13 7 7 7 13 13 12 12 12 12 12 10 10 10 12 5 5 5 10 10 10 5 5 12 5 10 10 12 10 5 5 12 12 7 7 7 7 7 7 13 7 7 7 13 13 7 13 13 13 13 13 13 7 7 13 7 13 13 7 7 13 13 13 7 7 7 7 7 7 13 13 3 7 13 13 7 7 13 7 13 7 13 13 13 13 13 13 13 13 13 13 7 7 13 13 13 13 13 13 13 3 13 13 13 13 13 7 7 7 7 12 7 7 13 13 13 13 13 7 7 7 7 7 7 12 12 12 12 12 12 2 5 12 12 12 12 12 12 12 12 12 12 12 12 12 7 12 12 12 12 12 12 12 7 12 12 12 12 12 12 12 7 7 7 13 7 7 13 13 13 13 13 13 13 3 3 7 13 7 3 3 3 3 3 13 7 7 7 7 3 13 -9999 
-9999 -9999 -9999 7 7 7 7 13 13 13 13 13 13 3 7 7 13 13 13 12 10 12 7 7 13 12 12 12 12 12 12 10 10 10 10 3 12 3 5 10 5 12 5 12 12 12 10 5 5 12 10 10 12 12 12 7 7 7 7 7 7 13 7 7 13 13 13 13 7 13 7 13 3 7 13 13 7 7 13 13 13 7 13 7 7 7 7 12 7 7 7 7 7 7 7 7 13 13 7 7 7 13 13 7 13 13 13 13 13 13 13 13 13 7 7 13 13 13 13 13 13 13 13 13 13 13 13 7 7 7 7 12 7 7 13 7 13 13 13 13 13 13 7 7 7 12 12 12 12 12 12 10 2 12 12 12 12 12 12 12 12 7 12 12 12 7 12 12 12 12 12 12 12 12 7 7 12 12 12 12 12 12 12 7 7 13 3 7 7 7 13 13 13 13 13 13 3 3 7 7 3 3 3 3 13 13 7 7 7 7 13 13 13 -9999 
-9999 -9999 -9999 3 13 7 7 3 7 7 7 13 13 13 3 7 7 13 13 7 10 12 12 12 7 12 12 10 12 10 10 10 10 5 5 5 10 10 5 10 5 12 12 10 10 12 7 10 12 10 12 10 7 12 7 7 7 12 7 7 13 13 7 7 13 13 13 7 13 13 7 7 13 13 13 7 13 7 13 13 7 7 7 7 12 12 12 7 7 7 7 7 7 7 7 7 13 13 3 7 13 7 7 7 7 7 13 13 13 7 7 7 7 3 7 7 13 13 13 13 13 13 13 3 13 13 13 13 7 13 7 12 7 13 13 13 13 13 7 13 13 7 7 12 12 12 12 12 12 12 12 2 2 12 12 12 12 12 12 12 12 12 12 7 12 12 12 12 12 12 12 12 12 10 12 12 12 12 12 12 12 12 12 12 7 7 3 3 7 7 13 13 13 13 13 12 13 13 13 7 7 7 3 7 3 7 7 7 7 7 7 7 7 -9999 
-9999 -9999 -9999 13 13 7 7 7 7 7 7 13 13 13 13 12 7 13 13 13 12 5 5 12 5 5 5 10 5 5 10 10 10 10 5 5 5 5 5 12 7 12 12 10 10 7 12 12 7 12 10 10 5 7 12 7 7 7 7 7 13 13 13 13 13 13 13 7 13 13 13 7 7 7 13 13 7 13 13 7 7 7 7 7 12 7 12 12 7 7 7 7 7 3 7 7 13 7 7 7 7 7 7 13 7 13 13 13 13 7 7 7 7 13 13 13 13 13 3 13 13 3 3 3 13 13 13 13 7 7 13 13 13 13 13 13 13 13 7 7 13 13 7 12 7 12 12 12 12 12 2 2 3 12 12 7 12 12 12 12 12 12 12 12 12 12 12 12 12 2 2 10 12 12 12 7 7 7 12 12 12 12 12 7 7 13 13 7 13 13 13 13 13 13 13 12 13 13 7 13 12 7 3 7 13 7 13 3 7 7 7 13 7 -9999 
-9999 -9999 -9999 7 13 7 7 7 3 7 7 7 13 13 13 10 7 7 13 7 7 10 5 5 5 10 10 10 3 5 10 5 5 10 5 5 10 12 12 12 7 5 5 12 7 7 7 7 12 12 10 5 12 12 7 12 7 7 7 7 7 7 7 13 7 13 13 7 13 13 13 13 7 7 7 13 7 13 13 13 12 12 12 7 12 12 12 7 7 7 7 7 3 2 7 13 7 7 13 13 13 7 7 13 7 7 13 13 13 13 7 7 7 3 3 13 13 13 13 13 13 3 3 13 13 7 13 13 13 13 13 13 7 13 13 13 7 13 7 7 12 12 7 12 12 12 12 12 12 10 2 2 10 7 7 12 12 12 12 12 10 12 12 5 12 12 12 12 12 10 2 2 7 12 7 13 7 7 12 12 12 12 7 7 13 7 7 13 7 7 13 13 13 13 7 7 13 13 13 7 13 7 13 13 7 7 7 7 7 7 7 7 7 -9999 
-9999 -9999 -9999 7 13 13 12 7 7 7 7 7 13 13 7 13 7 12 7 12 12 12 5 12 10 10 10 10 10 3 3 5 5 5 5 10 5 7 7 12 12 10 10 7 7 7 7 7 7 13 7 10 12 7 7 12 12 7 7 7 13 13 13 13 7 7 13 13 7 7 13 13 13 7 7 13 13 13 7 7 12 12 12 12 12 12 12 7 7 7 7 7 13 13 13 13 7 13 7 7 7 13 13 13 13 7 13 13 13 7 7 13 13 13 13 13 13 13 5 13 13 13 13 3 13 7 7 7 13 13 13 7 13 13 7 13 13 13 13 7 7 7 7 12 12 12 12 10 2 2 2 12 12 13 7 12 12 10 12 10 5 2 2 2 2 2 12 12 12 12 12 12 12 7 7 13 13 13 13 12 12 12 7 7 13 13 7 13 13 7 7 7 13 13 13 13 7 13 7 7 7 7 7 13 13 7 13 13 7 7 7 7 7 -9999 
-9999 -9999 -9999 7 7 7 12 12 7 12 7 7 7 7 7 7 7 7 3 12 10 5 10 10 10 5 10 10 10 3 3 5 10 5 10 10 5 7 7 7 12 7 7 7 7 7 7 7 7 7 7 7 7 7 7 12 7 7 13 7 13 13 13 13 13 13 13 13 13 13 13 13 13 7 7 13 7 7 13 12 12 12 12 12 12 12 12 7 7 7 7 7 7 7 13 13 7 7 7 7 13 13 13 13 13 7 13 13 13 7 7 13 13 13 13 13 13 13 3 13 13 7 13 3 3 13 13 13 13 13 13 13 13 7 13 13 7 7 13 7 13 7 12 12 12 12 12 12 13 2 2 12 7 12 13 12 5 10 3 3 2 2 2 2 2 2 2 5 12 12 12 12 7 7 7 7 7 7 7 13 13 7 13 13 13 13 13 12 12 12 7 13 13 3 3 13 7 12 12 12 7 13 13 13 7 7 7 7 7 7 7 7 7 -9999 
-9999 -9999 -9999 7 12 7 7 10 12 12 12 12 12 12 12 12 7 7 10 10 10 5 10 10 10 10 10 10 3 3 3 5 5 10 10 5 12 7 7 7 7 7 12 7 7 7 7 7 7 7 7 7 7 7 7 7 7 13 7 7 13 13 13 13 7 13 13 13 13 7 13 13 7 7 12 7 7 7 7 7 7 7 10 12 12 12 7 12 7 7 7 7 7 7 13 13 7 7 7 7 7 13 7 13 13 13 13 7 7 7 7 7 13 13 13 13 13 13 13 13 13 13 13 13 7 13 7 13 13 13 13 13 13 7 13 13 13 7 13 7 7 7 12 12 12 12 12 12 12 2 2 12 12 12 12 12 10 2 2 2 2 2 12 12 12 12 2 12 12 12 7 12 7 7 7 7 7 13 7 13 13 7 7 7 13 13 13 13 12 13 12 12 13 13 7 13 7 12 12 7 7 7 13 7 7 7 13 7 7 7 7 7 7 -9999 
-9999 -9999 -9999 13 7 7 7 13 12 12 12 12 12 10 12 13 13 3 3 5 3 5 10 10 10 2 10 10 5 10 5 5 10 12 10 10 5 12 7 7 7 7 7 7 7 7 7 7 7 7 7 7 7 13 7 7 7 7 7 7 7 7 13 13 13 7 7 12 12 7 7 7 7 7 12 13 7 7 7 13 12 12 10 5 5 12 7 12 7 7 7 7 7 7 13 7 13 7 7 7 13 13 7 13 13 13 13 13 7 7 13 13 13 13 13 13 13 3 13 13 13 13 13 13 13 13 13 13 13 13 7 13 13 13 13 13 13 13 7 13 7 7 7 12 7 7 12 12 12 10 2 12 12 7 12 12 3 2 10 2 12 12 12 12 12 12 12 12 12 12 12 12 12 12 7 7 13 7 13 13 13 13 7 7 13 13 13 13 12 12 12 12 13 12 12 12 7 13 12 12 12 12 7 7 7 7 7 7 13 7 7 7 3 -9999 
-9999 -9999 -9999 3 7 13 3 7 12 7 7 12 12 5 12 10 10 3 10 10 5 12 12 10 10 2 10 10 5 3 12 3 10 5 5 10 5 7 7 7 7 7 7 7 7 7 7 7 13 7 7 7 13 7 7 13 13 7 7 13 7 7 7 7 7 7 12 12 7 7 7 7 12 12 12 7 12 12 12 12 12 10 5 5 12 12 12 7 7 7 7 7 7 7 13 7 7 7 7 7 7 7 7 7 13 13 7 7 7 13 13 13 13 13 13 13 13 10 13 13 13 3 13 13 13 13 13 13 13 7 13 13 13 13 13 13 13 13 13 13 13 13 7 12 7 12 7 7 12 12 3 12 7 12 12 10 2 12 12 12 12 10 10 12 12 12 12 12 12 7 12 12 12 12 7 7 7 13 13 13 13 13 13 13 7 13 13 13 7 13 7 13 13 12 12 12 7 7 12 12 12 12 12 7 7 7 7 7 7 7 7 7 7 -9999 
-9999 -9999 -9999 13 3 13 13 7 10 7 13 7 12 12 12 7 10 10 5 10 5 5 12 10 5 3 5 10 10 5 12 5 5 10 5 10 5 12 7 7 7 7 7 7 7 7 7 7 13 7 13 7 7 7 7 13 13 13 7 13 7 7 7 7 7 7 12 12 7 7 7 7 12 12 12 7 12 12 5 12 10 5 5 5 12 12 12 12 12 7 7 7 7 7 12 12 7 7 7 7 13 7 7 7 13 13 7 7 7 13 7 13 13 13 13 13 13 13 13 13 7 13 13 13 13 13 13 7 7 7 13 13 13 13 13 13 7 13 13 13 13 7 13 7 7 13 13 13 12 12 3 12 12 12 10 5 12 12 12 12 10 12 10 12 12 7 7 7 7 7 7 7 7 13 7 13 7 7 13 13 13 7 13 13 13 13 13 13 13 13 13 7 13 13 12 12 12 7 7 7 12 7 12 7 7 13 7 13 13 7 7 7 13 -9999 
-9999 -9999 -9999 3 13 13 13 7 7 13 13 13 12 12 12 10 5 10 10 5 3 3 3 3 12 10 10 3 3 10 12 5 10 5 10 5 12 7 7 7 7 7 7 7 7 7 7 10 7 7 7 13 7 7 7 7 13 7 13 7 13 12 12 7 12 7 12 7 7 7 7 7 12 12 12 10 10 5 5 5 12 5 12 12 12 12 12 12 12 12 7 7 7 12 12 7 7 7 7 13 3 2 12 13 13 13 7 7 7 7 7 13 13 13 7 13 3 3 13 7 7 7 13 13 13 13 13 13 7 7 13 13 13 13 13 13 13 13 13 13 13 13 13 13 13 13 7 13 13 13 2 10 12 12 12 12 12 12 10 12 12 12 12 7 7 13 7 13 13 13 13 13 7 13 7 13 13 13 7 7 3 13 13 13 13 3 13 13 13 13 13 13 7 12 12 12 12 7 7 7 7 12 7 7 13 7 7 7 7 7 7 7 13 -9999 
-9999 -9999 -9999 3 13 13 3 7 7 7 7 10 10 12 5 5 10 5 10 5 10 3 5 3 3 12 10 13 3 5 5 5 5 5 10 12 7 12 7 13 7 7 7 7 13 13 7 10 7 7 7 7 7 7 13 7 13 13 13 13 7 7 7 7 7 12 7 10 12 12 7 7 12 12 12 10 10 10 5 12 5 5 5 5 10 12 12 12 12 7 7 7 7 12 12 12 12 7 13 7 13 3 13 13 13 7 12 7 7 7 13 13 13 13 7 13 13 13 7 7 13 13 13 13 13 13 13 13 13 13 13 13 13 7 7 13 13 13 13 13 13 13 13 13 13 13 13 13 13 12 3 12 12 12 12 10 5 10 12 12 12 12 12 7 7 7 13 13 13 13 13 7 7 13 13 7 13 13 13 13 3 13 13 13 13 13 13 13 13 13 13 13 13 12 12 12 12 12 7 7 7 7 7 12 7 7 7 7 7 7 13 7 13 -9999 
-9999 -9999 -9999 3 13 3 3 7 7 7 7 10 10 5 12 10 5 5 5 12 5 5 10 3 3 3 10 3 3 5 5 12 10 5 12 7 12 7 7 7 7 7 7 13 13 13 7 7 7 7 13 7 7 13 7 13 13 13 13 7 7 7 7 7 12 12 12 12 5 12 12 10 10 12 12 12 5 10 5 12 10 5 12 5 12 10 12 12 12 12 7 12 12 12 12 12 7 7 7 7 7 7 13 13 12 12 12 7 7 13 13 7 7 13 13 13 13 7 7 13 13 13 13 13 13 7 13 13 13 13 7 7 7 7 7 13 13 13 13 13 13 13 13 13 13 13 13 13 13 7 10 12 12 12 12 10 7 12 12 12 12 7 7 7 7 7 13 13 13 13 13 7 7 7 13 13 13 13 13 13 13 13 13 13 13 13 7 7 13 13 13 13 13 13 12 12 12 12 7 12 7 7 7 13 7 7 7 7 7 7 13 7 3 -9999 
-9999 -9999 -9999 3 13 13 3 13 13 3 10 12 5 5 12 10 12 12 5 12 10 10 10 5 5 5 3 3 3 5 12 10 5 5 12 12 12 12 7 7 12 7 7 7 7 7 7 13 13 7 13 13 13 13 13 13 7 7 7 13 7 13 13 12 12 10 5 12 12 10 10 10 10 5 5 5 12 12 5 5 12 12 5 5 5 12 12 12 12 7 12 12 12 12 12 12 7 7 7 13 7 7 7 12 7 12 12 7 7 7 7 7 13 13 13 13 7 7 7 13 13 13 13 7 13 13 13 13 13 7 7 7 7 13 13 13 13 13 13 13 13 13 13 13 13 13 13 13 13 13 12 12 12 12 12 12 12 12 7 7 7 7 7 7 7 7 13 13 13 13 13 13 13 7 13 13 13 13 13 7 7 13 3 13 13 12 12 12 12 7 7 13 13 13 13 12 12 12 12 7 12 13 13 12 12 13 7 12 7 7 7 7 2 -9999 
-9999 -9999 -9999 13 3 3 13 7 7 7 7 10 5 12 10 5 12 12 10 12 7 7 5 10 3 5 5 3 3 3 5 10 5 5 5 12 12 12 12 12 12 12 7 7 12 12 7 13 13 13 13 13 13 13 13 7 7 7 13 7 13 13 13 7 7 7 12 7 12 12 10 10 10 5 12 5 12 12 5 5 5 12 5 5 10 5 12 12 5 12 10 12 12 12 12 12 7 7 7 7 7 7 7 7 12 12 7 7 7 7 7 7 7 7 7 7 7 13 13 13 13 7 7 13 13 13 13 7 7 12 7 12 7 13 13 13 13 13 13 13 13 13 13 13 13 13 13 13 13 12 10 7 12 12 12 12 12 12 7 7 7 7 13 13 7 7 13 13 13 13 13 13 7 7 13 7 13 13 13 13 7 13 13 13 13 13 12 12 12 7 7 7 7 7 7 7 12 12 12 12 7 7 7 7 7 13 7 12 7 13 13 13 2 -9999 
-9999 -9999 -9999 13 3 13 7 7 7 3 7 7 3 7 10 10 12 12 12 12 12 12 12 10 5 12 10 10 3 5 5 10 5 5 12 5 12 12 10 12 12 12 12 7 12 7 7 13 13 13 13 13 13 13 13 13 7 7 7 7 7 13 13 7 7 12 12 12 12 7 12 10 10 10 10 10 5 5 12 10 10 5 10 5 5 5 5 12 12 12 12 12 12 12 7 12 7 7 7 7 7 7 7 7 7 12 12 7 7 12 13 13 12 12 12 7 7 7 13 13 13 13 13 13 13 13 13 7 7 7 7 13 13 13 13 13 13 13 13 13 13 7 7 7 13 13 13 13 12 12 12 12 12 12 12 12 10 7 7 7 7 7 7 7 7 7 13 13 13 13 13 13 13 7 13 13 13 13 7 13 13 13 13 13 13 13 13 12 12 12 12 12 12 7 12 12 12 12 12 12 7 7 7 7 12 12 7 7 12 12 12 13 -9999 -9999 
-9999 -9999 -9999 3 3 13 3 3 13 3 13 3 3 7 10 12 12 7 7 12 7 12 12 10 10 12 10 10 10 5 5 5 10 5 5 12 12 12 5 12 12 12 12 12 12 12 7 7 13 13 13 13 7 7 13 13 7 7 13 7 13 7 7 7 7 7 7 12 12 12 12 10 5 10 10 10 10 10 10 10 10 12 10 5 5 5 5 12 12 12 12 12 12 12 12 7 7 12 12 12 12 12 7 12 12 12 12 12 12 12 12 12 12 12 7 13 13 13 13 13 13 13 13 13 13 13 13 12 12 12 12 7 13 13 13 13 13 13 13 13 12 12 12 12 7 13 13 12 12 12 12 12 5 12 12 12 7 7 7 7 7 13 7 7 7 7 13 13 3 7 13 7 7 7 7 13 13 13 13 13 13 13 13 13 13 13 7 13 12 12 12 12 12 12 12 12 12 12 12 7 7 7 7 13 12 12 12 13 13 13 12 13 -9999 -9999 
-9999 -9999 -9999 3 13 13 3 3 3 3 3 3 13 7 12 10 12 10 12 10 12 12 10 5 5 5 12 12 5 5 5 5 5 10 5 12 5 5 5 3 7 12 12 12 7 7 7 7 13 7 7 13 7 7 7 13 13 7 7 13 13 13 7 12 7 7 7 12 12 7 12 12 10 10 10 10 10 10 10 12 12 12 12 5 12 5 5 5 5 12 5 12 12 12 7 7 12 12 7 12 12 12 12 12 12 12 12 12 12 7 12 12 7 7 13 7 13 13 13 13 13 13 13 13 13 13 13 12 12 7 13 13 13 13 13 13 13 13 13 13 12 13 12 12 12 7 13 12 12 12 12 12 12 12 12 7 7 7 7 7 7 7 13 7 7 7 7 13 13 7 13 7 7 7 7 7 7 13 13 13 13 13 13 13 13 7 13 7 7 13 12 12 12 12 10 12 12 12 12 12 7 12 7 12 7 12 12 13 13 13 12 12 -9999 -9999 
-9999 -9999 -9999 3 3 3 3 3 3 3 13 7 3 7 5 5 10 10 10 7 5 10 10 5 10 10 12 10 5 12 5 10 10 5 10 10 5 10 10 12 12 12 12 7 12 7 7 7 13 13 13 13 13 10 12 7 12 12 7 7 7 7 13 7 7 7 7 7 7 7 12 10 10 5 10 10 10 12 12 12 12 12 12 5 5 5 10 5 5 5 5 5 5 12 7 12 12 5 12 12 12 12 12 12 12 12 12 12 12 12 12 7 7 13 13 7 13 7 13 13 13 13 13 13 13 7 7 12 7 7 13 13 13 13 13 13 13 13 13 13 12 13 13 12 12 12 12 12 12 12 12 12 12 12 7 7 7 7 7 13 7 7 7 7 7 7 7 13 13 13 13 7 7 13 13 13 7 13 13 13 13 13 13 13 13 13 7 13 13 13 12 12 12 12 10 10 10 12 12 12 12 12 12 12 12 12 12 13 13 13 13 12 -9999 -9999 
-9999 -9999 -9999 3 3 3 3 3 3 3 3 3 3 3 7 7 3 10 10 5 5 10 5 10 10 10 12 10 10 5 10 5 5 10 5 10 5 3 12 12 12 12 5 12 7 7 7 7 13 7 13 13 13 13 7 12 12 12 12 7 7 7 13 7 7 7 7 7 13 12 10 5 10 5 2 2 12 12 12 12 12 12 12 12 10 12 10 10 5 12 12 12 12 12 12 5 5 5 5 5 12 12 12 12 12 12 12 7 7 7 7 7 7 7 13 7 13 13 13 13 7 13 13 7 13 13 12 12 7 7 13 13 13 13 13 13 13 13 13 13 13 7 13 12 10 12 12 12 12 12 10 12 12 12 12 7 13 13 7 7 7 7 7 7 7 7 7 7 7 13 13 7 13 7 7 13 7 7 13 13 13 13 13 13 13 7 7 13 7 7 7 12 7 12 12 12 12 12 12 12 12 7 7 12 7 12 12 12 7 13 12 13 -9999 -9999 
-9999 -9999 -9999 3 3 3 3 3 3 3 3 13 3 3 3 3 3 10 10 10 10 5 5 12 12 10 5 5 10 10 5 2 3 5 10 5 5 5 5 5 5 12 12 7 7 7 7 7 13 13 13 13 13 13 7 7 7 12 12 7 7 7 7 7 7 7 7 13 13 12 5 10 10 5 2 2 12 12 12 12 12 12 12 12 10 5 12 12 12 5 12 12 12 12 5 5 5 5 5 5 12 12 12 12 12 12 13 7 7 13 7 7 7 13 7 7 13 7 13 13 7 7 13 13 13 7 12 12 12 7 7 7 13 13 13 13 13 13 13 12 7 7 12 12 12 12 12 12 5 10 5 12 12 12 12 7 7 13 13 7 7 7 7 7 7 7 7 7 7 7 13 13 13 13 7 7 7 7 13 13 13 13 13 13 7 13 13 13 7 7 7 7 12 7 7 12 12 12 12 12 12 12 7 12 7 12 12 7 7 13 13 13 -9999 -9999 
-9999 -9999 -9999 3 3 3 3 3 3 3 3 13 7 3 13 3 7 10 10 5 5 5 12 12 12 10 10 5 10 5 5 10 3 5 12 5 5 5 5 12 12 12 7 7 7 7 7 7 13 13 7 7 7 7 7 7 12 12 5 7 7 7 7 7 7 7 13 13 7 12 5 5 10 2 2 12 12 12 12 12 12 12 10 12 10 12 12 12 5 5 5 12 12 12 5 5 5 5 5 5 12 12 7 12 7 7 7 7 7 7 3 3 7 13 13 7 13 7 13 7 7 13 13 13 13 7 12 12 12 7 7 13 13 13 13 13 13 13 13 13 12 12 12 12 12 12 12 12 12 10 12 12 12 7 7 7 7 13 13 13 7 7 7 7 7 13 7 13 13 7 13 13 7 7 7 7 13 7 13 13 13 13 13 7 13 13 13 7 7 7 7 7 7 7 7 12 12 12 12 12 12 12 12 12 12 12 12 12 12 7 13 13 -9999 -9999 
-9999 -9999 -9999 13 3 7 3 7 3 3 7 3 7 13 3 10 12 12 10 5 5 5 12 12 10 10 5 5 12 10 5 5 5 12 5 5 5 5 5 5 12 12 12 7 7 12 7 7 7 3 13 7 12 7 7 12 12 12 10 12 7 13 7 7 7 7 7 12 12 5 10 2 2 12 12 12 12 12 12 12 12 12 12 10 10 5 10 10 10 10 5 5 12 12 12 5 5 12 12 12 12 12 7 7 7 7 13 7 7 7 7 13 7 13 7 7 7 13 7 7 13 7 7 12 7 12 12 12 7 7 13 13 13 13 13 13 13 13 7 13 13 12 12 10 12 12 12 12 10 12 12 7 7 7 13 7 7 13 13 13 13 13 7 7 7 7 7 13 7 7 7 7 7 7 7 7 7 13 7 13 13 13 13 13 13 7 13 13 13 13 7 7 7 7 12 7 12 12 12 12 12 12 12 12 12 12 12 5 12 12 12 3 -9999 -9999 
-9999 -9999 -9999 3 3 7 3 7 7 3 13 7 7 7 7 7 12 12 10 10 5 12 12 12 12 12 3 5 12 12 10 10 5 5 5 5 5 5 12 5 12 12 12 12 7 13 13 12 12 7 10 10 12 12 12 12 12 12 10 7 7 7 7 12 12 12 12 12 5 10 10 2 2 12 12 12 12 12 12 12 12 12 12 12 10 10 12 12 12 10 5 5 12 12 12 12 12 12 12 12 12 7 7 13 7 7 13 13 13 7 7 7 13 13 7 13 7 7 13 13 13 7 7 12 12 12 12 12 7 7 13 13 13 13 13 13 13 13 13 13 13 12 12 12 12 5 12 10 10 7 12 7 7 7 13 13 7 13 13 13 13 7 7 7 7 7 13 7 7 7 13 7 7 7 7 7 13 7 13 7 13 13 13 13 13 13 13 13 13 13 7 7 7 7 7 7 12 12 12 10 10 10 10 5 12 12 12 12 12 12 12 3 -9999 -9999 
-9999 -9999 -9999 3 3 7 3 7 7 7 13 13 7 7 7 7 12 5 5 5 12 10 12 12 12 12 10 10 12 12 10 10 2 3 5 5 12 5 5 5 12 12 12 12 7 13 7 12 12 7 10 10 12 12 12 12 12 12 10 7 12 7 7 12 12 12 5 5 10 5 10 2 12 12 12 12 12 12 12 12 12 12 12 12 10 10 10 10 3 3 2 5 12 12 12 12 7 12 7 12 7 12 7 12 7 7 7 7 13 13 7 7 13 13 13 13 13 7 13 13 13 12 12 12 12 12 12 12 7 13 7 13 13 13 13 13 13 13 13 13 7 7 12 12 12 12 12 10 12 12 7 7 7 13 13 13 13 13 13 13 7 13 7 7 7 7 7 7 7 7 7 7 7 7 7 7 7 13 13 7 13 7 13 7 13 13 7 7 13 13 13 7 7 7 7 12 12 12 12 10 10 10 2 10 12 12 12 12 12 12 12 3 -9999 -9999 
-9999 -9999 -9999 13 3 7 7 13 7 7 13 7 13 12 7 7 12 12 12 12 12 7 7 12 12 12 10 10 12 12 12 2 2 5 10 5 5 5 12 5 12 12 12 12 7 12 10 12 12 7 12 12 12 12 12 5 12 10 5 12 7 12 12 12 5 5 12 3 3 10 3 5 12 12 7 12 12 12 12 12 12 12 12 10 10 12 12 10 13 3 3 3 7 7 7 12 7 7 12 12 12 12 13 13 13 7 7 13 13 3 2 5 7 7 13 13 7 7 7 13 12 12 12 12 12 12 7 7 13 13 13 13 13 13 13 13 13 13 13 12 12 12 12 12 12 12 12 5 12 7 7 7 13 13 13 13 13 13 13 13 7 13 13 13 7 7 7 7 7 7 13 7 13 7 7 7 7 13 13 13 13 7 13 13 13 13 7 13 7 7 7 12 12 12 12 12 12 10 10 10 2 2 12 10 2 10 12 12 7 12 12 3 -9999 -9999 
-9999 -9999 -9999 7 7 7 7 13 7 7 13 7 7 12 10 5 12 12 12 12 12 12 12 7 12 10 10 10 12 12 12 10 2 5 10 5 5 12 10 10 12 12 12 12 12 12 12 12 12 12 12 12 12 10 12 12 12 5 12 12 7 12 12 12 5 5 5 10 10 10 10 7 7 7 7 12 12 12 12 12 12 12 12 12 10 10 10 10 3 13 3 13 7 7 7 7 7 7 12 12 12 7 7 13 13 7 7 7 13 5 5 7 7 7 13 7 13 7 12 7 12 12 12 12 12 12 7 7 13 13 7 7 13 13 13 13 13 7 12 12 12 12 12 12 12 12 12 12 12 7 7 7 7 7 13 13 13 13 13 13 13 13 13 7 7 7 7 7 7 7 7 13 7 7 7 7 7 13 13 13 13 13 13 13 7 7 13 13 7 7 12 12 12 2 2 10 10 10 12 12 12 10 12 12 10 2 12 12 7 12 12 2 -9999 -9999 
-9999 -9999 -9999 7 7 12 7 7 7 7 7 12 12 12 10 12 5 7 7 12 12 7 12 12 12 12 12 5 12 12 10 2 3 2 2 5 5 5 10 12 12 12 12 10 12 12 12 12 12 12 5 12 12 12 5 5 5 12 5 10 5 5 5 5 5 5 5 5 10 10 10 10 7 12 7 12 12 7 12 12 12 12 12 12 10 10 10 10 10 3 13 13 13 12 7 7 12 12 12 12 7 7 7 7 7 7 7 7 7 7 7 7 13 7 7 13 13 13 12 12 12 12 12 12 12 12 7 7 13 7 13 13 13 13 13 13 13 12 12 12 12 12 12 12 12 12 12 7 7 7 7 7 13 13 13 13 13 13 13 13 13 7 7 13 7 7 7 7 7 7 7 7 7 13 7 7 7 13 13 13 13 7 13 13 7 7 7 7 7 7 12 7 12 12 12 10 2 2 12 12 12 12 12 12 12 2 10 12 12 12 12 13 -9999 -9999 
-9999 -9999 -9999 7 7 12 12 7 7 7 12 12 12 12 10 10 5 12 12 12 12 12 10 12 12 12 7 5 12 7 10 2 2 2 2 2 5 5 5 12 12 12 5 5 5 3 3 3 3 3 2 3 10 10 5 5 10 10 10 10 10 10 10 5 5 10 10 5 12 12 10 5 5 7 7 7 7 7 7 12 12 12 12 12 10 10 10 3 10 5 3 3 5 5 7 7 7 12 12 12 7 7 12 7 7 7 13 7 7 7 7 7 7 12 7 7 13 13 12 12 12 12 12 12 12 7 7 13 7 7 13 13 13 13 13 7 7 12 12 12 12 12 5 12 12 12 12 12 7 7 7 7 7 13 13 13 13 13 13 7 13 7 13 13 13 7 7 7 7 7 7 7 7 7 7 13 7 7 13 13 7 7 13 13 13 7 13 7 7 7 7 12 12 12 12 12 12 12 12 12 12 12 12 12 10 10 12 12 12 12 12 13 -9999 -9999 
-9999 -9999 -9999 12 7 12 7 7 12 12 12 12 5 5 10 10 5 5 5 5 5 5 5 7 12 12 10 5 12 10 10 10 2 2 2 2 5 5 12 12 12 12 5 3 3 3 3 3 3 3 2 5 5 5 10 5 10 10 12 5 5 10 10 5 5 10 5 12 12 12 12 10 5 7 7 7 7 7 7 7 12 12 12 12 12 10 10 10 10 10 5 3 10 5 5 12 12 12 12 12 12 12 12 7 7 7 7 7 7 7 7 7 7 7 7 12 12 12 12 12 12 12 12 12 12 12 7 7 7 12 7 13 13 13 7 13 7 12 12 12 12 5 12 12 12 12 7 12 13 7 7 13 13 13 13 13 13 13 13 13 7 7 7 13 13 13 13 13 7 7 7 7 7 7 7 7 7 13 7 13 13 13 7 13 13 13 13 13 7 7 7 12 13 7 12 12 12 12 12 12 12 12 12 12 10 2 12 12 12 12 12 12 -9999 -9999 
-9999 -9999 -9999 12 12 5 12 12 12 12 12 12 5 5 5 10 12 10 5 5 5 5 5 12 12 12 10 5 5 10 10 10 2 2 2 10 5 10 5 12 12 3 3 3 3 3 3 5 3 3 3 5 5 5 5 12 5 5 12 12 12 10 10 10 10 12 12 12 12 12 12 12 10 7 7 7 7 7 7 7 12 12 12 12 12 10 10 10 10 10 10 10 5 5 5 12 12 12 12 5 12 12 7 7 12 7 12 7 7 7 7 7 7 7 7 12 12 12 5 5 12 12 12 12 12 7 12 7 12 7 7 13 13 7 7 7 12 12 12 12 12 12 12 12 12 7 7 13 7 7 7 13 13 13 13 13 13 13 7 13 13 13 7 7 13 7 7 13 7 7 7 7 7 7 7 7 7 7 13 7 13 13 13 13 13 13 13 13 13 13 7 7 7 7 12 7 7 12 12 12 12 12 12 12 12 2 10 12 12 12 12 12 -9999 -9999 
-9999 -9999 -9999 5 5 5 5 12 12 12 5 5 5 5 5 10 5 5 5 5 5 12 10 5 5 12 10 10 10 10 10 5 2 2 2 5 12 12 12 12 3 3 3 5 5 5 3 10 5 3 3 3 3 3 5 12 5 10 12 5 10 5 10 10 5 7 7 12 12 12 7 12 7 5 7 7 7 7 7 7 12 12 12 12 10 10 5 3 3 7 12 13 13 5 5 5 5 10 10 12 12 12 12 12 12 12 12 12 7 7 12 7 12 12 12 12 12 5 12 12 12 12 12 5 12 12 12 12 12 7 12 12 7 7 12 12 12 12 5 12 12 12 12 12 12 13 7 13 7 13 13 7 7 7 13 13 13 13 7 7 12 13 13 7 7 7 7 7 7 7 7 7 7 7 7 7 13 13 13 13 13 13 13 7 13 13 13 13 13 7 13 13 7 7 7 7 7 12 12 12 12 12 12 12 10 2 10 12 12 12 12 12 -9999 -9999 
-9999 -9999 -9999 5 5 5 5 5 5 12 5 5 10 10 12 5 10 10 5 5 10 10 5 12 12 5 10 5 5 5 10 2 2 2 5 5 12 12 12 3 3 5 5 5 10 10 10 10 12 10 3 3 3 5 5 5 10 5 5 5 5 10 10 10 10 12 12 12 7 7 7 7 12 5 7 7 7 7 7 12 12 12 12 10 10 10 5 10 3 10 10 3 3 5 5 5 5 5 5 10 12 10 12 7 12 12 12 12 7 7 12 7 12 12 12 13 5 3 5 12 12 3 12 12 12 12 12 12 12 12 12 12 12 7 12 12 12 5 5 12 12 12 12 12 13 13 7 7 7 13 13 13 7 13 7 13 7 7 7 7 7 7 7 7 7 12 12 7 7 7 7 7 7 7 7 7 7 13 13 13 13 13 13 13 13 13 13 13 13 13 13 13 13 13 13 13 13 13 12 12 12 12 12 12 2 2 10 12 12 12 12 2 -9999 -9999 
-9999 -9999 -9999 10 10 10 5 5 5 10 5 10 12 5 5 5 5 10 5 10 10 5 10 12 12 10 5 12 5 12 10 2 2 2 2 5 12 5 10 5 3 3 5 10 2 10 10 10 10 10 10 10 5 10 10 5 10 5 12 12 12 12 12 5 12 7 7 7 7 12 7 7 7 10 5 7 7 7 7 12 12 10 10 10 12 10 10 5 12 10 7 7 10 10 10 10 5 5 5 5 5 7 3 7 12 12 7 7 7 13 7 12 12 10 13 13 3 3 12 13 3 3 3 3 12 12 12 12 12 12 12 12 12 12 12 12 5 10 5 12 12 12 12 7 7 7 7 7 7 7 7 13 13 13 7 7 7 7 7 13 7 7 7 12 12 12 12 7 7 13 7 7 7 7 7 13 7 7 7 13 13 13 13 13 13 3 13 13 13 13 13 7 13 13 13 13 13 13 7 12 12 12 12 2 2 2 10 12 12 12 12 2 -9999 -9999 
-9999 -9999 -9999 10 12 10 5 5 5 10 10 5 5 5 5 5 10 5 5 10 12 10 10 10 12 12 12 12 5 10 2 2 2 2 5 5 5 5 5 5 5 5 5 5 10 3 10 12 12 12 10 10 10 10 10 3 10 5 12 12 12 10 5 12 10 5 12 7 7 7 7 7 12 7 12 7 7 7 12 10 10 12 12 12 7 12 12 10 12 12 12 7 13 12 10 5 10 10 10 10 10 5 3 3 3 7 7 12 12 7 12 12 13 3 3 3 12 5 3 3 13 13 3 13 12 12 5 5 5 12 12 12 12 12 12 10 5 5 12 12 12 12 7 7 13 13 7 13 13 13 13 7 13 7 7 7 7 7 7 12 7 7 12 12 12 12 12 7 7 13 13 7 7 7 13 7 7 13 13 13 13 13 13 13 13 3 13 13 7 13 7 7 13 13 13 13 7 13 7 7 12 12 12 10 10 2 2 12 12 12 12 12 -9999 -9999 
-9999 -9999 -9999 2 2 12 2 5 10 10 5 10 12 5 5 10 10 5 5 10 5 10 10 10 10 7 5 12 12 10 2 2 2 2 5 5 5 5 5 5 5 5 5 5 10 10 12 12 12 12 12 12 10 10 10 3 12 12 12 12 12 10 10 5 10 5 12 7 7 7 7 7 7 7 12 7 7 7 13 5 12 12 12 12 12 7 7 10 12 7 7 7 7 10 10 12 5 10 10 5 12 10 5 3 3 3 12 12 12 12 12 12 12 5 5 10 5 10 10 5 12 10 12 3 3 12 5 3 5 12 12 5 12 10 10 10 10 5 12 12 12 12 7 7 7 7 7 7 7 7 7 13 7 7 13 7 12 7 7 12 12 12 12 10 12 12 7 7 13 7 13 13 13 13 7 13 13 13 13 13 13 13 13 13 13 13 13 13 13 13 13 13 13 13 13 13 13 7 7 7 12 12 12 12 10 2 2 10 12 12 12 12 -9999 -9999 
-9999 -9999 -9999 2 2 2 2 12 10 5 5 5 5 12 12 5 10 10 5 5 10 5 5 10 2 5 5 12 10 2 2 2 2 2 5 5 10 5 5 3 5 5 5 5 12 12 12 12 12 12 12 12 10 10 10 3 3 12 7 12 12 12 12 12 10 12 10 7 7 7 7 7 7 7 12 7 7 7 7 12 12 12 12 7 12 12 12 10 10 7 12 12 12 10 10 3 10 10 10 10 5 5 5 5 3 3 3 12 7 5 10 12 12 10 10 12 12 12 12 12 5 5 5 12 13 3 3 3 13 12 12 5 5 5 10 5 5 5 12 12 12 12 7 7 7 13 7 13 7 7 7 7 7 7 7 7 12 7 12 12 12 7 10 12 12 12 13 13 13 7 7 13 7 7 7 13 13 13 13 13 13 13 13 13 13 13 13 13 13 13 13 13 13 7 7 13 13 7 7 7 7 12 13 10 2 2 2 10 12 12 12 10 -9999 -9999 
-9999 -9999 -9999 3 2 2 2 5 10 5 12 5 10 10 12 5 5 10 5 12 10 10 10 2 2 10 12 3 2 2 10 10 2 2 12 10 10 5 5 5 3 5 2 12 12 12 12 12 12 12 12 12 12 10 10 2 2 5 12 12 12 12 7 7 12 5 10 12 7 7 7 13 7 12 12 7 13 7 7 7 7 7 7 12 7 7 10 10 10 10 7 12 12 10 10 12 12 12 12 12 10 10 10 10 10 3 3 3 3 3 13 12 5 5 5 12 12 12 12 12 12 10 12 12 10 12 12 13 13 13 3 5 12 12 12 5 12 12 5 5 12 12 12 7 7 7 12 13 13 7 12 7 13 7 7 7 7 7 7 7 12 10 12 12 12 12 7 13 13 13 13 13 13 7 7 13 13 13 13 13 7 13 13 13 13 13 13 13 13 13 13 13 13 13 13 13 13 13 13 7 7 12 2 2 2 2 2 2 12 12 12 10 -9999 -9999 
-9999 -9999 -9999 10 5 10 10 5 10 10 5 5 5 12 5 5 5 10 5 10 10 10 10 2 5 10 2 2 2 2 2 2 2 2 5 5 5 5 5 5 2 5 5 12 12 12 12 12 10 10 12 12 12 12 10 10 3 3 12 12 10 7 12 5 12 10 10 12 7 7 13 13 7 12 12 7 7 7 13 7 7 7 12 12 12 7 10 10 10 10 7 12 7 3 10 12 12 12 12 12 12 10 10 10 5 3 3 5 3 10 10 10 10 5 5 12 12 12 12 12 12 12 10 12 7 12 12 12 12 12 5 10 5 3 5 12 12 5 5 5 5 12 12 12 7 12 12 12 13 12 12 7 7 7 7 7 7 7 7 12 12 10 12 12 12 7 7 7 7 13 13 7 7 13 13 13 13 13 3 13 13 13 13 13 13 13 13 13 13 13 13 13 13 13 13 13 7 13 7 13 13 12 13 2 2 10 2 2 12 12 12 10 -9999 -9999 
-9999 -9999 -9999 5 5 5 12 10 10 10 5 5 5 12 12 12 12 5 10 10 10 10 10 10 5 10 10 5 2 2 2 2 2 2 5 10 3 5 5 5 5 10 5 12 12 12 12 12 5 5 10 12 12 12 10 10 10 2 5 12 12 12 7 7 12 10 10 10 7 7 13 13 7 12 12 7 7 7 7 7 7 7 7 7 12 12 12 10 12 10 10 12 12 12 12 7 12 12 12 12 12 12 12 5 10 5 5 5 10 10 10 5 5 12 12 12 12 12 12 12 12 12 12 12 7 7 12 12 10 5 5 5 12 5 12 12 12 5 5 5 5 12 12 12 12 12 12 12 12 12 12 12 7 7 12 7 7 12 12 12 10 5 12 12 12 12 7 7 7 7 7 13 7 13 13 7 13 13 13 13 13 13 3 13 13 13 7 13 13 3 13 13 13 13 13 13 7 13 7 13 7 12 12 12 10 12 10 2 12 12 12 -9999 -9999 -9999 
-9999 -9999 -9999 10 10 5 10 10 10 10 10 10 5 5 12 12 12 12 12 10 10 5 10 5 10 5 10 5 10 10 2 2 2 2 12 10 5 10 5 10 10 10 12 12 12 12 12 12 10 12 12 12 12 12 12 12 10 10 3 12 12 12 7 10 12 12 7 10 12 7 7 7 7 7 7 7 13 7 13 7 7 7 7 7 7 7 12 7 7 7 10 7 10 10 10 12 12 12 12 12 12 12 5 12 12 10 10 10 10 10 10 5 12 12 12 12 12 12 12 12 12 12 12 12 12 12 12 12 12 12 12 5 12 10 12 12 12 12 12 12 12 12 12 12 5 12 12 5 12 12 12 12 12 12 12 12 12 12 12 12 12 12 12 12 12 7 13 7 7 7 7 7 7 13 13 7 13 13 13 13 13 13 13 13 13 7 13 13 13 13 13 13 13 13 13 7 7 7 13 13 12 7 7 7 12 12 2 2 12 12 12 -9999 -9999 -9999 
-9999 -9999 7 10 10 10 10 10 10 5 10 10 5 5 5 12 5 5 10 10 10 5 10 10 10 5 10 10 5 10 2 2 2 10 5 10 5 10 2 5 10 10 10 10 12 5 5 10 10 12 12 12 12 12 12 12 10 10 3 12 12 12 7 12 7 7 7 7 7 7 7 7 7 13 7 7 13 7 13 7 7 13 7 7 7 7 12 7 12 12 10 7 7 10 12 10 7 12 12 12 12 5 10 12 10 12 10 10 10 10 10 5 5 12 12 12 12 10 12 12 12 12 7 7 7 12 12 12 12 12 10 5 12 12 12 7 12 7 7 7 12 12 12 12 12 10 12 12 12 12 10 12 5 12 12 12 5 12 12 12 12 12 12 7 7 13 13 13 7 7 7 7 7 13 7 13 13 13 13 13 13 13 13 13 13 13 13 13 13 13 13 13 13 13 7 7 13 7 13 7 7 7 12 7 12 10 2 2 12 12 12 -9999 -9999 -9999 
-9999 -9999 7 7 10 5 5 10 10 5 10 10 10 5 5 5 5 10 10 5 10 5 5 5 5 10 5 5 10 12 10 10 10 10 5 3 5 5 2 5 10 10 10 10 10 10 10 5 12 12 7 12 7 12 12 12 12 12 10 5 12 12 12 7 7 7 7 13 7 13 13 7 13 13 13 13 7 13 7 13 13 13 7 7 12 7 7 12 12 12 7 3 7 7 12 5 12 12 12 12 5 12 12 12 10 12 12 10 10 5 5 5 12 12 12 12 10 12 12 12 7 12 7 7 12 12 12 12 7 12 10 12 12 12 12 12 12 7 12 12 12 12 12 12 12 12 12 10 5 10 10 5 12 12 12 5 10 10 5 12 12 12 12 7 7 13 13 13 7 7 7 7 7 13 13 13 13 13 13 7 13 13 13 13 13 13 13 13 13 13 13 13 13 7 13 3 13 7 13 13 13 13 7 7 12 2 2 10 5 12 12 -9999 -9999 -9999 
-9999 -9999 12 12 7 5 5 10 10 5 10 10 5 5 5 5 5 12 5 5 12 12 10 2 12 5 5 12 12 5 12 5 12 5 5 10 5 5 5 5 5 10 10 12 10 12 10 12 12 12 12 12 7 12 12 12 12 12 10 3 12 12 12 7 7 7 7 13 13 13 13 7 7 13 7 7 13 13 13 13 13 13 7 13 7 7 7 12 12 12 12 10 10 7 7 12 12 5 12 12 12 12 12 12 12 12 12 12 12 5 5 12 5 5 10 12 12 12 12 12 3 2 12 12 10 7 12 12 12 12 10 5 12 12 12 12 12 7 7 7 13 12 12 12 12 12 12 12 10 12 12 10 5 10 12 12 12 10 12 12 12 12 7 7 7 7 7 7 7 7 13 7 7 7 7 7 7 13 7 13 7 13 13 13 13 7 13 13 13 13 13 13 13 13 13 13 13 13 13 13 13 13 7 12 13 2 3 10 12 12 5 -9999 -9999 -9999 
-9999 -9999 12 12 7 7 12 12 10 5 10 10 5 5 5 5 5 5 12 5 12 5 10 5 5 5 5 5 5 5 7 12 12 5 12 12 10 10 3 5 10 10 10 12 10 10 5 12 12 7 7 7 12 7 12 12 12 10 10 3 5 12 12 7 7 7 7 13 7 13 7 13 7 7 7 13 7 13 7 7 7 7 13 13 7 7 7 12 12 12 12 10 10 3 10 12 7 12 12 12 12 5 12 12 12 12 12 12 5 3 12 12 12 12 2 12 12 12 12 12 12 12 12 7 7 12 12 12 12 10 5 5 12 12 12 12 12 7 12 7 12 7 7 12 12 7 7 12 12 12 12 10 12 12 12 12 12 12 10 5 12 12 7 7 7 7 7 7 7 7 7 13 7 7 7 13 13 13 7 13 7 7 7 13 13 13 13 13 13 13 13 13 13 13 13 13 13 13 13 13 13 13 13 7 13 12 2 2 10 12 12 -9999 -9999 -9999 
-9999 -9999 10 5 12 12 12 12 10 10 10 5 5 10 5 5 2 5 5 5 12 12 12 5 5 5 5 5 12 12 12 5 7 5 12 12 12 10 5 5 10 12 10 12 12 10 10 7 7 7 7 7 7 7 7 12 12 10 10 10 5 12 12 12 12 12 7 7 13 13 13 13 7 7 7 13 13 7 13 7 13 7 7 7 7 7 7 7 7 12 12 10 10 5 3 3 7 12 12 12 12 2 12 12 12 12 10 12 5 12 12 12 12 12 12 12 12 12 12 12 12 12 12 12 12 7 12 12 5 5 12 10 12 12 12 7 7 7 7 12 12 12 7 12 7 7 7 7 7 7 12 12 12 12 12 12 12 12 12 10 5 12 7 7 7 7 12 12 7 7 13 13 13 7 7 7 7 13 7 7 7 7 7 7 13 13 13 13 13 13 13 13 7 7 13 13 13 3 13 13 13 13 13 13 7 7 2 2 10 10 10 -9999 -9999 -9999 
-9999 -9999 10 10 10 10 5 5 10 10 10 10 10 10 10 12 10 5 5 5 5 5 5 12 5 5 12 10 10 12 12 10 12 10 12 7 12 10 10 5 10 5 5 5 12 12 10 12 7 12 7 7 7 7 7 12 12 12 10 10 5 12 12 12 7 7 7 13 13 7 7 7 7 7 7 13 7 7 7 13 7 7 13 7 7 7 7 12 12 12 12 12 10 3 3 10 7 12 12 12 12 10 12 12 12 12 2 10 12 10 12 5 12 12 12 12 12 12 12 12 12 12 2 5 12 12 12 12 10 10 10 10 7 12 12 7 7 7 7 12 12 7 7 7 7 7 7 7 7 7 7 7 12 7 7 7 12 12 12 12 2 5 12 12 12 12 12 7 7 7 7 7 7 7 13 7 7 7 7 7 13 7 7 7 13 13 13 13 13 7 13 7 13 13 13 13 13 7 13 13 13 13 7 7 7 13 2 2 10 12 10 -9999 -9999 -9999 
-9999 -9999 10 12 10 12 5 12 10 10 10 10 10 10 10 5 5 5 5 12 12 5 5 10 10 12 7 7 10 5 12 12 10 12 7 7 12 10 10 5 5 10 5 12 7 7 7 7 7 7 7 7 7 7 7 12 7 12 10 10 5 12 7 7 7 7 7 7 7 7 7 7 7 7 7 7 7 7 13 7 7 13 13 13 7 7 7 7 12 12 12 10 10 3 5 10 12 12 12 10 10 10 10 10 10 12 10 2 2 12 12 12 12 5 12 12 2 5 12 12 2 12 12 12 12 12 12 10 12 12 12 12 7 12 12 7 12 7 13 12 7 7 7 13 7 7 7 7 7 13 7 12 12 7 13 7 12 7 12 7 2 2 12 12 12 12 12 12 12 7 7 7 7 7 7 7 7 7 7 7 7 7 7 7 13 7 7 13 7 7 7 13 13 13 13 13 13 13 13 13 13 13 13 13 13 7 2 2 10 10 10 -9999 -9999 -9999 
-9999 -9999 5 10 5 5 10 5 12 10 5 5 10 5 5 5 5 12 5 5 5 10 12 10 10 5 7 7 12 10 12 12 10 7 7 7 12 10 10 10 5 5 12 12 7 7 7 7 7 7 7 7 7 7 7 7 7 12 12 10 10 12 12 7 12 7 7 7 7 7 7 7 7 7 7 7 7 7 7 7 7 7 7 13 13 7 7 7 7 12 12 12 10 10 10 12 12 12 12 10 10 10 10 5 10 10 12 12 12 10 10 12 10 10 12 12 5 12 12 5 5 2 12 12 12 12 12 12 12 12 12 12 12 12 12 7 7 13 7 13 7 7 13 13 7 7 13 7 7 13 13 10 7 7 7 7 7 12 12 12 12 10 12 12 12 12 7 7 7 12 12 12 7 12 7 7 7 7 7 7 7 7 7 7 7 7 13 7 7 7 13 13 13 13 13 13 13 13 13 13 13 7 13 13 13 3 10 2 12 10 12 -9999 -9999 -9999 
-9999 -9999 10 5 5 5 10 10 12 10 5 5 5 10 5 5 5 5 5 5 5 12 12 7 7 7 12 12 12 12 12 12 10 12 12 12 12 10 10 10 5 12 5 12 12 12 7 7 7 7 7 7 7 7 7 7 7 7 10 12 12 5 12 12 7 7 7 7 7 7 7 7 7 7 7 7 13 7 13 7 13 7 13 7 13 7 7 7 12 12 12 12 10 3 10 5 12 7 12 12 10 10 10 12 10 10 10 12 12 10 10 5 5 12 12 12 12 5 2 2 5 12 10 2 12 12 12 12 12 12 12 12 12 7 12 7 7 7 7 7 13 7 7 13 7 7 13 13 13 13 13 12 7 7 7 7 7 7 7 12 7 7 12 10 12 12 12 12 12 12 12 12 7 7 7 7 7 7 7 7 7 7 7 7 7 7 7 7 7 7 7 13 13 13 13 13 13 13 13 13 13 13 13 7 13 12 12 12 12 12 12 -9999 -9999 -9999 
-9999 -9999 5 5 10 5 10 5 5 10 5 5 5 12 12 5 5 5 5 5 12 12 7 12 12 7 12 12 12 12 12 12 5 7 12 12 12 5 10 5 5 12 7 5 12 10 7 7 7 7 7 7 7 7 7 7 7 7 7 7 12 10 12 7 7 12 7 7 7 7 12 12 7 7 7 7 7 7 7 7 7 7 7 7 13 7 7 7 7 7 12 12 10 10 13 10 12 12 12 12 10 10 10 10 5 10 10 12 12 12 12 12 12 12 12 12 5 5 5 12 12 10 2 10 12 10 12 12 12 12 12 12 12 7 7 7 7 7 7 7 7 7 13 13 13 7 13 7 13 13 13 13 13 13 13 7 13 13 13 7 7 7 12 10 12 12 12 12 12 7 12 7 13 13 7 7 7 7 7 7 7 13 7 7 7 7 13 7 7 13 13 13 13 13 13 13 13 13 13 13 13 13 7 7 7 7 7 7 12 12 12 -9999 -9999 -9999 
-9999 -9999 12 10 5 10 10 10 10 5 5 5 5 5 5 5 12 5 12 7 7 7 7 12 12 7 12 12 12 12 12 10 5 7 7 7 10 12 12 12 10 12 10 5 5 5 7 7 7 7 7 7 7 7 7 7 7 7 7 12 12 10 5 7 7 7 7 7 12 12 7 7 7 13 7 7 7 7 7 13 7 7 7 13 7 7 7 7 7 7 12 12 10 10 10 10 12 12 12 12 10 10 10 10 10 10 10 10 12 12 12 2 12 12 12 2 5 5 12 12 12 2 10 10 10 10 12 12 2 12 12 12 12 12 7 7 7 7 7 7 13 13 7 13 13 7 13 13 13 13 13 13 13 13 13 13 13 13 13 13 13 13 12 10 12 12 12 7 7 12 7 7 7 7 7 7 12 13 7 7 7 13 13 7 13 7 7 7 13 13 13 13 13 13 13 13 13 13 13 13 13 13 7 7 13 7 13 7 12 12 12 -9999 -9999 -9999 
-9999 -9999 12 12 10 10 3 5 10 5 5 5 5 5 5 5 7 7 7 7 7 12 7 7 7 7 12 12 12 12 12 10 10 12 7 7 7 12 12 12 5 10 7 10 10 5 5 7 7 7 7 7 7 7 7 7 7 7 7 12 12 12 10 12 12 12 12 5 10 12 7 7 7 7 7 7 7 7 7 7 7 7 7 7 7 7 13 7 7 12 12 10 10 10 10 10 5 12 12 12 12 12 12 12 12 12 12 12 12 12 12 12 12 12 2 2 5 12 12 12 2 2 12 10 10 10 10 10 12 10 12 12 12 7 7 7 7 7 7 7 7 7 13 13 13 13 13 13 13 13 13 13 13 13 13 13 13 13 13 7 7 12 13 10 12 7 12 7 7 7 7 12 7 7 7 7 7 7 7 7 7 7 7 7 7 7 7 7 13 13 13 13 13 13 13 13 13 13 13 13 7 13 13 13 7 7 7 7 10 10 10 -9999 -9999 -9999 
-9999 -9999 12 12 10 10 5 10 10 5 5 5 5 5 5 5 7 7 7 7 7 7 7 7 7 12 7 7 7 12 7 5 12 7 7 7 12 12 12 12 12 10 10 12 7 7 7 7 5 7 7 7 7 7 7 13 7 7 7 7 12 5 10 10 12 12 12 12 12 7 7 7 7 7 7 7 7 13 7 7 7 7 13 7 7 12 7 7 7 7 12 10 10 10 5 7 3 5 12 12 12 12 12 12 12 12 12 12 12 12 12 12 2 5 5 5 5 10 2 2 2 12 12 10 10 10 10 12 12 12 12 12 7 7 7 7 7 7 13 7 7 7 13 13 13 7 13 13 13 7 13 13 13 13 13 13 13 13 13 7 13 13 7 10 7 7 7 7 7 7 12 7 13 13 7 7 7 7 7 7 7 7 7 7 7 13 7 7 13 13 13 13 13 13 13 13 13 13 13 13 13 13 13 13 13 7 7 12 10 2 2 -9999 -9999 -9999 
-9999 -9999 12 12 12 10 10 5 5 5 5 5 12 12 12 5 7 7 7 7 7 7 7 7 7 12 12 7 7 7 7 12 12 7 7 7 10 5 12 12 12 10 10 7 7 7 7 7 7 7 7 7 7 7 13 13 13 13 7 7 12 10 10 12 12 12 12 12 12 7 7 7 7 7 7 7 7 7 7 7 7 7 7 7 7 7 7 7 7 12 10 10 3 10 3 10 10 3 10 12 12 12 12 12 12 12 12 5 12 12 12 12 12 12 10 12 12 12 2 2 2 12 2 10 12 12 12 12 12 12 5 7 7 7 7 7 7 13 13 7 7 7 7 7 13 13 13 13 13 13 13 13 13 13 13 13 13 7 13 13 13 13 12 10 7 7 7 7 7 7 7 13 7 7 7 13 7 7 7 7 13 13 7 7 7 7 7 13 13 13 13 13 13 13 13 13 13 13 13 13 13 13 13 13 13 13 10 10 2 12 12 -9999 -9999 -9999 
-9999 -9999 10 12 10 5 10 5 5 5 5 12 12 12 5 5 7 7 7 7 7 7 7 7 12 12 12 7 7 7 7 10 5 7 7 12 12 10 12 12 12 5 5 7 7 7 7 7 7 7 7 7 7 13 7 7 7 7 7 12 10 10 10 10 7 12 7 7 12 7 13 7 7 7 7 7 7 7 7 13 7 13 7 7 7 7 7 7 7 10 10 10 3 12 12 10 3 3 3 10 7 7 12 12 12 12 12 12 12 12 12 5 12 12 12 5 2 5 10 2 10 5 10 2 12 10 5 2 2 12 12 12 7 7 7 7 7 13 13 7 13 13 13 7 13 13 13 13 13 13 13 13 13 13 13 13 13 13 13 13 13 7 12 10 7 7 13 7 13 7 7 7 7 7 7 7 7 7 7 7 7 7 7 12 13 7 13 13 13 13 7 13 13 13 13 13 13 13 13 13 13 13 13 13 13 13 12 7 7 12 12 -9999 -9999 -9999 
-9999 -9999 10 10 10 10 10 5 5 5 5 5 5 12 5 5 7 7 7 7 7 7 7 7 12 12 7 7 7 7 12 10 5 12 7 7 7 12 12 7 12 10 10 7 7 7 7 7 7 7 7 7 7 13 7 7 7 7 7 10 3 5 12 12 7 12 7 7 7 7 13 7 7 7 7 7 7 7 7 7 7 7 7 7 13 7 7 7 7 3 10 10 12 12 12 12 10 10 10 3 5 12 7 12 12 12 12 12 12 12 12 12 12 12 5 2 5 5 5 5 5 5 5 10 12 5 5 2 12 12 12 12 7 7 13 7 7 7 7 7 13 13 7 7 13 7 13 7 7 13 13 13 7 13 13 13 13 13 13 13 13 13 12 12 7 7 7 7 7 7 7 7 7 7 7 7 13 13 7 7 7 7 7 7 7 7 13 13 13 13 13 13 13 7 13 13 13 13 13 13 13 13 13 13 13 13 7 7 12 12 12 -9999 -9999 -9999 
-9999 -9999 10 5 5 5 5 5 5 5 5 5 5 5 5 5 7 7 7 7 7 7 7 7 7 7 7 7 7 7 10 10 3 7 7 7 7 7 7 7 5 10 10 10 7 7 7 7 13 7 7 7 7 7 7 13 7 7 12 5 10 12 12 12 12 7 7 7 7 7 7 7 7 7 7 7 7 7 7 7 7 7 7 7 7 7 7 7 7 10 10 12 12 12 12 12 12 10 10 10 10 5 5 12 12 12 12 12 12 5 12 12 12 12 5 2 5 10 5 2 5 10 2 10 10 12 10 2 12 12 12 7 7 7 7 7 7 7 13 13 13 7 13 7 13 7 13 7 13 13 13 13 13 13 13 13 13 7 13 13 13 13 7 12 13 13 13 7 7 13 7 7 7 7 7 7 7 7 7 7 7 7 7 7 7 13 13 13 13 13 13 7 13 13 7 13 7 7 13 13 13 13 13 13 13 7 7 7 7 7 7 -9999 -9999 -9999 
-9999 -9999 5 5 5 5 12 5 12 5 10 10 10 3 5 5 5 12 7 7 7 7 7 7 7 7 7 7 12 10 5 12 7 7 7 7 7 7 7 7 7 7 7 7 7 7 13 13 7 7 7 7 7 7 13 13 13 7 7 10 7 7 7 12 7 7 7 7 7 7 7 7 7 7 13 7 7 7 7 7 7 7 7 7 7 7 7 7 3 10 12 12 12 10 10 10 10 12 12 12 10 10 5 5 5 5 12 12 10 12 12 12 12 10 10 12 12 12 12 2 5 10 12 12 10 10 10 10 12 12 12 12 7 7 7 7 7 13 7 13 13 7 7 13 13 7 7 7 7 13 13 13 13 13 13 13 13 13 13 13 13 13 13 7 7 13 7 7 7 13 13 13 13 13 13 7 7 7 7 7 7 7 7 7 7 13 13 13 13 13 13 7 7 7 12 7 13 13 13 13 13 13 13 13 13 7 7 13 7 12 7 -9999 -9999 -9999 
-9999 -9999 5 5 5 5 12 5 5 10 5 5 5 12 10 5 5 5 5 7 7 7 7 7 7 7 7 7 12 7 10 7 7 7 7 7 7 7 7 7 7 7 7 7 13 7 13 13 13 7 7 7 7 7 7 13 13 7 7 7 7 7 7 7 7 7 7 7 7 7 7 7 7 7 7 7 7 7 7 7 7 7 7 7 7 7 7 7 10 10 12 12 12 5 10 10 12 12 12 12 12 12 10 12 5 5 5 12 5 12 12 12 5 5 10 5 2 5 12 10 10 10 12 10 2 10 10 12 12 12 12 12 12 7 7 13 13 13 13 13 13 13 7 13 13 7 13 13 13 13 13 13 13 13 13 13 13 7 13 13 13 7 7 13 13 7 7 13 13 13 13 7 7 7 13 7 7 7 7 12 13 12 12 12 13 13 13 13 13 13 13 13 12 7 7 13 13 13 13 13 13 13 13 13 13 7 7 13 13 13 10 -9999 -9999 -9999 
-9999 -9999 5 10 5 5 10 5 10 10 10 7 7 7 7 12 10 5 5 12 7 7 7 7 7 7 7 12 7 7 7 7 13 7 7 7 7 7 12 7 7 7 13 13 13 13 13 13 13 13 7 7 7 7 7 7 7 7 7 7 7 7 7 7 7 7 7 13 7 7 7 7 7 7 7 7 7 7 7 7 7 7 7 7 7 7 7 7 7 12 12 10 5 5 10 10 12 10 12 12 12 12 5 12 12 5 5 5 10 12 10 12 12 5 10 5 3 10 12 10 10 10 10 10 2 10 10 12 12 7 10 12 7 12 12 7 7 7 13 13 13 13 13 13 13 7 13 13 13 13 13 13 13 13 13 13 13 13 13 7 7 7 7 13 13 13 13 7 13 13 13 13 13 7 7 7 7 7 7 13 13 12 12 12 13 7 13 13 13 13 13 13 7 7 7 7 13 13 13 13 13 13 13 13 7 7 13 13 13 13 12 -9999 -9999 -9999 
-9999 -9999 5 10 10 10 10 12 12 12 12 7 7 7 12 12 12 12 10 10 10 12 12 12 5 12 7 7 7 12 7 7 7 7 7 7 7 7 10 7 7 7 13 13 13 7 13 13 13 7 7 7 7 7 7 7 7 7 13 7 7 7 7 7 7 7 7 7 7 7 7 7 7 7 7 7 7 7 7 7 7 7 7 7 7 7 7 7 7 7 12 12 10 5 10 10 10 10 10 10 12 10 12 12 10 5 5 5 5 10 2 5 12 5 10 10 5 10 10 10 10 10 2 10 10 10 10 12 12 7 12 5 12 12 12 12 12 7 7 13 7 13 13 13 7 13 13 13 13 13 7 13 13 13 7 13 13 13 13 7 13 13 7 13 13 13 13 13 13 13 7 13 7 7 7 7 7 7 7 7 13 12 12 7 7 13 13 13 13 13 12 12 12 12 7 7 13 13 7 13 13 13 13 13 7 7 13 13 13 13 7 -9999 -9999 -9999 
-9999 -9999 10 10 5 5 5 12 12 7 7 7 7 7 7 7 7 7 7 7 12 12 10 5 5 5 12 7 7 12 7 7 7 7 7 7 7 7 7 7 7 13 13 7 13 13 13 13 13 7 7 7 7 7 7 7 13 7 7 7 7 7 13 7 13 7 7 7 7 7 7 7 7 13 7 13 7 7 7 7 7 7 7 7 7 7 7 7 7 7 10 12 10 10 10 10 10 10 10 10 10 12 12 12 5 5 5 5 5 10 5 12 12 10 10 10 10 10 10 10 10 10 2 10 10 10 12 12 12 12 10 12 12 7 7 13 7 7 7 13 13 13 13 13 7 13 7 7 7 13 13 13 13 13 13 13 13 7 13 13 13 13 13 13 13 13 13 13 13 13 7 7 13 13 7 7 7 7 7 7 7 12 12 7 7 13 13 7 13 13 7 12 12 12 12 12 13 13 7 13 13 13 13 12 7 13 13 13 13 13 13 -9999 -9999 -9999 
-9999 -9999 10 2 3 12 12 12 7 7 7 12 12 7 7 7 7 7 7 7 7 7 12 12 10 10 5 10 12 12 12 7 7 7 7 7 7 7 13 13 13 13 13 13 13 13 7 7 7 7 7 7 7 7 7 7 13 7 13 7 13 7 13 7 7 7 7 7 7 7 13 7 7 7 7 7 7 7 7 7 7 7 7 7 7 7 7 7 12 12 12 12 10 10 10 10 10 10 10 10 10 12 12 5 5 5 10 5 10 5 5 12 12 12 12 10 12 10 12 12 12 10 10 10 10 10 10 12 12 10 5 5 12 7 7 13 13 13 13 13 13 13 13 13 7 13 7 7 13 13 13 13 7 13 13 13 13 13 13 13 13 7 13 13 13 13 7 7 7 7 13 7 13 13 13 7 7 7 7 7 12 12 12 12 7 13 13 13 13 13 7 12 12 12 12 7 7 13 13 12 13 13 13 12 12 12 13 13 13 12 13 -9999 -9999 -9999 
-9999 -9999 10 3 12 12 7 7 7 7 7 7 7 7 7 7 7 12 12 7 7 7 7 12 7 7 12 12 7 10 5 12 7 7 7 7 7 7 7 7 7 7 13 7 7 7 7 7 7 7 7 7 7 7 7 13 7 13 7 7 7 7 7 7 7 7 7 7 7 7 7 7 7 7 7 7 7 7 7 7 7 7 7 7 7 7 7 7 12 12 12 10 10 10 5 10 10 10 10 10 5 10 12 5 10 12 5 12 10 10 5 5 10 12 12 12 12 12 12 12 12 12 12 12 12 12 12 12 10 10 10 5 12 7 7 7 13 13 13 13 13 7 7 13 13 7 7 7 13 13 13 13 7 13 13 13 13 13 13 7 13 7 13 13 13 13 13 13 12 12 12 7 7 13 7 7 7 12 7 12 12 10 12 12 7 12 7 7 13 13 7 7 12 10 7 7 7 13 13 12 12 12 12 12 7 7 13 12 12 12 12 -9999 -9999 -9999 
-9999 -9999 10 12 7 7 7 12 7 7 7 7 7 7 7 7 7 7 13 7 7 7 7 7 7 7 7 7 7 7 12 10 5 7 7 7 7 7 7 13 7 7 7 7 7 7 7 7 7 7 7 7 7 7 7 7 7 7 7 7 7 7 7 13 13 7 7 7 7 7 7 7 7 7 7 7 7 7 7 7 7 7 3 7 7 3 7 7 10 12 10 10 5 10 10 10 10 10 10 10 10 10 10 10 10 10 12 12 12 10 10 10 12 12 12 12 12 12 12 12 12 12 12 12 12 12 12 12 10 5 10 12 12 7 7 7 7 13 13 13 13 7 7 13 13 7 13 13 7 13 13 13 13 13 13 7 13 13 13 13 13 13 7 13 13 13 13 13 13 12 12 12 7 7 12 12 7 7 7 12 12 12 12 12 12 12 12 7 13 13 13 7 12 10 7 7 7 7 13 12 12 12 12 12 12 7 13 10 12 12 10 -9999 -9999 -9999 
-9999 -9999 5 7 7 7 7 7 7 7 7 12 7 7 12 7 7 7 7 7 7 7 7 7 7 7 7 7 7 7 7 5 5 5 7 7 7 7 7 7 7 7 13 7 7 7 7 7 7 12 7 7 7 7 7 7 7 7 7 7 7 7 7 7 7 7 13 7 7 7 7 7 7 7 7 7 7 7 7 7 7 13 3 7 7 13 7 7 10 12 12 10 10 10 10 10 10 10 10 10 10 10 10 10 10 10 12 12 12 12 12 10 5 5 12 12 5 12 12 12 12 12 12 10 12 12 10 10 12 10 12 12 12 7 7 7 7 13 13 13 13 7 13 7 13 7 7 13 13 7 13 7 13 7 7 7 7 13 7 13 13 13 13 13 13 13 13 13 13 12 12 12 12 7 12 12 12 7 7 7 12 12 12 12 12 12 12 12 13 13 13 12 12 12 12 7 7 12 7 12 12 12 12 12 12 7 12 12 12 10 10 -9999 -9999 -9999 
-9999 -9999 12 7 7 7 7 12 7 7 7 7 7 7 12 7 7 7 7 7 7 7 7 12 7 7 7 7 7 7 7 7 7 7 7 7 7 13 7 7 7 13 7 13 13 13 7 7 7 10 12 7 7 12 7 7 7 7 7 7 7 7 7 7 7 7 13 7 13 7 7 7 7 13 13 13 7 7 7 7 7 7 7 7 7 12 12 12 12 12 10 10 10 10 10 10 5 10 10 10 10 10 10 10 10 10 12 12 12 12 12 12 5 5 5 12 12 12 10 10 5 10 12 10 5 5 5 12 12 5 12 7 7 7 13 13 7 7 7 13 13 13 13 7 13 7 7 7 7 13 13 13 13 13 7 7 7 7 13 7 13 13 13 13 13 13 13 13 13 7 12 12 7 12 7 12 12 12 12 12 12 12 12 7 12 12 12 7 7 7 13 7 13 12 12 5 12 12 12 12 12 12 12 12 12 12 7 12 12 12 7 -9999 -9999 -9999 
-9999 -9999 5 12 7 7 7 7 7 7 7 7 12 12 7 12 7 7 7 7 7 13 7 7 7 7 7 7 7 7 7 7 7 7 7 7 7 13 7 7 7 7 13 13 13 7 7 7 7 10 12 12 7 12 12 7 7 12 7 12 7 7 7 7 7 7 7 7 13 7 13 13 7 7 7 7 13 7 7 7 7 7 7 7 7 7 12 12 12 12 3 5 10 10 12 12 10 10 10 10 10 10 10 10 10 10 12 12 12 12 12 12 5 5 5 12 12 12 12 12 12 12 12 12 12 10 10 12 12 12 12 7 7 13 13 7 7 13 7 13 13 13 13 13 13 7 7 13 7 7 7 13 7 7 7 7 7 7 7 13 13 13 13 13 13 13 13 13 7 12 12 12 12 12 12 12 10 12 12 12 12 12 10 12 12 12 12 12 7 7 7 7 13 7 12 10 12 5 12 12 12 5 5 12 12 7 7 12 12 12 13 -9999 -9999 -9999 
-9999 -9999 7 7 7 7 7 7 7 7 12 7 7 5 12 12 7 7 7 13 7 7 7 7 7 13 13 7 7 7 7 7 7 7 7 13 13 7 7 7 7 7 13 7 7 7 12 12 7 12 7 12 5 12 10 7 12 12 7 7 7 7 7 7 7 7 13 7 7 7 7 13 13 13 7 7 7 7 7 7 7 7 7 7 7 7 12 12 12 10 10 10 10 12 12 12 10 12 10 10 10 10 10 10 10 10 12 12 12 12 12 12 12 5 12 12 12 12 12 12 12 12 12 12 10 3 10 10 5 12 7 7 7 13 7 13 13 7 7 7 7 7 13 13 13 7 13 7 13 12 7 7 7 7 7 7 7 13 13 13 13 13 7 13 13 13 13 13 7 12 12 12 12 7 12 12 12 12 10 12 7 12 5 7 12 12 7 12 7 7 7 7 7 7 12 12 10 5 5 12 12 12 12 12 12 12 12 12 12 12 12 -9999 -9999 -9999 
-9999 12 7 7 7 7 7 7 7 7 7 7 12 10 12 12 12 12 7 7 7 7 7 7 7 13 7 13 7 13 7 7 13 7 7 7 13 13 7 7 7 7 7 7 7 7 7 12 12 12 12 12 12 12 10 12 12 12 12 7 12 12 12 7 7 7 7 7 7 7 7 7 7 13 7 7 7 7 7 7 7 7 7 7 7 7 12 12 10 10 12 10 10 10 12 10 12 12 10 12 10 10 10 10 10 12 12 12 12 12 12 12 12 12 12 12 12 12 10 10 10 12 12 12 12 12 12 12 12 12 7 7 7 7 7 7 7 13 7 7 13 13 7 7 7 7 7 7 7 13 13 7 7 7 7 7 7 7 13 7 13 7 13 7 13 13 13 13 7 13 13 13 13 13 13 13 12 7 12 12 12 12 12 7 7 12 12 12 7 7 7 7 7 7 12 12 12 10 5 12 12 12 12 12 12 12 12 12 10 10 7 -9999 -9999 -9999 
-9999 13 7 7 7 7 7 7 7 13 7 7 13 10 12 12 12 7 7 7 7 7 7 13 7 7 7 7 7 7 13 7 7 13 7 7 13 13 7 10 7 12 12 12 7 7 7 13 7 10 12 12 7 12 7 7 12 5 12 12 12 12 12 7 7 7 7 13 7 13 7 13 13 7 7 7 12 7 12 7 7 7 7 7 7 12 12 12 12 7 10 10 12 12 10 12 10 12 12 12 10 12 10 5 12 12 12 12 12 12 12 12 12 12 12 12 12 5 10 10 12 12 10 12 12 12 12 12 12 10 7 13 7 13 7 7 7 13 13 7 13 13 13 13 13 13 7 7 7 13 7 7 7 7 7 13 13 13 7 13 13 13 13 7 13 13 13 13 7 13 13 13 13 13 13 13 13 7 7 12 12 12 12 10 12 12 12 12 12 12 13 7 13 7 12 12 12 12 12 10 5 12 12 12 12 12 12 12 12 10 -9999 -9999 -9999 -9999 
-9999 7 7 7 7 7 13 7 7 7 7 7 13 10 12 12 7 7 7 7 7 7 7 7 7 7 7 7 7 7 13 7 7 7 7 7 7 7 7 10 7 7 7 12 7 7 7 12 12 12 12 12 12 12 12 7 12 12 12 12 12 12 12 7 7 7 7 7 7 7 7 7 13 7 12 12 12 12 7 7 7 7 7 7 7 12 12 12 12 12 12 12 12 12 12 12 12 12 12 12 5 10 12 12 12 12 12 12 12 12 12 12 12 12 12 12 12 5 12 10 12 12 12 10 12 12 12 12 12 12 7 7 7 7 13 13 13 13 7 13 13 7 13 7 13 13 13 7 7 7 7 7 7 13 13 13 13 7 13 7 13 13 13 7 13 13 13 13 13 13 13 13 13 13 13 7 13 13 7 13 12 12 12 12 12 12 12 12 12 12 7 7 7 12 12 12 12 12 5 10 5 7 12 12 12 12 12 12 12 10 -9999 -9999 -9999 -9999 
-9999 7 7 7 7 7 7 7 7 13 13 7 7 10 5 12 7 7 13 7 7 7 7 13 7 7 7 7 7 7 7 7 7 7 7 7 7 7 7 12 12 12 7 7 7 7 7 7 12 10 5 12 12 10 12 12 12 12 12 12 12 12 12 12 7 7 7 7 7 7 7 7 7 12 12 12 12 7 7 7 7 7 7 7 12 12 10 10 10 5 10 10 5 12 12 12 12 12 12 12 12 12 12 5 5 5 10 10 12 12 12 12 10 12 12 12 12 2 12 12 12 12 10 10 12 12 12 12 12 7 7 7 7 7 7 7 7 13 7 13 13 13 7 13 13 13 7 7 12 12 12 7 7 7 7 7 7 7 13 7 7 13 7 13 13 13 13 13 13 13 13 13 13 13 13 13 7 13 7 12 12 12 12 12 10 12 12 12 12 12 12 12 12 12 12 12 12 12 12 12 10 5 12 12 12 12 12 12 12 12 -9999 -9999 -9999 -9999 
-9999 7 7 7 7 7 7 7 13 13 7 7 7 10 5 12 7 13 12 7 7 7 7 7 12 7 7 7 7 7 7 7 7 7 7 7 7 7 7 12 12 7 7 7 7 7 12 7 12 10 5 12 12 12 10 12 12 12 12 12 12 12 12 12 7 12 7 7 7 7 7 7 12 12 12 12 7 7 7 7 7 7 7 12 12 10 10 10 5 12 5 10 10 2 12 12 5 12 5 12 10 5 5 5 2 2 10 12 12 5 12 10 5 12 12 12 12 2 5 12 12 10 10 10 12 12 12 12 7 7 7 7 7 7 7 7 7 7 7 7 7 7 7 13 13 7 13 7 12 12 7 7 7 7 7 7 7 7 7 7 7 7 13 13 7 7 13 13 13 13 13 13 13 13 13 13 7 7 7 12 12 12 12 12 12 12 12 12 12 12 12 12 12 12 12 12 12 12 12 12 10 12 12 12 12 12 12 12 12 12 -9999 -9999 -9999 -9999 
-9999 7 7 7 7 7 7 7 7 7 7 13 12 10 10 10 7 12 12 7 7 7 12 12 12 7 7 7 7 7 12 7 7 7 7 7 7 7 7 7 12 12 7 7 7 12 12 7 12 12 12 12 12 12 12 12 12 12 12 12 12 10 5 12 12 12 12 12 7 7 7 12 12 12 12 12 7 7 7 7 7 7 12 12 12 10 5 10 12 12 5 12 10 2 12 5 12 2 5 12 5 5 2 5 5 5 10 10 12 12 12 2 2 12 12 12 12 12 2 2 12 10 10 10 12 12 12 7 12 7 7 7 12 7 7 7 7 7 13 13 13 7 13 7 7 7 7 12 12 12 12 7 7 7 13 13 7 7 7 7 7 7 13 7 7 13 13 13 13 13 13 13 13 13 7 7 7 7 12 7 12 12 12 12 12 12 12 12 12 12 12 12 12 12 12 12 12 12 12 5 5 5 12 12 12 12 10 12 12 12 -9999 -9999 -9999 -9999 
-9999 3 7 7 7 7 7 7 7 7 13 7 7 10 5 12 12 12 7 7 7 7 12 12 7 7 7 7 7 7 12 7 7 12 12 7 7 7 7 7 10 7 7 7 12 12 12 7 12 12 12 5 12 5 5 5 5 5 5 2 5 12 12 12 12 12 12 12 12 12 12 12 10 12 7 12 7 7 7 7 7 12 12 12 12 10 12 12 12 12 12 12 12 12 12 12 12 12 5 10 2 2 2 3 3 3 3 10 12 12 10 2 5 12 12 12 12 12 12 10 2 12 12 10 10 12 12 7 12 13 3 5 12 3 7 12 7 7 7 7 7 7 7 7 7 12 12 12 12 12 12 12 7 7 7 7 7 7 7 7 13 7 7 7 7 13 13 13 13 7 13 7 7 7 7 7 7 7 12 12 12 12 12 12 12 12 12 12 12 7 12 12 12 12 12 12 12 12 12 5 12 5 12 12 5 5 5 5 12 12 -9999 -9999 -9999 -9999 
-9999 7 7 7 7 13 7 7 7 7 7 7 13 13 12 10 12 12 12 7 7 12 12 12 7 7 7 7 7 12 12 12 7 7 7 7 12 7 7 12 5 7 12 12 12 12 7 12 12 5 5 5 5 5 5 5 5 5 2 2 2 5 5 12 5 5 12 12 7 12 12 12 12 12 7 7 7 7 7 7 12 12 12 12 12 12 12 12 12 12 12 12 12 12 12 12 10 5 5 2 2 2 2 2 2 3 2 12 12 5 3 3 5 2 2 12 12 12 12 12 10 12 12 2 12 12 12 12 7 7 7 3 10 13 7 12 7 7 7 7 7 7 7 7 7 12 12 12 12 12 12 12 12 12 12 7 7 7 7 7 7 13 13 13 13 13 13 7 7 12 12 7 12 12 12 12 12 12 10 10 5 5 12 12 12 12 12 7 12 12 12 12 12 12 12 12 12 12 12 10 10 12 12 12 12 10 5 5 5 5 -9999 -9999 -9999 -9999 
-9999 12 7 7 7 7 7 7 7 7 7 7 13 13 13 10 12 12 12 7 7 12 12 12 12 7 7 7 7 12 12 7 7 12 7 7 12 7 7 10 5 12 12 5 5 5 5 5 5 5 2 2 5 2 2 2 2 2 2 2 10 2 10 10 5 5 5 12 12 12 12 12 5 12 7 7 7 7 7 12 12 12 12 12 10 10 5 12 12 12 12 12 12 12 5 10 10 2 2 2 2 2 2 2 2 2 2 5 12 12 5 2 2 2 2 12 5 2 2 12 2 10 2 2 12 12 12 12 12 7 7 12 12 7 7 7 7 7 7 13 7 13 7 7 12 12 12 12 12 12 12 12 12 12 12 12 7 7 7 13 7 7 7 7 13 13 13 7 12 7 12 7 12 12 12 12 12 12 10 5 2 2 12 12 12 12 7 12 12 12 12 12 12 12 12 12 12 12 12 12 12 12 12 12 10 10 10 12 10 10 -9999 -9999 -9999 -9999 
-9999 7 7 7 7 7 7 7 7 10 7 13 7 7 7 7 5 5 12 12 12 12 12 12 12 12 12 12 12 12 12 5 5 5 5 5 5 12 5 5 5 5 5 10 3 2 10 5 5 2 2 2 2 2 2 2 2 2 3 3 3 10 10 10 10 10 5 5 10 12 12 5 12 12 12 12 12 12 7 12 12 12 12 12 12 10 12 12 12 12 12 12 12 12 12 12 10 2 2 2 2 2 2 2 2 2 2 5 2 2 5 2 2 2 2 5 5 2 2 5 2 2 2 2 5 12 12 2 12 12 3 2 10 7 7 7 7 13 7 7 7 7 12 12 12 12 7 7 12 12 7 7 10 12 7 12 7 7 7 7 7 13 7 13 13 13 13 7 7 7 13 7 13 7 12 12 12 12 12 12 12 12 12 12 12 12 12 12 12 12 12 12 12 12 12 12 7 12 12 12 12 12 12 12 12 12 12 12 12 3 -9999 -9999 -9999 -9999 
-9999 12 7 7 7 7 13 7 7 10 7 7 7 7 13 7 5 5 5 5 12 7 5 5 12 7 12 5 5 5 5 5 5 5 5 5 5 5 5 5 10 5 3 10 3 2 2 5 5 2 2 2 2 12 5 12 10 10 10 12 12 12 12 12 10 10 5 5 5 5 5 5 5 12 12 7 12 12 7 12 12 12 12 12 12 12 12 12 12 12 12 12 12 12 12 12 10 2 2 2 2 2 2 2 2 2 2 2 2 2 10 2 2 2 2 2 12 5 5 12 12 2 2 2 12 12 2 2 2 2 12 2 12 7 7 7 7 7 7 12 12 12 12 7 7 7 7 7 12 7 7 7 7 12 12 13 12 7 7 7 7 7 7 13 13 7 13 13 13 7 13 13 13 13 7 10 12 12 12 12 12 12 12 12 12 12 12 12 12 5 12 12 12 12 12 12 7 12 12 12 12 12 12 10 12 12 12 12 3 3 -9999 -9999 -9999 -9999 
-9999 12 12 7 7 7 7 12 10 10 5 7 7 7 7 10 5 5 5 5 10 5 5 5 12 12 10 5 5 5 5 10 3 3 3 5 3 5 5 3 3 10 3 3 3 3 3 5 2 2 2 10 12 12 12 12 12 12 12 12 12 12 12 12 12 12 2 2 5 5 12 5 5 5 12 12 12 7 12 12 12 12 12 12 5 12 12 12 12 12 12 12 12 12 10 10 10 2 2 2 2 2 2 2 2 2 2 2 2 12 10 5 5 5 10 12 10 12 5 2 12 3 2 10 12 12 12 2 3 10 12 12 7 12 7 12 12 7 7 12 12 12 12 7 7 7 7 7 7 7 7 7 7 7 7 13 13 7 7 7 7 13 7 13 7 7 13 7 13 13 13 13 13 13 12 12 12 12 7 12 7 7 7 7 12 12 12 10 12 12 12 12 12 12 12 12 12 12 12 12 12 12 10 12 12 10 10 12 12 7 -9999 -9999 -9999 -9999 
-9999 12 7 7 7 7 13 7 5 5 3 5 5 5 5 5 5 5 5 5 5 5 5 5 5 5 5 5 2 5 10 10 3 10 10 10 10 10 10 12 10 10 12 12 10 12 10 10 10 2 2 12 12 12 12 12 12 12 12 12 12 12 12 12 12 12 12 2 3 5 5 5 5 12 5 5 12 12 12 12 12 12 12 5 12 12 12 12 12 10 12 12 12 12 12 10 10 2 2 2 2 2 2 2 2 2 2 2 2 5 10 12 5 12 12 12 12 5 5 2 12 12 12 12 12 12 12 12 12 12 7 7 7 7 7 12 7 7 7 5 12 7 7 7 7 7 7 7 7 7 7 7 7 7 7 7 7 13 13 7 13 13 7 13 7 7 7 13 13 13 13 13 13 7 13 12 12 7 7 7 7 13 7 7 12 12 12 10 5 12 12 12 12 7 12 12 7 12 12 12 10 12 5 12 12 12 12 12 12 12 -9999 -9999 -9999 -9999 
-9999 7 7 7 7 7 7 7 5 5 5 5 5 5 5 5 5 5 5 5 5 5 5 5 5 3 2 3 3 10 10 5 12 12 12 12 12 12 12 12 5 10 12 12 12 12 5 10 10 2 3 12 12 5 12 12 12 12 12 12 12 12 12 12 12 12 12 10 2 2 2 10 5 5 5 5 12 12 12 12 12 12 10 12 12 12 12 12 12 12 5 12 5 12 10 10 10 10 2 2 2 2 2 2 2 2 2 2 2 12 12 5 10 12 12 12 10 2 12 12 12 12 12 5 12 12 12 12 12 12 12 7 7 7 7 7 7 7 12 12 12 7 7 12 7 7 7 7 13 7 7 7 13 13 7 7 13 13 13 7 7 13 7 13 7 7 7 13 13 13 13 13 13 13 13 12 12 7 7 7 13 13 7 7 7 12 10 10 5 12 12 12 7 7 7 7 12 7 13 12 10 5 12 12 12 12 12 12 12 10 -9999 -9999 -9999 -9999 
-9999 5 5 12 12 12 12 10 5 5 5 5 5 5 3 3 5 5 5 5 5 5 2 10 2 2 3 3 10 5 12 12 7 7 12 7 7 12 12 12 12 12 12 12 12 12 12 12 12 5 2 12 12 5 12 12 5 12 10 10 12 12 12 12 12 12 12 10 2 2 2 10 5 2 2 5 5 12 12 12 12 12 12 12 7 7 12 12 12 10 10 12 12 12 12 12 10 10 10 5 10 10 10 2 2 2 2 2 5 12 5 5 5 12 5 12 12 12 10 12 12 12 12 12 12 12 12 12 5 7 12 7 7 12 12 7 12 7 7 12 7 7 7 7 7 7 13 7 13 7 13 13 7 13 7 7 7 7 13 13 13 7 13 7 7 13 13 13 7 13 13 13 13 13 13 7 7 7 7 13 13 7 13 12 12 12 10 5 12 12 12 12 12 7 13 7 13 13 7 13 12 12 12 12 12 12 12 12 12 7 -9999 -9999 -9999 -9999 
-9999 3 5 5 5 5 5 5 5 5 5 5 10 5 5 5 5 5 5 5 5 5 12 10 10 10 5 5 7 7 7 12 12 12 7 7 7 12 12 12 12 5 12 12 12 12 12 12 10 5 2 12 12 12 12 12 12 10 10 12 12 10 12 12 10 12 12 10 12 2 2 2 2 2 2 2 5 12 12 12 12 12 12 12 12 12 7 7 12 12 12 12 12 12 5 12 10 10 5 12 10 10 10 10 10 2 10 12 10 12 12 5 5 10 2 10 5 5 12 12 12 12 12 12 12 12 12 12 12 7 7 7 12 7 7 7 7 7 7 12 7 7 7 7 7 7 7 7 7 13 13 13 13 13 13 13 7 7 13 7 7 13 7 7 13 13 13 13 13 13 13 13 13 13 7 7 7 13 13 7 12 12 12 10 12 5 5 12 12 12 12 12 7 13 7 7 7 7 7 12 7 7 12 12 12 12 12 12 12 -9999 -9999 -9999 -9999 -9999 
-9999 5 5 10 5 5 5 5 3 5 5 10 10 2 2 2 2 10 5 5 5 5 7 12 12 10 5 12 7 7 7 12 7 7 7 12 7 12 12 12 5 12 12 12 12 12 12 12 10 10 2 12 12 12 12 12 12 10 10 12 10 5 12 12 12 12 10 10 12 12 10 2 5 12 2 2 5 5 12 5 5 5 12 12 12 12 12 7 7 12 12 12 12 12 12 12 12 12 12 5 12 12 5 5 12 10 12 5 12 12 5 5 5 5 12 5 12 5 12 12 12 12 12 5 12 12 12 12 12 12 12 12 12 12 7 7 12 12 12 7 7 7 7 7 7 7 13 7 13 13 7 13 7 7 13 13 13 13 13 7 7 13 13 13 13 13 7 7 13 13 13 13 13 13 13 7 7 13 13 13 7 12 10 10 10 10 12 12 12 12 12 7 12 7 7 13 7 7 7 7 7 7 12 12 12 12 12 12 12 -9999 -9999 -9999 -9999 -9999 
-9999 2 5 5 5 3 3 3 3 5 2 2 10 10 12 2 2 3 5 5 5 5 12 12 7 10 12 7 12 7 12 12 12 12 7 12 12 12 5 12 12 12 12 12 12 12 5 12 10 10 2 12 12 12 12 12 10 10 10 10 12 12 10 10 12 10 12 7 12 12 12 12 12 12 12 2 2 3 5 12 5 5 5 5 12 12 7 7 7 12 12 12 12 12 12 12 12 12 12 12 12 12 12 12 10 10 12 12 12 5 5 5 12 5 12 5 5 12 12 12 12 5 5 12 12 12 12 12 12 12 12 7 12 12 12 7 12 12 12 7 7 7 7 7 7 7 7 7 13 7 7 13 13 7 13 13 7 13 13 13 13 13 13 13 13 13 13 13 13 13 13 7 7 13 13 13 13 13 13 13 7 12 7 12 12 12 12 7 13 7 7 7 7 7 12 13 12 7 7 7 7 13 7 12 12 12 12 10 12 -9999 -9999 -9999 -9999 -9999 
-9999 2 2 3 10 3 2 5 3 2 2 12 12 12 12 10 3 2 10 10 5 5 5 7 7 5 7 12 12 12 12 12 12 12 12 12 12 12 12 12 12 12 12 12 12 12 12 12 10 2 5 12 12 10 10 12 10 10 10 10 10 10 10 10 10 10 10 12 7 12 12 12 12 12 12 12 10 2 2 5 12 5 5 5 12 7 12 12 12 12 12 12 12 12 5 12 12 5 5 5 12 12 12 12 12 12 12 10 12 12 12 5 12 5 5 5 12 12 12 12 5 5 5 12 5 12 12 12 12 12 12 12 12 12 12 12 12 12 12 7 7 7 7 7 7 7 7 7 7 7 7 13 7 13 13 7 7 13 13 13 13 13 13 13 13 13 7 7 7 13 13 13 13 13 13 13 13 13 13 13 7 13 13 7 7 13 7 7 7 7 13 13 7 13 7 7 7 7 7 13 7 12 12 12 12 12 12 12 5 -9999 -9999 -9999 -9999 -9999 
-9999 10 10 2 5 5 10 5 10 2 5 12 12 12 12 10 3 3 3 5 5 5 5 7 12 10 12 12 12 12 12 3 12 12 12 12 12 12 12 12 12 12 12 5 12 12 12 12 10 2 2 5 12 12 10 10 12 12 10 10 10 10 10 10 10 10 7 12 12 12 12 12 12 12 12 12 12 12 10 2 3 5 5 5 5 10 5 12 12 12 5 12 12 12 12 12 12 12 12 12 12 12 12 12 12 12 3 10 5 12 5 5 5 5 12 12 12 10 12 12 12 12 12 12 5 5 5 12 5 5 12 12 12 12 12 12 12 12 12 12 7 7 7 7 7 7 7 7 7 13 13 7 7 7 7 7 13 13 13 13 13 13 13 7 13 13 7 7 7 7 7 13 13 13 13 3 13 13 13 13 3 13 13 13 13 7 7 7 7 7 13 13 13 13 13 13 7 7 12 7 7 12 12 12 12 12 12 12 5 -9999 -9999 -9999 -9999 -9999 
-9999 12 10 5 12 10 5 5 10 5 12 12 12 12 12 10 10 5 5 5 5 5 5 12 7 12 7 12 7 12 12 10 12 12 12 12 10 10 10 12 10 12 12 12 12 12 12 10 10 10 2 12 12 12 12 12 12 12 12 12 10 10 12 12 12 10 10 12 12 12 12 12 12 12 12 12 12 12 12 2 2 2 5 5 5 12 5 5 12 12 12 5 5 12 12 12 5 12 12 12 5 12 12 12 12 12 10 12 5 5 5 5 10 10 12 12 12 12 12 12 12 5 12 12 12 5 12 12 12 12 12 12 12 5 12 12 12 12 7 12 7 7 7 13 7 7 7 13 7 13 13 13 13 7 7 7 13 7 13 13 13 13 13 13 7 13 7 13 7 7 13 13 13 13 13 13 13 7 13 13 13 13 13 13 13 13 7 7 7 7 7 13 13 7 13 13 13 7 12 12 12 10 10 10 12 5 12 12 12 -9999 -9999 -9999 -9999 -9999 
-9999 12 12 5 10 5 10 12 10 12 12 7 12 12 12 12 10 12 5 5 5 5 5 5 12 7 12 12 7 7 7 12 12 12 12 12 7 10 10 5 10 10 10 12 12 12 7 10 2 2 5 7 12 12 12 12 12 12 12 12 12 12 12 12 12 12 12 12 7 12 12 12 12 12 10 5 12 12 12 3 2 2 2 2 2 2 5 12 12 12 12 12 12 5 12 12 5 10 12 12 12 5 12 12 12 12 12 12 10 5 12 5 5 5 12 12 12 12 12 12 12 5 12 12 12 7 7 10 12 12 12 12 12 12 12 12 10 10 12 7 12 7 7 7 7 13 7 7 7 13 13 13 13 7 7 7 13 7 13 13 13 13 13 7 7 13 13 13 13 13 13 13 13 13 13 7 7 7 3 13 13 13 13 13 13 13 7 7 7 13 13 7 7 13 13 13 13 13 13 13 13 10 12 12 5 5 12 10 3 -9999 -9999 -9999 -9999 -9999 
-9999 10 12 5 5 12 12 12 12 12 12 7 12 12 5 10 10 10 10 10 5 5 5 12 7 7 12 12 12 12 12 12 12 12 12 10 5 5 10 5 5 10 10 10 12 10 10 10 10 12 7 12 7 10 12 12 12 12 12 12 7 7 7 7 12 12 12 12 12 7 12 12 12 12 12 12 12 12 10 10 10 3 5 10 2 2 2 2 5 12 12 5 12 12 12 12 12 12 12 12 12 5 12 12 12 12 12 5 10 5 5 5 12 12 12 12 12 10 5 12 12 12 12 7 12 7 7 12 7 12 12 12 12 12 12 12 12 10 12 12 12 7 7 7 7 13 13 13 7 13 7 7 13 7 7 13 13 13 13 7 7 7 13 13 13 13 7 7 13 7 7 13 13 13 13 7 7 7 13 13 13 13 13 13 13 7 7 7 7 7 13 7 13 13 13 13 13 13 13 13 13 13 7 10 12 5 5 12 10 -9999 -9999 -9999 -9999 -9999 
-9999 12 12 10 10 12 12 12 12 12 12 12 12 3 3 10 10 10 10 5 5 5 5 7 7 7 7 12 7 12 12 12 12 12 10 10 10 5 10 10 5 5 5 10 10 12 10 10 10 10 10 12 12 12 12 12 12 7 7 7 7 7 7 7 7 7 7 7 12 12 12 12 12 12 12 12 12 12 12 10 10 10 12 10 12 10 7 5 2 2 5 5 5 5 5 5 12 10 5 5 5 5 5 5 5 12 5 5 5 5 12 12 5 5 12 12 12 5 12 7 7 7 7 7 7 7 7 7 12 12 12 12 12 12 12 12 12 12 10 12 12 12 7 7 13 7 7 7 7 13 7 7 7 7 7 7 7 7 7 7 13 7 7 13 13 13 7 13 13 13 13 13 3 7 13 7 7 7 7 7 13 13 13 13 13 7 7 7 7 7 13 13 13 13 13 13 13 13 13 13 13 12 10 13 12 10 10 5 5 -9999 -9999 -9999 -9999 -9999 
-9999 10 10 10 5 12 5 12 12 12 12 10 5 12 12 12 12 12 10 5 5 5 5 12 12 7 7 12 10 5 12 12 12 12 10 10 12 10 10 10 5 10 10 10 10 10 3 10 10 12 12 12 12 7 7 7 7 7 7 7 7 7 7 7 7 7 7 7 7 7 7 12 12 12 12 12 12 12 12 12 10 10 12 12 12 12 12 10 5 12 10 5 5 12 5 5 5 5 5 5 12 12 12 12 12 12 12 7 12 7 7 7 12 12 5 12 12 5 7 7 12 7 7 7 7 7 12 7 7 12 5 12 12 12 10 12 12 12 12 5 12 12 12 7 7 13 13 13 13 13 13 7 7 7 13 7 7 7 7 13 13 13 13 7 13 13 7 13 13 13 13 13 7 3 13 13 13 7 7 7 7 13 13 13 13 7 7 7 13 13 7 7 7 13 13 13 7 7 13 13 7 10 5 5 12 12 10 5 10 -9999 -9999 -9999 -9999 -9999 
7 10 5 12 12 12 12 12 12 5 5 5 12 12 12 12 12 10 7 3 3 5 5 5 12 12 12 12 12 10 7 12 12 12 10 7 7 5 5 12 12 5 5 5 10 10 10 10 3 12 12 12 12 12 7 7 7 7 7 7 7 13 13 7 7 7 7 7 7 7 7 12 12 12 12 12 12 12 12 12 3 12 12 12 12 12 5 5 5 12 12 10 5 5 5 5 12 12 12 12 12 12 12 12 7 12 7 7 7 12 7 13 7 7 10 12 12 7 7 7 7 7 7 7 7 12 7 12 12 12 12 12 12 12 12 12 12 12 12 10 12 12 10 7 7 13 7 13 13 13 7 7 7 7 7 7 13 13 7 7 13 13 7 7 13 7 13 13 13 13 13 13 7 13 13 13 13 13 7 7 7 13 13 13 13 7 7 7 7 13 7 7 7 13 13 13 12 12 12 12 12 12 12 12 12 12 12 10 10 -9999 -9999 -9999 -9999 -9999 
12 10 10 12 12 12 12 12 12 10 5 10 12 12 12 12 12 7 7 10 2 5 5 5 5 12 7 7 12 5 10 12 12 12 7 12 7 12 7 7 12 12 10 7 12 10 12 10 10 12 12 12 12 7 7 7 7 7 7 7 7 7 7 7 7 7 7 7 7 7 7 7 7 7 7 12 12 12 12 12 10 10 12 12 12 12 12 12 5 12 12 12 5 2 2 5 5 5 12 7 7 7 7 7 7 7 7 7 7 7 7 7 12 7 12 12 12 7 7 7 7 7 7 7 7 7 7 12 12 12 12 12 12 12 12 12 12 12 12 12 12 12 12 12 7 7 13 7 13 13 7 7 7 7 13 7 7 13 13 7 13 13 13 13 7 7 7 7 13 13 13 13 13 13 13 13 13 13 13 12 7 13 7 13 7 7 13 13 13 13 13 12 13 13 13 13 12 12 12 12 5 12 12 12 12 12 10 10 12 -9999 -9999 -9999 -9999 -9999 
7 12 12 12 12 12 12 12 5 10 12 7 12 12 12 12 12 7 12 3 2 5 5 5 5 7 7 7 7 7 12 7 7 7 7 7 7 7 7 7 7 7 7 7 7 7 12 12 12 12 12 12 7 12 7 7 7 7 7 7 7 7 7 7 7 7 7 13 7 7 7 7 7 7 12 12 12 12 12 7 10 12 12 12 12 12 5 5 5 12 12 12 12 10 2 2 2 5 12 12 12 12 7 7 7 7 7 7 7 7 7 12 7 12 13 12 12 7 7 7 7 7 7 7 7 7 12 12 12 12 12 5 12 12 12 12 12 12 12 12 7 12 12 12 7 7 7 7 13 13 7 13 13 7 13 13 13 7 7 7 7 7 13 7 7 13 13 13 13 13 13 13 7 13 13 13 13 13 13 7 7 7 12 12 12 7 7 13 13 13 13 7 7 3 13 13 12 12 12 12 12 12 12 12 12 12 10 7 7 -9999 -9999 -9999 -9999 -9999 
7 7 12 12 12 7 7 12 5 12 12 12 12 12 12 12 12 12 12 12 3 2 5 5 5 7 7 7 7 7 7 7 7 7 7 7 7 7 7 7 7 7 7 7 7 7 7 12 12 12 12 7 7 7 7 7 7 7 7 7 7 7 13 13 7 13 7 7 7 7 7 7 7 7 7 7 7 12 12 10 2 12 12 7 5 5 5 5 5 12 12 12 12 12 10 10 2 5 12 12 7 7 7 7 7 7 7 7 7 7 7 7 12 7 7 12 12 12 7 7 7 7 7 7 7 7 12 12 12 12 12 12 12 12 12 12 12 12 12 7 7 7 12 12 12 7 13 7 13 7 7 13 7 7 7 7 13 13 13 7 7 13 13 5 12 7 13 13 13 13 13 13 7 7 7 13 13 13 13 12 12 7 12 12 12 7 13 13 13 13 13 7 7 12 3 13 10 12 7 10 12 12 12 12 12 10 10 13 13 -9999 -9999 -9999 -9999 -9999 
7 7 12 7 12 12 7 10 10 12 12 12 12 10 12 12 10 12 7 12 3 3 5 5 5 5 7 7 7 7 7 7 7 7 7 7 7 7 7 7 7 7 7 7 7 7 7 7 12 12 12 7 7 7 7 7 7 7 7 7 7 7 7 7 7 7 13 7 7 7 7 7 7 7 7 12 12 5 12 3 2 12 12 12 5 12 12 12 12 12 12 12 12 12 12 5 2 2 5 12 7 7 7 7 7 7 13 7 7 7 7 7 7 7 7 12 12 12 12 7 12 7 7 12 7 12 12 12 12 12 12 12 12 12 12 12 12 12 12 12 10 12 7 7 7 13 3 7 7 7 7 13 13 7 13 7 7 13 13 7 7 7 10 3 7 7 7 13 13 13 13 13 13 13 7 7 7 7 13 7 10 12 12 12 7 7 13 13 13 13 13 7 12 7 13 7 12 12 12 12 12 12 7 7 12 13 10 10 3 -9999 -9999 -9999 -9999 -9999 
13 7 12 7 12 7 12 10 12 12 12 12 12 5 12 12 7 7 7 7 10 3 5 5 5 5 12 12 7 7 7 7 7 7 7 7 7 7 7 7 7 7 7 7 7 7 7 7 7 3 2 5 7 7 7 7 7 13 13 7 13 7 7 13 7 7 7 7 7 7 7 7 7 7 7 12 12 12 12 3 5 12 12 12 12 12 12 12 12 12 12 12 12 7 10 10 10 2 5 5 12 7 7 7 7 7 7 7 7 7 7 7 7 7 7 12 12 12 7 7 7 7 7 7 12 12 12 12 12 12 12 10 10 10 10 2 2 2 12 12 12 2 2 7 7 13 7 7 7 7 7 13 13 7 13 13 13 13 7 7 7 12 12 7 7 7 7 13 13 13 13 13 13 13 13 3 12 12 7 10 12 10 12 12 12 7 7 13 3 13 13 10 7 7 7 7 7 7 7 12 12 7 13 13 3 10 10 3 -9999 -9999 -9999 -9999 -9999 -9999 
7 7 7 7 7 7 7 10 12 12 12 12 12 12 12 7 12 12 12 12 12 5 5 5 3 12 12 7 7 7 7 7 7 7 7 7 7 7 7 7 7 7 7 7 7 7 7 7 7 7 7 7 7 7 7 7 7 7 7 13 13 7 13 13 7 7 7 7 7 7 7 7 7 7 7 7 12 12 7 12 12 12 12 12 12 12 12 12 12 12 12 12 12 12 12 10 10 2 2 5 7 7 7 7 7 7 7 7 7 7 7 7 7 7 7 7 10 12 12 12 7 7 7 7 7 12 12 12 12 12 10 2 10 5 2 2 2 2 10 12 7 2 2 7 7 7 7 7 7 7 7 13 13 13 7 13 13 13 7 7 12 12 7 7 7 7 7 13 13 13 13 13 13 13 13 13 13 12 7 12 12 12 12 12 12 7 7 7 13 13 13 12 12 12 7 7 7 7 12 12 12 12 7 7 7 10 10 13 -9999 -9999 -9999 -9999 -9999 -9999 
7 7 7 7 7 7 12 12 7 7 7 12 12 12 12 7 7 12 7 12 10 5 5 5 5 5 12 12 7 7 7 7 7 7 7 7 7 7 7 7 7 13 7 7 13 13 7 7 7 7 7 7 7 7 13 7 7 7 7 13 13 13 13 7 13 13 7 7 7 7 7 7 7 7 7 7 12 12 12 12 12 12 12 5 12 12 12 12 12 12 12 12 12 12 12 12 12 2 2 2 12 12 7 7 7 7 7 7 7 7 7 7 7 7 13 7 12 12 12 12 7 12 12 12 7 12 12 12 12 10 2 2 2 2 2 2 2 2 2 12 12 10 2 7 7 7 7 7 7 7 7 13 7 13 13 7 13 7 7 12 7 7 7 7 7 7 7 13 7 13 13 13 13 13 13 13 13 7 12 12 12 12 12 12 12 7 12 7 13 13 13 12 12 12 7 7 7 7 7 7 7 12 12 12 7 10 10 13 -9999 -9999 -9999 -9999 -9999 -9999 
10 7 7 7 12 10 12 12 7 7 7 7 12 12 12 7 10 5 10 5 10 5 5 5 5 7 10 3 12 7 7 7 7 7 7 7 7 7 7 7 13 7 7 7 7 7 7 7 7 7 7 7 7 7 7 7 7 13 13 13 7 7 7 7 7 7 7 7 7 7 7 7 7 7 7 7 7 12 12 12 12 10 12 12 7 12 12 12 12 12 5 12 5 12 12 12 10 2 2 10 5 5 12 7 7 7 7 7 7 7 7 7 7 7 7 7 7 10 5 12 7 12 12 7 12 12 12 12 12 10 2 2 2 2 2 2 2 2 10 12 12 7 7 7 7 7 7 7 7 7 7 7 13 7 7 13 13 7 12 12 7 7 7 7 7 7 7 7 13 13 13 13 7 13 13 13 13 12 12 5 12 12 12 12 12 12 12 7 7 3 7 12 12 12 7 7 13 13 7 12 12 12 5 12 12 10 10 13 -9999 -9999 -9999 -9999 -9999 -9999 
10 13 7 13 7 10 12 7 7 7 7 12 5 12 5 10 12 12 5 12 3 5 5 5 5 7 7 7 12 7 7 7 7 7 7 7 7 7 7 7 7 7 13 7 7 7 7 7 7 7 7 7 7 7 7 7 13 13 7 7 13 7 7 7 7 7 7 7 7 7 7 7 7 7 7 7 7 12 12 12 12 12 12 12 7 7 7 12 12 12 5 12 5 12 12 12 12 2 2 2 2 2 2 12 7 7 7 7 7 7 7 7 7 7 7 7 13 13 10 7 7 7 7 7 7 12 12 12 12 12 12 3 2 2 2 2 2 10 12 12 12 12 7 7 7 7 7 13 7 7 7 7 7 7 7 7 7 12 12 7 7 7 7 7 7 7 7 7 7 13 7 13 13 13 13 13 12 12 12 12 12 12 12 12 5 12 12 12 7 7 13 12 7 12 7 7 13 13 13 12 12 12 12 12 12 12 7 13 -9999 -9999 -9999 -9999 -9999 -9999 
7 7 7 7 7 7 12 7 7 7 12 12 10 5 10 12 12 12 5 5 5 5 5 5 3 7 7 7 7 7 7 7 7 7 7 7 7 7 7 7 7 7 7 7 7 7 7 13 7 7 7 7 7 7 7 13 13 13 7 13 13 13 7 7 7 7 7 7 7 7 7 7 7 7 7 7 7 7 12 7 12 7 7 12 12 12 5 12 12 12 12 12 12 12 12 12 12 2 2 2 12 2 2 5 12 7 7 7 7 7 7 13 7 7 7 7 7 7 7 7 7 13 7 7 7 7 7 12 12 12 12 12 10 10 2 2 10 12 12 12 12 12 12 7 7 7 7 7 7 7 7 7 13 7 7 7 7 12 12 7 7 7 13 7 7 7 7 7 7 13 13 13 13 13 13 7 7 12 12 12 12 12 12 12 10 12 12 7 12 12 12 12 12 7 7 7 13 13 13 13 12 12 5 5 12 12 7 10 -9999 -9999 -9999 -9999 -9999 -9999 
7 7 7 3 7 7 7 7 7 7 3 3 12 10 12 12 12 10 10 5 5 5 10 3 5 12 7 7 7 13 13 7 7 7 7 7 7 12 7 7 7 7 7 7 7 7 7 7 7 7 13 13 7 7 7 13 7 7 7 13 7 13 13 7 12 7 7 7 7 7 7 7 7 7 7 7 12 7 12 12 12 12 5 12 7 12 12 12 7 12 12 12 12 5 12 12 12 2 2 12 12 12 2 2 5 5 7 7 7 7 7 7 7 7 7 7 7 7 7 13 7 7 7 7 7 7 7 7 12 10 12 12 12 12 12 12 5 12 12 12 12 12 12 7 7 7 7 7 7 7 7 7 13 7 7 7 7 7 7 7 7 7 13 7 7 7 7 7 7 13 13 13 13 13 13 13 13 13 12 7 12 12 12 12 12 12 12 12 12 12 12 12 7 7 7 13 7 7 13 13 13 13 13 10 10 10 10 7 -9999 -9999 -9999 -9999 -9999 -9999 
10 13 13 7 7 7 7 3 7 7 7 12 7 12 12 10 10 10 10 5 5 5 10 5 5 12 7 7 7 7 13 7 7 7 7 7 7 12 12 12 7 12 12 7 7 7 7 7 7 7 7 7 7 7 7 13 7 7 7 7 7 13 13 7 7 7 7 7 7 7 5 12 7 7 7 7 12 7 7 7 5 12 7 7 5 12 12 7 7 12 12 12 12 12 5 5 5 5 12 12 12 12 12 2 2 2 7 7 7 7 7 7 7 7 7 7 7 7 7 7 7 7 7 7 7 7 7 7 7 7 12 12 12 12 12 12 12 5 2 12 12 12 12 7 7 7 7 7 7 7 7 7 7 7 7 7 7 7 7 7 7 13 13 7 7 7 7 7 7 13 7 13 13 7 13 13 7 7 7 7 12 7 12 12 12 12 12 12 12 12 12 7 12 12 7 7 12 12 12 7 3 13 13 10 10 7 10 13 -9999 -9999 -9999 -9999 -9999 -9999 
3 13 13 13 7 7 7 13 7 7 7 7 12 12 3 5 10 10 10 5 5 5 5 5 12 7 7 7 7 7 7 7 7 7 7 7 7 12 12 7 7 12 12 7 7 7 7 7 7 7 7 7 7 7 7 13 7 7 7 7 7 13 13 7 7 12 7 7 7 7 12 12 7 7 7 7 7 12 7 10 12 7 12 7 5 10 12 7 12 12 12 12 12 5 12 5 5 10 12 12 12 12 12 2 2 2 2 12 7 7 7 7 7 7 7 7 13 7 7 7 7 7 7 7 7 7 7 7 7 7 7 7 12 12 12 12 12 12 12 12 12 12 10 7 7 7 7 7 7 7 7 7 7 7 7 7 7 7 7 7 7 13 13 7 7 7 7 7 7 13 13 13 13 13 7 13 13 12 12 7 13 7 12 12 12 12 12 12 12 12 12 12 12 7 7 7 10 12 12 7 12 10 12 10 5 10 10 10 -9999 -9999 -9999 -9999 -9999 -9999 
10 13 7 7 7 7 7 7 7 7 7 7 12 7 3 10 10 10 5 5 5 5 12 12 7 7 7 7 7 7 7 12 7 7 7 7 7 12 12 12 12 12 7 7 7 7 7 12 7 7 12 7 7 7 7 7 7 7 7 7 7 7 7 13 7 12 7 7 7 12 7 7 7 7 7 12 7 12 7 7 7 12 7 12 3 12 7 7 12 12 12 12 5 12 12 12 12 10 12 12 12 12 12 12 12 2 2 2 7 7 7 7 7 7 7 7 7 7 7 7 7 7 7 7 7 7 7 7 7 7 7 7 12 7 10 12 12 7 12 12 12 12 7 12 7 7 12 7 7 12 7 7 7 7 7 7 7 7 7 7 7 7 13 13 7 7 7 13 7 13 13 7 13 13 7 12 12 12 12 12 12 13 12 12 12 12 12 12 12 12 12 5 12 7 7 13 13 7 12 12 12 12 13 10 5 10 10 10 -9999 -9999 -9999 -9999 -9999 -9999 
10 13 7 7 7 7 7 7 7 7 7 7 7 12 12 12 7 10 5 5 5 5 12 12 7 7 7 7 7 7 7 7 7 7 7 7 10 12 12 12 7 7 7 7 7 7 7 12 7 7 10 12 7 7 7 7 12 12 7 7 7 7 13 7 7 5 7 12 7 7 12 7 7 7 12 12 12 7 7 7 12 7 12 7 7 7 12 5 12 12 12 12 12 12 12 12 12 10 12 12 12 12 12 12 12 2 2 2 2 7 7 7 7 7 7 7 7 7 7 7 7 7 7 7 7 7 7 7 7 7 7 12 12 12 12 12 12 12 12 12 12 12 12 12 12 7 7 7 7 12 7 7 12 7 7 7 7 7 7 7 7 7 7 7 7 7 7 13 13 13 13 13 7 13 13 12 12 12 7 12 12 7 13 7 7 12 12 12 7 12 12 12 12 7 12 13 7 12 12 12 12 12 13 10 5 5 5 5 -9999 -9999 -9999 -9999 -9999 -9999 
7 13 13 7 13 7 7 7 7 7 7 7 7 7 12 7 10 10 5 3 5 5 5 12 12 12 12 7 7 7 7 5 12 12 7 7 10 12 7 7 7 7 7 7 7 12 12 12 7 10 10 7 7 7 7 7 12 12 7 7 7 7 13 7 7 10 12 7 7 7 7 7 7 12 7 12 12 7 7 7 7 7 7 7 7 7 5 5 12 12 12 12 12 12 12 12 12 7 12 7 12 12 12 12 12 12 12 2 2 2 5 7 7 7 7 7 7 7 7 7 7 7 7 7 7 7 7 7 7 7 7 7 7 7 7 7 12 7 12 12 12 12 12 12 12 12 12 7 7 12 7 7 7 7 7 7 7 7 7 7 13 13 7 13 13 7 13 7 7 7 13 13 7 12 12 12 12 12 12 12 12 7 7 12 12 12 12 12 12 12 12 12 12 10 12 12 12 12 12 12 12 10 5 5 5 5 3 10 -9999 -9999 -9999 -9999 -9999 -9999 
7 13 13 13 13 7 13 7 7 7 7 7 7 7 7 12 10 10 5 5 5 5 5 5 5 5 5 12 12 5 5 5 12 7 12 7 5 12 7 7 7 7 7 7 7 7 12 5 12 5 12 7 7 12 12 12 12 12 7 7 7 12 7 7 7 5 7 7 7 7 7 7 7 12 5 7 7 7 7 7 7 7 7 7 7 7 5 10 12 12 12 12 12 12 12 12 12 12 12 12 12 5 12 12 12 12 12 10 2 2 2 2 7 7 7 7 7 7 7 7 7 7 7 7 7 7 7 7 13 7 13 13 7 7 7 7 12 7 7 12 12 12 12 12 12 12 12 12 7 7 7 7 7 7 7 7 7 7 7 7 3 2 2 13 13 13 7 7 7 13 13 13 12 12 12 12 12 12 12 12 12 7 12 12 12 12 12 12 12 12 12 12 12 12 10 12 7 12 12 12 7 10 5 5 10 2 2 2 -9999 -9999 -9999 -9999 -9999 -9999 
7 7 7 13 13 7 7 7 7 7 13 13 7 7 7 3 5 12 10 10 5 10 5 10 5 5 5 5 3 5 5 5 5 5 5 5 5 12 7 7 7 12 12 7 7 7 10 5 5 12 5 12 12 12 12 12 12 7 7 7 7 12 12 12 5 5 7 7 7 7 7 7 7 7 10 7 12 7 7 7 7 7 7 7 3 7 5 3 5 12 12 12 12 12 12 5 12 12 12 12 12 12 12 12 12 12 12 12 10 2 2 2 7 7 7 7 7 7 7 7 7 7 7 7 7 7 13 13 13 13 7 7 7 7 7 7 7 7 7 12 10 12 12 12 12 12 12 7 7 7 7 7 7 7 7 7 7 7 7 7 2 2 2 13 7 7 7 13 7 13 13 13 13 10 5 12 12 12 12 12 12 12 12 12 12 12 12 12 12 12 12 12 12 12 12 12 5 12 12 12 13 10 5 10 2 2 2 2 -9999 -9999 -9999 -9999 -9999 -9999 
7 13 7 13 13 7 13 7 7 7 7 7 7 3 10 10 12 12 12 7 10 5 10 5 5 5 5 3 3 3 5 5 5 3 5 5 5 5 7 7 7 12 12 7 7 7 5 5 5 3 5 12 12 12 12 12 7 7 7 7 7 7 5 12 5 5 7 7 7 7 7 7 7 12 7 12 7 7 7 7 7 7 7 7 7 3 5 7 12 7 12 12 12 12 12 12 12 12 12 12 5 12 12 12 12 12 12 12 12 12 5 5 2 12 7 7 7 7 7 7 7 7 7 13 7 7 13 13 13 7 7 7 7 7 7 7 12 12 12 12 12 5 12 12 12 12 12 12 7 7 7 7 7 7 7 7 7 7 7 7 7 2 13 13 13 13 13 13 7 13 13 13 13 10 12 12 12 12 12 12 12 12 12 12 12 12 12 12 12 7 12 12 12 12 12 12 10 12 12 12 10 12 5 10 2 2 2 12 -9999 -9999 -9999 -9999 -9999 -9999 
10 13 7 13 13 7 13 7 7 7 7 13 7 10 12 12 7 12 7 7 7 10 10 10 5 5 5 5 5 3 3 3 3 3 5 5 5 5 5 5 12 7 7 7 7 7 5 5 5 5 5 5 5 12 7 12 12 12 7 7 7 7 12 10 5 5 7 7 7 7 7 7 7 12 12 7 7 7 7 7 7 7 7 7 7 7 7 12 12 12 12 12 12 10 12 12 5 12 12 12 12 12 12 12 12 12 12 12 12 12 12 12 12 7 7 7 7 7 7 7 7 7 7 13 7 7 7 13 13 7 7 7 7 7 7 12 12 12 12 12 12 12 7 12 12 12 12 12 12 7 7 7 7 7 12 7 7 7 7 7 7 7 13 7 7 7 7 13 13 13 13 13 13 12 12 12 13 12 12 12 12 12 12 12 12 12 12 12 12 12 12 12 12 12 5 12 10 12 5 12 10 5 2 2 2 2 2 -9999 -9999 -9999 -9999 -9999 -9999 -9999 
10 13 13 13 13 13 13 7 7 7 13 13 7 7 7 7 7 7 12 7 12 5 5 10 5 5 5 5 5 5 5 3 3 5 5 5 5 5 5 5 5 12 12 7 7 5 5 3 5 5 5 5 5 12 12 12 5 5 7 7 7 7 7 7 5 5 12 7 7 7 7 7 7 7 7 7 7 7 7 7 7 7 7 7 7 7 7 7 12 12 12 12 5 12 12 5 7 5 12 12 12 12 5 5 12 12 12 12 12 12 12 12 7 12 7 7 7 7 7 7 13 7 7 7 13 7 7 13 7 10 7 7 12 7 7 12 7 7 12 7 7 12 12 12 12 12 12 7 12 12 12 7 12 12 12 12 7 7 7 7 7 7 7 7 13 7 7 13 13 13 13 13 13 13 7 12 7 12 12 12 12 12 12 12 7 7 12 12 12 12 12 12 12 12 5 12 12 10 5 5 5 3 2 2 2 2 12 -9999 -9999 -9999 -9999 -9999 -9999 -9999 
10 13 13 13 13 13 13 7 7 13 7 7 7 7 7 7 7 7 10 7 5 10 5 12 5 5 5 5 5 12 5 3 5 5 5 5 5 5 5 5 5 5 12 12 7 5 3 5 12 12 12 5 5 5 5 12 7 7 7 7 7 7 7 7 7 12 5 12 7 7 7 7 7 7 7 12 7 7 7 7 7 7 7 7 7 7 7 5 12 12 12 5 7 12 12 12 12 12 5 5 5 12 5 12 12 12 12 12 12 12 12 7 7 7 7 7 7 7 7 7 7 7 7 7 7 13 7 13 7 7 7 12 7 7 12 7 7 7 12 7 7 12 7 12 12 12 10 12 12 12 12 12 12 5 12 12 7 7 7 7 7 7 7 7 7 13 13 13 13 13 13 13 13 12 7 12 7 7 12 12 12 12 12 12 12 12 12 12 12 7 12 12 12 12 10 12 10 10 5 5 5 3 2 2 2 12 12 -9999 -9999 -9999 -9999 -9999 -9999 -9999 
7 13 13 13 3 7 7 7 7 13 7 13 13 7 13 7 7 7 12 10 5 12 12 12 12 10 5 5 12 7 12 10 10 12 12 10 5 5 5 5 5 5 5 5 5 5 5 7 12 7 7 7 10 12 7 7 7 7 7 7 7 7 7 7 12 12 12 5 12 12 12 12 12 5 7 7 7 7 7 7 7 7 7 7 7 7 7 5 12 12 10 12 7 12 12 10 12 5 12 12 12 12 12 12 12 12 12 7 7 12 7 7 7 12 7 7 7 7 7 7 7 7 7 13 13 13 13 13 13 12 12 12 12 7 7 7 7 7 7 7 7 7 7 12 12 12 12 12 7 12 12 12 5 12 12 12 7 7 7 7 7 7 7 7 7 7 7 13 13 13 13 7 12 12 12 12 12 12 12 12 12 12 12 12 12 5 12 12 12 12 12 12 10 12 10 5 3 5 5 3 3 3 2 10 3 5 12 -9999 -9999 -9999 -9999 -9999 -9999 -9999 
7 13 13 7 3 7 13 7 7 7 13 13 7 7 7 7 7 5 10 5 5 12 12 12 12 10 5 12 7 12 10 10 7 7 7 7 5 5 5 5 5 5 5 5 5 5 5 7 7 12 7 12 7 7 7 7 7 7 7 7 7 12 7 7 5 5 12 12 12 12 5 12 5 5 12 7 12 7 7 7 7 7 7 7 7 7 10 7 7 12 7 7 12 7 12 12 12 7 12 12 12 5 5 10 10 12 7 12 12 3 7 7 12 12 7 7 7 7 7 7 7 7 7 7 13 7 7 7 13 12 12 7 7 7 7 7 7 13 7 13 7 7 7 12 7 12 12 12 12 12 12 10 12 7 12 7 7 7 7 7 7 7 7 7 7 7 7 3 13 13 13 13 12 12 12 12 12 12 12 12 12 12 12 12 5 5 12 12 12 12 12 12 12 10 10 5 5 5 5 3 3 3 3 12 10 12 12 -9999 -9999 -9999 -9999 -9999 -9999 -9999 
7 13 13 7 7 7 7 7 7 7 7 7 7 7 7 7 10 10 5 12 12 12 12 12 12 5 5 12 12 12 12 7 12 7 7 12 10 10 5 5 3 3 3 5 5 5 5 12 12 7 7 12 12 7 7 7 7 7 7 7 7 12 7 7 7 5 5 5 12 5 12 12 12 5 5 12 12 12 7 7 7 7 7 7 7 12 12 7 5 12 12 7 7 7 12 12 10 12 12 12 12 12 7 10 10 5 12 7 12 7 12 7 12 12 12 7 7 7 7 7 7 7 7 7 7 7 7 12 12 12 7 7 7 7 13 13 7 13 7 7 7 7 7 12 7 12 12 12 7 12 7 12 12 12 7 7 7 7 7 7 7 13 7 7 7 3 7 3 13 13 13 3 12 12 12 12 12 12 5 5 12 5 5 5 12 12 12 12 12 12 12 10 12 10 10 5 5 5 5 3 3 3 5 5 5 5 5 -9999 -9999 -9999 -9999 -9999 -9999 -9999 
-9999 13 13 13 7 7 7 7 13 7 13 13 7 7 7 5 5 12 7 12 7 7 7 12 12 10 5 12 12 12 12 7 7 7 7 12 10 3 5 5 3 3 3 5 5 5 5 5 5 12 12 7 7 7 7 7 7 7 7 3 5 12 12 12 12 5 5 12 7 7 7 7 7 7 7 7 5 5 3 5 5 7 7 7 7 7 13 7 12 12 12 12 12 12 12 7 12 12 7 12 12 12 10 3 10 10 5 12 12 5 7 12 12 12 12 12 5 12 7 7 7 7 7 7 12 7 7 7 7 13 12 7 7 13 3 7 7 13 13 7 7 7 7 7 7 12 12 12 12 12 12 12 12 7 7 7 7 7 7 7 7 7 13 3 7 3 7 7 13 13 7 12 12 5 12 12 12 12 12 10 12 5 10 12 12 12 12 12 12 12 12 12 5 5 5 10 2 5 5 12 10 10 5 10 5 5 5 -9999 -9999 -9999 -9999 -9999 -9999 -9999 
-9999 13 13 7 7 13 13 7 7 7 7 7 7 3 10 5 12 12 12 7 12 7 7 12 12 5 5 12 12 12 7 7 7 7 12 10 3 3 5 5 3 3 5 5 5 5 5 5 5 7 12 7 7 7 7 7 7 7 7 7 5 5 12 12 7 5 5 12 7 7 7 7 7 7 7 7 7 7 7 7 7 7 7 7 7 7 7 13 7 12 12 12 7 7 12 12 12 12 12 5 12 12 7 10 12 12 10 10 10 5 5 12 12 12 12 12 12 12 12 12 12 12 12 7 7 12 12 7 7 7 7 7 7 13 7 7 13 7 7 7 7 7 12 7 12 12 12 12 7 12 7 12 7 7 7 7 7 7 7 7 7 7 13 7 7 3 7 7 7 13 3 12 12 12 12 12 12 12 12 12 10 5 10 12 12 12 12 12 12 12 12 10 10 5 5 10 10 12 5 12 10 10 10 10 5 10 5 -9999 -9999 -9999 -9999 -9999 -9999 -9999 
-9999 7 13 7 7 7 3 7 7 13 7 7 13 7 7 7 7 7 12 7 12 7 7 12 5 5 10 12 12 7 7 7 7 7 5 10 3 3 12 3 5 10 5 5 5 5 5 5 5 7 7 7 7 7 7 7 7 7 7 12 5 5 5 5 5 5 12 7 7 7 7 7 7 7 7 7 7 7 7 7 7 7 7 7 12 7 7 7 7 12 12 7 7 7 5 7 12 12 12 12 12 5 12 7 12 12 12 12 10 5 5 5 12 7 7 12 12 12 12 12 12 12 7 7 7 7 7 7 7 7 7 7 7 7 13 7 3 13 7 7 7 7 12 7 12 12 12 12 12 12 12 12 7 7 7 7 7 7 7 7 13 13 12 7 13 7 7 7 7 13 13 12 12 7 12 12 7 7 12 12 12 10 5 12 12 12 12 12 12 12 10 5 5 5 5 5 12 12 5 12 12 12 10 10 12 10 10 -9999 -9999 -9999 -9999 -9999 -9999 -9999 
-9999 7 7 7 7 7 7 7 7 7 13 7 7 7 7 7 7 7 7 12 12 12 12 10 5 5 12 12 7 7 7 7 7 7 10 5 5 5 12 7 7 7 10 10 5 5 5 5 5 12 7 7 7 7 7 7 7 7 7 7 5 5 10 10 5 5 12 12 7 7 7 7 7 7 7 7 7 7 7 7 7 7 7 13 7 7 12 7 5 7 7 7 7 7 7 12 12 7 12 12 12 5 12 12 7 7 7 7 10 5 5 12 12 12 7 7 12 7 12 12 12 7 7 7 7 7 7 7 7 7 7 7 7 7 7 7 7 7 7 7 7 7 7 7 12 12 12 12 7 12 7 12 7 7 7 7 7 7 7 7 7 13 13 13 13 3 12 7 7 7 7 7 7 13 7 7 12 12 12 12 12 12 10 5 5 5 5 5 5 5 5 5 5 5 5 12 12 5 12 12 12 12 10 5 12 12 12 -9999 -9999 -9999 -9999 -9999 -9999 -9999 
-9999 7 7 7 7 7 3 7 7 13 13 7 13 7 7 7 7 7 7 7 12 7 10 5 5 5 12 12 12 7 7 7 7 12 10 10 5 5 7 7 7 12 12 13 5 5 5 12 3 12 12 7 7 7 7 7 7 7 7 7 3 5 5 5 5 5 5 12 12 7 7 7 7 7 7 7 7 7 7 7 7 7 7 13 7 7 7 7 12 12 7 7 7 7 10 5 7 7 3 7 7 7 12 12 7 7 7 12 5 12 12 12 7 7 7 7 7 7 7 7 7 7 7 13 7 7 7 7 7 7 7 7 7 7 7 7 7 7 7 7 7 7 7 12 12 12 12 12 12 7 7 7 7 7 7 7 7 7 7 7 13 13 13 13 3 3 10 12 7 7 7 7 7 12 7 12 7 12 12 12 10 5 5 5 10 5 5 5 5 5 5 5 5 5 5 12 12 12 12 12 12 12 12 10 12 12 12 -9999 -9999 -9999 -9999 -9999 -9999 -9999 
-9999 12 7 7 7 7 7 13 13 7 7 7 7 13 7 7 7 7 7 7 12 12 10 5 12 5 12 7 7 12 7 7 7 7 5 5 5 12 7 7 7 7 12 7 3 3 5 5 5 5 12 7 12 7 7 7 7 7 7 7 5 5 12 10 5 5 5 12 7 7 7 7 7 7 7 7 7 7 7 7 7 13 7 13 7 7 7 7 5 12 12 7 7 7 7 5 7 7 7 7 12 7 7 7 7 7 12 10 5 12 5 5 12 7 7 7 7 7 7 7 7 7 7 7 7 7 7 7 7 7 7 7 7 7 7 7 7 7 7 7 7 7 7 7 7 12 12 12 12 12 7 7 7 7 7 7 7 7 7 7 7 13 7 3 13 3 12 12 12 7 7 7 12 12 12 12 12 12 12 12 12 5 10 10 5 5 5 5 5 5 5 5 5 12 10 12 5 5 5 5 12 12 5 12 12 12 12 -9999 -9999 -9999 -9999 -9999 -9999 -9999 
-9999 12 7 7 7 7 7 7 13 7 7 7 13 13 7 7 7 7 7 3 10 5 12 12 7 5 12 12 7 7 7 7 7 12 5 3 5 12 12 12 7 7 7 7 7 3 5 5 5 5 5 5 12 12 12 12 7 12 7 5 12 7 7 12 5 5 5 5 2 12 7 7 7 7 7 7 7 7 7 7 7 7 13 7 7 7 13 13 10 5 7 7 12 7 10 5 12 7 7 7 7 7 7 7 7 7 7 12 5 5 5 5 5 5 7 7 7 7 7 7 7 7 7 7 7 7 13 7 7 7 7 7 7 7 7 7 7 7 7 7 7 7 7 7 7 7 7 7 7 7 7 7 7 7 7 7 7 7 7 13 7 13 13 3 3 3 7 10 12 12 12 12 12 7 7 12 10 10 10 12 12 5 5 5 5 5 10 5 5 5 5 5 5 12 12 10 12 5 5 12 12 12 12 10 5 12 12 -9999 -9999 -9999 -9999 -9999 -9999 -9999 
-9999 5 7 7 7 7 7 7 7 7 7 7 7 7 13 13 7 7 12 10 5 5 7 7 7 12 7 12 7 7 7 7 7 10 3 3 12 12 7 7 7 12 7 7 7 7 5 5 5 5 5 5 12 7 7 7 12 7 5 12 12 7 7 12 12 5 5 5 5 7 12 7 7 7 12 12 12 7 7 7 7 7 7 7 7 7 7 13 7 5 12 7 7 7 7 10 10 12 7 7 7 7 7 7 7 12 5 12 12 12 12 12 10 5 5 7 7 7 7 7 7 7 13 13 7 7 7 7 7 7 7 7 7 7 7 7 7 7 7 7 7 7 7 7 7 7 7 7 7 7 7 7 7 7 7 7 7 7 7 7 13 13 13 3 3 3 7 7 12 12 12 12 12 12 7 12 12 12 12 12 5 5 5 5 5 5 5 5 5 12 12 12 12 12 12 12 12 10 10 12 12 12 12 12 12 12 12 -9999 -9999 -9999 -9999 -9999 -9999 -9999 
-9999 5 7 7 7 7 7 7 7 7 7 7 7 7 7 7 7 12 3 5 12 12 7 7 12 7 7 7 7 7 7 10 12 5 3 5 12 12 7 7 7 7 13 7 7 7 7 5 5 5 5 5 12 12 7 7 7 7 5 7 12 7 7 5 12 5 5 5 5 5 5 5 7 12 12 12 7 7 7 7 7 7 7 7 7 7 7 7 7 10 12 7 7 7 7 12 5 12 7 7 7 5 5 5 5 5 5 5 5 5 5 12 5 5 5 12 7 7 7 7 7 7 13 13 7 7 7 7 7 7 7 7 7 7 13 7 7 7 7 13 7 7 7 7 7 7 7 7 7 7 7 7 7 7 7 7 13 7 13 7 13 7 7 3 3 3 7 7 12 12 12 12 7 7 7 12 12 12 12 12 10 5 5 5 5 5 10 10 10 12 12 12 12 12 12 12 12 12 12 5 12 12 12 12 12 12 12 -9999 -9999 -9999 -9999 -9999 -9999 -9999 
-9999 5 7 7 7 7 7 7 7 7 13 7 7 7 7 7 5 5 5 7 7 7 7 7 7 7 7 7 5 7 7 12 12 10 3 5 12 12 7 7 7 7 7 7 7 7 7 10 5 5 5 5 12 12 7 7 12 12 7 7 12 12 12 10 5 5 5 5 5 5 5 5 5 5 12 7 7 7 12 7 7 7 7 12 7 7 7 7 7 7 5 7 7 7 7 7 5 5 5 5 5 5 5 5 5 5 5 5 5 5 5 5 3 5 5 12 7 7 7 7 7 7 7 7 7 7 7 7 7 7 7 7 7 7 7 7 7 7 7 7 7 7 7 13 13 7 7 7 7 7 7 13 7 7 7 7 7 7 7 7 13 13 13 3 3 7 7 12 10 12 7 7 12 7 7 12 12 12 7 12 12 5 5 3 5 5 12 12 12 7 12 7 12 12 12 12 12 10 12 12 12 12 12 10 12 12 12 -9999 -9999 -9999 -9999 -9999 -9999 -9999 
-9999 5 7 7 7 13 7 13 7 7 13 7 7 7 7 7 5 12 7 7 7 7 7 7 7 7 7 7 12 7 12 12 10 3 5 5 12 7 7 7 7 7 7 7 7 7 3 3 3 5 5 5 5 5 5 5 5 12 12 5 12 12 12 5 5 5 5 5 5 5 5 5 5 5 12 7 7 7 12 12 7 7 7 12 7 7 7 7 12 7 5 12 5 5 12 5 5 5 5 5 5 5 5 5 5 5 5 5 5 5 5 5 5 5 5 5 7 7 7 7 7 7 7 7 13 7 13 13 7 7 7 7 7 7 7 3 7 7 7 7 13 7 7 13 7 7 7 7 7 3 13 7 13 7 7 7 7 7 7 7 13 3 3 3 12 12 12 12 12 12 12 12 12 7 12 7 12 12 12 7 12 5 5 5 5 5 12 12 12 12 12 12 12 12 12 12 12 12 12 12 12 12 12 10 12 12 12 -9999 -9999 -9999 -9999 -9999 -9999 -9999 
-9999 10 12 7 7 7 7 13 7 7 7 7 13 7 7 7 12 7 7 7 7 7 7 12 7 7 7 7 12 10 12 5 5 3 12 12 12 7 7 7 7 7 7 7 7 7 7 7 5 5 5 5 5 5 5 5 5 5 5 3 3 3 5 5 5 5 5 5 5 5 5 5 5 5 5 5 7 12 12 7 12 7 7 12 7 7 7 7 5 5 5 5 5 5 5 5 5 5 5 5 5 5 5 5 5 5 5 5 5 5 5 5 5 5 5 5 12 7 7 7 7 7 7 7 7 7 13 13 7 7 7 7 12 7 7 7 7 7 7 7 7 7 7 7 7 3 7 7 3 13 13 7 7 7 7 13 13 7 13 7 13 13 13 3 10 12 12 12 12 3 7 12 12 7 12 7 12 7 7 12 12 5 5 5 12 12 12 12 12 12 12 7 7 7 5 12 12 12 12 12 12 12 7 12 12 13 12 -9999 -9999 -9999 -9999 -9999 -9999 -9999 
-9999 7 12 7 7 7 7 7 7 7 13 13 13 13 7 3 7 7 7 7 7 7 7 7 7 7 7 7 12 12 5 5 10 5 5 12 7 7 7 7 7 7 7 7 7 7 7 7 5 5 5 5 5 5 5 5 5 5 5 5 5 5 5 5 5 5 5 5 5 5 5 5 5 5 5 3 5 12 12 7 7 12 12 7 7 7 12 5 5 5 5 5 5 5 5 5 5 5 5 5 5 5 5 5 5 5 5 5 5 5 5 5 5 5 5 5 7 7 7 7 7 7 7 7 7 7 7 7 13 7 12 7 7 7 7 7 7 7 7 7 7 7 7 7 7 7 7 7 7 3 13 7 7 13 13 7 7 7 13 7 13 3 13 7 7 7 12 12 12 3 5 12 7 12 12 12 12 12 10 5 5 3 3 5 5 5 12 12 12 12 12 7 12 12 12 7 12 7 12 7 7 12 12 12 12 12 -9999 -9999 -9999 -9999 -9999 -9999 -9999 -9999 
-9999 7 12 12 7 7 7 7 7 13 13 13 13 7 13 7 7 7 7 13 7 7 7 7 7 7 7 7 5 5 5 10 5 5 5 5 7 7 7 7 7 7 7 7 7 7 7 7 7 5 5 5 5 5 5 5 5 5 5 5 5 5 5 5 5 5 5 5 5 5 5 5 5 5 5 3 3 5 7 7 7 12 12 5 5 5 5 5 5 5 5 5 5 5 5 5 5 5 5 5 2 2 2 2 2 2 5 5 5 5 5 5 5 5 5 5 12 7 7 7 7 7 7 7 7 7 7 7 7 7 12 12 7 7 7 7 7 12 12 7 7 7 7 7 7 7 7 7 13 3 7 7 7 7 13 13 7 13 3 13 13 13 3 7 7 13 12 12 12 5 5 5 12 5 12 12 10 5 5 5 5 5 3 3 3 5 12 12 12 12 12 7 12 12 12 7 12 12 7 12 7 7 7 7 12 12 -9999 -9999 -9999 -9999 -9999 -9999 -9999 -9999 
-9999 7 5 7 7 7 7 7 3 3 3 7 13 13 13 7 7 7 7 7 7 7 7 7 13 7 7 5 5 10 12 10 5 10 7 12 7 7 7 7 7 7 12 7 7 7 7 7 5 5 5 5 5 5 5 5 5 5 5 5 5 5 2 5 3 3 3 5 5 5 5 5 5 5 5 3 5 5 5 7 7 7 5 5 5 5 5 5 5 5 5 5 5 2 5 5 2 2 2 2 2 2 2 2 2 2 2 5 5 5 5 5 5 5 5 5 5 12 7 7 7 7 7 7 7 7 7 7 12 7 12 12 7 7 7 7 12 7 7 7 7 7 7 7 13 13 7 7 3 3 7 7 7 7 7 7 13 3 13 13 13 13 3 12 12 7 7 12 12 12 5 5 5 5 5 5 5 5 5 5 5 5 3 5 5 5 12 12 10 5 7 7 12 12 7 12 7 7 12 13 7 7 13 7 7 12 -9999 -9999 -9999 -9999 -9999 -9999 -9999 -9999 
-9999 7 5 12 7 7 7 7 7 3 3 3 3 13 13 3 7 7 7 7 7 7 3 3 13 13 7 7 7 7 12 12 5 5 12 12 7 7 7 7 7 7 7 12 7 7 7 5 5 5 7 12 10 5 5 5 5 5 3 3 2 3 5 5 3 5 5 5 3 10 10 5 5 5 5 5 5 5 5 5 7 5 5 5 5 5 5 5 2 2 2 2 2 2 2 2 2 2 2 2 2 2 2 2 2 2 2 2 3 5 5 5 5 5 5 5 5 5 12 12 12 7 12 7 7 7 7 12 5 7 7 7 12 12 12 12 7 7 7 7 7 7 7 7 7 13 7 7 3 13 13 3 7 7 13 13 13 13 13 13 7 3 3 12 12 12 12 12 12 10 5 5 5 5 5 5 5 5 10 5 5 5 5 5 5 5 5 12 12 12 12 12 12 12 12 12 7 12 7 7 7 7 12 7 12 7 -9999 -9999 -9999 -9999 -9999 -9999 -9999 -9999 
-9999 7 10 5 12 7 7 7 7 3 3 3 3 3 3 7 7 7 7 13 7 7 13 3 13 3 7 7 7 12 12 5 10 5 12 12 7 7 7 7 7 7 7 7 10 5 5 5 5 7 7 7 10 5 5 5 5 5 5 5 3 2 2 2 3 2 3 5 5 5 10 5 5 5 5 5 5 3 5 12 12 5 5 5 5 5 5 5 2 2 2 2 2 2 2 2 2 2 2 2 2 2 2 2 2 2 2 2 2 5 5 5 5 5 5 5 5 5 5 5 5 5 12 7 7 7 7 12 5 12 7 12 5 12 12 12 12 12 7 12 7 7 12 7 7 7 7 7 3 3 7 3 3 3 13 7 3 3 13 13 7 7 3 3 13 12 12 12 12 12 5 5 5 5 5 5 5 5 5 5 5 5 10 5 12 3 5 12 5 12 12 10 12 12 12 12 12 7 7 13 7 7 7 7 7 7 -9999 -9999 -9999 -9999 -9999 -9999 -9999 -9999 
-9999 7 5 12 12 7 7 7 7 3 3 3 3 3 3 3 13 7 7 3 3 7 13 13 13 7 7 7 7 12 10 10 5 5 12 12 12 7 7 7 7 7 7 5 5 5 5 12 7 7 7 7 7 10 5 3 3 5 5 10 5 5 3 5 3 3 3 5 5 12 12 7 5 5 5 5 3 3 5 12 5 5 5 5 5 5 5 5 2 2 2 2 2 2 2 2 2 2 2 2 2 2 12 10 2 2 2 2 2 10 10 5 3 3 5 5 5 5 5 5 5 5 5 12 12 12 5 5 12 5 5 12 12 5 12 12 12 12 12 12 7 7 7 7 12 12 7 7 3 13 7 7 3 13 13 7 7 13 13 13 12 12 7 3 13 5 12 5 12 10 5 5 5 5 5 12 5 5 5 5 12 5 5 5 12 5 2 10 3 7 12 7 12 12 5 5 12 7 13 7 13 7 13 12 12 12 -9999 -9999 -9999 -9999 -9999 -9999 -9999 -9999 
-9999 7 7 5 12 7 5 7 7 7 3 3 3 3 3 13 13 3 3 3 3 7 13 13 3 7 7 7 7 7 12 10 12 5 12 12 12 7 7 7 7 7 7 7 7 7 7 7 7 7 7 7 7 7 3 3 5 5 5 10 5 5 5 5 5 5 5 12 7 12 12 7 12 10 5 5 3 3 5 5 5 5 5 5 5 5 5 5 5 2 2 2 2 2 2 2 2 3 2 10 5 12 10 10 7 3 2 2 2 2 5 5 3 2 2 3 5 5 5 5 5 5 5 12 10 5 5 5 5 5 3 5 5 5 12 5 12 12 12 7 7 7 7 7 7 7 7 7 7 7 7 13 7 3 3 13 7 7 13 13 13 7 7 7 3 13 12 12 5 5 5 5 5 12 12 12 12 12 12 10 12 12 12 12 12 10 5 2 2 2 3 5 12 5 12 12 7 7 7 7 7 13 7 12 12 12 -9999 -9999 -9999 -9999 -9999 -9999 -9999 -9999 
-9999 7 7 7 7 7 7 7 7 7 7 7 3 3 3 7 7 7 3 7 3 3 3 13 13 5 12 12 7 12 10 5 5 12 12 12 12 7 7 7 7 12 12 7 7 7 7 7 7 7 7 7 7 7 3 3 5 5 12 12 7 5 10 5 5 10 5 7 7 7 7 5 12 12 5 5 3 3 5 5 3 5 5 5 5 5 5 5 5 5 12 7 10 10 10 10 10 10 10 10 7 7 12 12 7 10 3 2 3 5 5 5 5 3 2 3 5 5 5 5 5 5 5 5 5 5 5 5 5 5 5 5 5 5 5 5 12 12 12 7 12 12 12 12 12 12 12 7 7 7 7 3 13 3 3 13 7 7 3 3 13 5 12 7 12 12 7 12 12 5 5 5 5 12 12 12 12 12 12 12 12 12 12 12 12 10 5 2 2 10 3 3 3 5 12 12 7 7 7 7 7 13 7 7 12 12 -9999 -9999 -9999 -9999 -9999 -9999 -9999 -9999 
-9999 7 7 7 7 7 7 7 7 7 7 7 3 7 3 3 3 3 3 3 3 3 3 3 3 7 5 12 12 5 5 5 5 5 5 12 12 7 7 7 7 7 7 7 7 7 7 7 7 7 7 7 7 7 7 5 5 5 7 12 7 7 12 5 5 10 10 12 12 12 7 12 10 5 5 10 10 5 5 5 5 5 5 5 5 5 5 5 5 5 7 7 7 7 7 7 7 7 7 12 12 12 12 7 12 12 10 10 5 3 2 2 5 5 3 2 3 10 5 5 5 5 5 5 5 5 5 5 5 5 5 5 5 5 10 12 12 12 5 12 12 12 12 12 12 12 12 7 7 3 7 3 13 13 13 13 7 7 3 13 13 7 12 12 12 12 12 12 5 5 5 5 3 5 12 12 12 12 12 12 12 12 12 12 12 12 10 5 12 12 3 10 3 12 5 12 12 12 12 7 13 7 12 12 7 7 -9999 -9999 -9999 -9999 -9999 -9999 -9999 -9999 
-9999 7 13 7 7 7 7 7 5 12 7 7 7 7 7 3 3 3 3 3 3 3 3 13 13 7 5 5 12 5 5 10 12 12 5 5 5 5 12 7 7 7 7 7 7 7 7 7 7 7 7 7 7 12 12 5 5 5 7 7 7 12 5 10 5 12 12 12 7 7 7 7 7 5 12 12 10 10 10 3 5 5 5 5 5 5 5 5 5 5 12 7 7 7 7 7 12 12 12 12 12 12 7 7 7 7 7 7 12 7 10 3 3 3 5 5 3 10 3 5 5 5 5 5 5 5 5 5 5 10 5 5 5 5 5 5 12 5 5 12 12 12 7 12 12 12 12 7 7 7 7 13 7 13 13 13 12 7 3 13 7 3 13 7 12 5 5 5 5 5 5 5 12 12 12 12 12 12 12 12 12 12 12 12 12 12 5 5 5 10 10 10 5 3 12 5 12 12 12 7 12 13 12 12 7 7 -9999 -9999 -9999 -9999 -9999 -9999 -9999 -9999 
-9999 13 3 3 3 7 7 7 5 5 12 7 7 7 7 7 3 3 3 3 3 3 3 3 3 3 7 7 7 12 12 5 5 12 12 12 12 12 7 7 7 7 7 7 7 7 7 7 7 7 7 7 7 12 7 5 5 12 7 7 7 12 5 5 5 12 12 12 12 12 7 7 7 5 5 5 10 10 10 10 5 5 5 3 10 5 5 5 5 5 12 7 7 7 12 12 12 12 12 12 12 12 7 7 7 7 7 7 7 7 10 7 10 3 3 3 5 10 3 5 5 5 5 5 5 5 5 5 5 5 5 5 5 5 5 5 5 5 12 7 12 12 7 12 7 7 7 7 3 3 3 13 7 13 7 7 7 7 13 7 7 7 7 12 12 5 5 5 5 5 5 5 12 12 7 12 12 12 7 12 12 12 12 12 12 12 12 12 5 12 12 12 5 12 10 3 12 12 7 12 12 10 12 12 12 7 -9999 -9999 -9999 -9999 -9999 -9999 -9999 -9999 
-9999 3 3 3 3 3 3 7 7 5 12 5 12 12 5 12 3 3 3 3 3 3 3 3 3 13 7 7 7 12 10 5 5 12 12 12 12 12 12 7 7 7 7 7 7 7 7 13 7 7 7 7 7 7 7 10 5 5 12 7 12 7 10 10 5 12 12 12 7 12 7 7 7 7 3 10 10 10 5 10 5 5 3 10 5 10 10 10 5 5 5 12 12 12 7 12 12 7 7 12 12 12 7 7 7 7 7 7 7 12 12 7 10 10 5 5 10 5 3 2 2 5 5 5 5 5 5 5 12 5 5 5 5 5 5 12 5 12 12 7 7 12 7 7 3 7 7 7 3 3 3 7 7 7 7 12 12 7 7 7 7 7 7 5 12 12 12 5 5 5 5 5 12 12 7 12 12 12 12 12 12 12 5 12 12 5 5 5 5 12 10 5 5 5 5 5 3 12 12 12 12 12 12 12 7 7 -9999 -9999 -9999 -9999 -9999 -9999 -9999 -9999 
-9999 3 3 3 3 7 7 7 7 5 5 12 7 7 3 3 3 3 3 3 3 3 3 3 13 13 7 7 5 5 5 5 5 5 12 5 5 5 5 12 7 7 7 13 7 7 7 7 7 7 7 7 7 12 12 5 5 5 12 5 12 12 12 12 12 12 12 5 12 12 7 12 12 12 12 10 5 5 12 5 5 5 10 3 5 5 5 5 5 5 5 5 5 12 12 12 7 7 7 7 7 7 7 7 7 7 7 7 7 12 12 7 12 10 3 5 3 5 5 10 3 5 5 10 5 5 5 5 5 5 5 5 5 5 5 5 12 12 12 12 7 12 7 7 7 7 3 3 7 3 3 7 7 7 12 7 7 7 13 3 7 7 7 12 12 12 12 12 10 5 5 5 12 12 12 12 12 12 12 12 12 12 12 12 10 12 5 5 5 5 10 5 5 5 12 5 10 3 12 12 5 12 12 7 7 7 -9999 -9999 -9999 -9999 -9999 -9999 -9999 -9999 
-9999 3 3 3 3 13 13 7 7 3 5 7 7 3 3 3 3 3 3 3 3 3 3 7 7 7 7 7 5 5 5 5 5 12 12 12 12 5 7 7 7 7 7 7 7 7 3 7 7 7 7 7 12 5 5 5 5 5 5 12 12 12 12 7 7 12 12 10 5 12 7 12 12 7 12 12 10 5 12 5 5 5 10 7 5 5 5 5 5 5 5 5 5 5 12 12 7 7 7 7 7 7 7 7 7 7 7 7 7 12 12 12 12 10 3 3 3 3 5 5 5 5 5 5 5 5 5 5 5 5 5 5 5 5 5 5 5 12 12 12 7 7 7 7 3 3 3 3 7 13 7 12 7 7 12 5 7 7 7 13 10 12 12 7 7 7 12 12 7 5 5 5 12 12 12 12 12 5 12 12 12 5 12 5 5 5 12 10 12 12 5 5 12 12 12 10 12 10 3 5 5 12 7 12 7 7 -9999 -9999 -9999 -9999 -9999 -9999 -9999 -9999 
-9999 3 3 3 3 7 7 7 7 3 3 3 3 3 3 3 3 3 3 3 3 3 3 3 7 12 10 5 5 5 5 5 10 5 12 12 12 12 5 12 7 7 7 7 7 7 7 7 7 7 7 7 5 5 12 5 5 5 12 5 12 12 7 12 7 12 12 5 5 12 12 12 12 12 12 10 10 5 12 5 5 10 10 12 5 5 5 5 3 3 5 5 5 5 5 7 7 7 7 7 7 7 7 7 7 7 7 12 12 12 12 12 12 12 5 10 10 5 5 5 5 5 5 5 5 5 12 5 5 5 5 5 5 5 5 5 12 12 12 12 7 7 7 7 7 7 7 7 3 13 13 12 12 12 12 12 7 7 7 10 7 5 12 7 7 7 7 12 12 5 5 5 5 12 12 12 12 5 5 12 12 12 12 10 5 12 12 5 12 5 12 5 12 12 12 5 12 10 10 12 12 12 7 7 7 7 -9999 -9999 -9999 -9999 -9999 -9999 -9999 -9999 
-9999 3 3 3 3 3 7 13 3 3 3 3 3 3 3 3 3 3 3 3 3 3 3 3 7 10 7 7 5 12 12 5 12 5 5 12 12 12 12 5 12 12 7 7 7 7 7 7 7 7 7 7 5 5 5 5 5 5 12 5 5 12 12 7 12 12 12 12 12 12 12 12 12 12 12 12 5 12 5 12 12 12 7 10 10 10 5 5 10 5 5 5 5 5 5 12 7 7 7 7 7 7 7 7 7 7 7 7 7 7 7 12 12 7 5 5 7 12 7 12 7 7 7 7 7 7 7 10 5 5 5 5 5 5 5 5 5 5 12 12 12 7 7 7 7 7 7 7 7 13 7 7 5 5 12 12 7 7 7 7 7 13 7 12 7 7 7 12 12 5 5 3 5 12 10 5 12 12 5 12 12 5 5 12 12 12 12 5 12 12 12 12 7 12 7 12 12 10 10 3 12 12 7 12 12 7 -9999 -9999 -9999 -9999 -9999 -9999 -9999 -9999 
-9999 3 3 3 3 3 3 3 3 7 3 3 3 3 3 3 3 3 3 3 3 3 3 3 13 7 7 7 12 12 12 5 5 12 12 12 5 5 5 5 12 12 7 7 7 7 7 7 7 12 12 5 12 7 12 10 5 5 5 12 5 12 7 7 7 7 12 7 5 10 12 12 7 12 7 12 5 5 5 12 12 7 12 12 10 5 5 5 3 5 5 5 5 5 3 3 5 12 7 7 7 7 7 7 7 7 7 7 7 12 12 12 7 12 10 12 12 7 7 7 7 7 7 7 7 7 7 3 10 5 5 5 5 5 5 5 12 12 12 12 12 7 12 12 7 7 7 7 7 13 7 7 12 5 12 7 7 7 7 7 13 13 10 12 7 7 7 12 12 5 5 5 5 5 5 12 12 12 12 5 5 5 5 5 12 12 12 12 7 7 7 7 7 13 7 12 10 10 12 5 5 12 7 7 7 7 -9999 -9999 -9999 -9999 -9999 -9999 -9999 -9999 
-9999 3 3 3 3 3 3 3 3 3 3 3 3 3 3 3 3 3 3 3 3 3 3 3 7 7 7 7 5 5 5 5 5 12 12 12 12 5 12 12 5 5 7 7 7 7 7 5 5 5 5 3 7 7 7 3 5 5 12 12 12 12 12 12 7 7 7 7 12 12 12 12 12 12 12 12 5 5 12 12 12 12 12 5 10 5 5 5 3 3 5 5 5 5 3 10 5 7 7 7 7 12 7 7 7 7 7 7 7 7 7 7 12 12 5 12 12 7 7 7 7 7 7 7 7 7 7 13 5 12 5 5 5 5 5 5 12 12 7 12 12 12 7 12 12 7 7 7 7 7 13 7 7 12 12 7 12 7 7 7 13 13 12 12 7 7 12 12 12 5 5 5 5 12 12 12 12 12 12 5 5 5 5 5 12 7 7 12 12 7 12 7 13 13 13 12 5 5 12 5 12 12 12 7 7 7 -9999 -9999 -9999 -9999 -9999 -9999 -9999 -9999 
-9999 3 3 3 3 3 3 3 3 3 3 3 3 3 3 3 3 3 3 3 3 3 7 5 5 12 12 12 5 5 5 5 12 12 12 12 7 5 5 5 7 7 3 7 7 7 7 7 5 5 12 12 7 7 5 5 3 12 12 12 12 7 12 12 12 12 12 12 12 12 7 12 12 12 10 5 5 5 12 12 7 12 12 12 10 5 5 5 5 10 5 5 5 5 5 3 5 12 7 7 7 7 7 7 7 7 7 7 7 7 12 12 7 5 5 5 7 7 7 7 7 7 7 7 13 3 3 3 7 7 10 5 5 5 5 12 12 7 12 12 7 12 12 12 7 7 12 7 13 7 7 7 12 5 12 7 7 12 12 7 13 7 12 5 12 7 12 12 5 5 5 5 12 12 12 12 12 12 12 12 10 12 5 12 7 7 7 7 13 13 13 7 7 7 7 12 10 12 12 5 5 12 12 12 12 7 -9999 -9999 -9999 -9999 -9999 -9999 -9999 -9999 
-9999 3 3 3 3 3 3 3 3 3 13 3 3 3 3 3 3 3 7 3 5 3 3 3 12 5 5 12 5 5 5 5 5 12 7 7 7 7 7 5 7 7 13 7 7 7 7 10 5 12 12 12 7 7 5 5 5 12 12 12 7 7 12 12 12 7 5 12 7 12 7 7 12 12 10 5 7 7 12 7 7 12 12 7 10 5 10 5 5 5 5 5 5 5 5 5 12 12 12 12 7 7 7 7 7 7 7 7 7 7 7 7 5 5 5 12 7 7 7 7 7 3 7 7 3 3 3 3 3 7 10 5 5 5 5 5 12 7 12 7 12 7 12 12 7 7 7 7 13 12 12 7 5 12 12 12 7 12 12 7 12 12 10 5 5 5 12 12 5 5 5 12 12 12 12 12 12 12 12 12 12 12 12 12 12 12 7 7 13 13 7 7 7 13 12 12 12 12 12 12 5 10 5 12 12 12 -9999 -9999 -9999 -9999 -9999 -9999 -9999 -9999 
-9999 3 3 3 3 3 3 3 3 3 3 3 3 3 3 3 3 3 7 7 3 3 3 3 7 5 5 5 5 5 12 5 5 12 12 7 7 7 7 7 7 7 13 13 7 7 5 5 12 7 7 7 7 7 5 5 5 12 7 12 12 7 7 7 12 12 7 5 12 7 7 7 7 5 5 12 7 7 7 12 12 7 12 10 10 5 10 5 5 5 3 5 5 5 5 5 3 5 12 12 7 7 7 12 7 7 7 7 7 7 7 12 3 10 12 7 7 7 7 7 7 3 13 3 3 3 3 3 3 7 7 12 5 5 5 5 12 7 7 7 7 7 10 5 12 7 7 7 7 7 7 12 12 5 12 12 7 12 12 12 12 12 5 5 5 5 5 12 12 5 3 5 7 12 12 12 12 12 12 12 12 12 12 12 12 12 7 7 7 13 13 7 7 13 7 12 12 12 7 12 3 5 5 5 7 12 -9999 -9999 -9999 -9999 -9999 -9999 -9999 -9999 
-9999 3 3 13 3 3 3 3 3 3 3 3 3 3 3 3 3 3 7 7 7 7 7 3 3 7 7 7 12 5 5 5 5 12 12 7 7 7 7 13 13 7 13 3 3 7 7 7 7 12 7 7 7 7 5 5 5 5 7 12 12 7 12 12 12 7 7 7 7 7 7 7 12 7 7 7 7 7 7 12 7 12 5 5 5 7 10 10 5 5 5 12 10 5 5 10 3 12 12 7 7 7 7 7 7 7 7 7 7 12 12 7 12 10 5 7 7 7 7 7 7 7 7 7 3 3 3 13 7 13 7 5 5 5 5 5 12 7 7 12 12 12 5 5 12 7 7 7 7 7 12 12 12 12 12 12 12 12 12 12 12 12 5 5 5 5 5 5 5 5 5 3 12 12 12 12 12 12 12 12 12 12 10 12 12 12 7 7 7 13 13 13 7 7 7 10 12 7 7 12 13 13 5 10 5 12 -9999 -9999 -9999 -9999 -9999 -9999 -9999 -9999 
-9999 7 7 3 3 3 3 3 3 3 3 3 3 3 3 3 3 3 7 12 7 7 7 7 7 7 7 12 5 5 5 5 5 5 7 12 7 7 7 7 7 3 3 13 7 7 7 7 7 7 7 7 7 5 5 5 5 5 12 12 12 12 12 7 7 12 7 7 7 7 7 7 5 5 12 7 7 7 7 12 10 5 5 5 12 12 12 12 12 5 12 5 5 5 10 5 5 12 7 7 7 7 7 7 7 7 7 7 7 12 12 12 7 12 10 7 7 7 7 7 7 13 7 13 7 3 3 7 3 7 10 5 5 5 5 5 12 12 12 12 5 5 5 5 12 12 7 7 12 12 12 12 12 5 12 12 12 12 5 5 5 5 5 5 5 5 5 5 5 5 5 5 12 12 12 12 12 12 12 12 12 12 12 12 12 12 7 7 7 7 13 7 13 13 12 12 12 12 12 7 10 12 5 5 5 5 -9999 -9999 -9999 -9999 -9999 -9999 -9999 -9999 
-9999 7 7 7 3 3 3 3 3 3 3 3 3 3 3 3 3 3 7 5 12 7 7 7 7 7 12 12 10 5 5 12 12 5 12 12 12 12 7 7 7 7 3 3 3 7 7 7 7 7 7 7 7 12 10 5 5 5 12 12 12 5 12 7 5 12 12 7 7 7 7 7 12 5 7 7 7 7 12 12 12 10 5 5 12 7 12 12 12 12 12 5 5 5 3 3 5 12 7 7 7 7 7 7 7 7 12 7 12 7 7 7 7 12 7 3 12 7 7 7 7 7 13 3 13 3 3 12 7 7 12 5 5 5 5 5 5 12 5 5 5 5 5 5 12 12 12 12 7 12 5 5 5 5 12 12 5 5 5 5 5 5 5 5 5 12 12 5 5 5 12 5 5 12 12 12 12 12 12 12 12 12 12 7 10 12 7 7 7 7 13 13 13 12 7 12 7 12 12 12 5 12 12 5 5 5 -9999 -9999 -9999 -9999 -9999 -9999 -9999 -9999 
-9999 12 12 7 7 7 7 3 3 3 3 3 3 3 3 7 3 3 7 12 12 7 12 12 12 12 12 12 5 12 5 12 12 12 5 5 12 12 12 7 7 7 13 3 3 7 7 7 7 7 7 7 7 7 7 5 5 3 12 12 12 12 12 7 12 5 12 12 7 7 7 7 7 12 7 7 7 7 7 7 10 13 5 12 12 12 12 7 10 12 12 5 3 5 3 3 5 5 12 7 12 12 12 12 12 12 7 12 7 7 7 7 7 7 7 12 12 7 7 7 7 7 7 7 13 13 13 12 12 5 5 3 10 3 5 5 5 5 5 5 5 5 5 5 5 5 5 5 5 5 5 5 5 12 12 12 5 5 5 5 5 5 5 5 12 12 12 12 12 5 12 12 10 5 5 12 12 5 12 12 12 12 7 7 12 12 12 7 7 7 13 13 13 10 7 7 12 12 12 5 12 12 12 12 10 10 -9999 -9999 -9999 -9999 -9999 -9999 -9999 -9999 
-9999 12 12 12 7 12 12 3 3 3 3 3 3 3 3 3 7 3 7 5 12 12 5 5 5 7 5 5 5 5 5 5 12 12 5 5 12 12 7 7 3 7 3 7 7 7 3 13 13 7 7 7 7 7 7 12 5 3 12 12 12 7 12 12 12 5 5 7 7 7 7 7 7 7 7 7 7 7 7 7 10 3 12 12 12 7 12 12 12 7 12 10 3 5 3 3 3 5 5 5 12 7 12 5 5 5 7 12 7 7 7 7 7 7 7 7 12 7 7 7 7 7 7 13 7 7 7 7 5 12 12 12 12 3 5 5 5 5 5 5 5 5 5 5 5 5 5 5 5 5 5 5 5 12 12 5 5 5 5 5 5 5 5 5 7 12 12 12 12 12 12 12 12 12 12 12 12 12 12 12 12 7 13 7 12 12 12 7 7 13 13 13 7 7 7 7 7 7 12 12 12 12 12 12 12 10 -9999 -9999 -9999 -9999 -9999 -9999 -9999 -9999 
-9999 12 12 5 12 12 12 7 7 3 3 3 3 3 3 7 7 3 3 12 5 5 5 5 5 12 5 5 12 5 5 12 12 12 12 5 12 12 7 7 7 13 3 3 7 3 3 13 13 7 7 13 7 7 7 5 5 3 7 12 12 12 12 12 5 5 5 7 7 7 7 7 7 7 7 7 7 7 7 5 12 12 12 12 12 7 7 7 7 7 7 12 10 5 5 3 3 12 5 12 7 7 7 7 12 5 7 7 12 7 7 7 7 7 7 7 7 7 13 13 7 3 3 3 7 12 12 5 12 12 7 13 7 5 5 5 5 5 5 5 5 5 5 5 5 5 5 5 5 5 5 5 5 5 5 5 5 5 12 5 5 12 12 7 7 12 7 12 12 12 12 7 12 12 12 12 12 12 12 12 12 12 7 7 7 12 12 7 7 7 13 13 13 13 13 7 12 12 7 12 12 12 12 12 10 10 -9999 -9999 -9999 -9999 -9999 -9999 -9999 -9999 
-9999 7 7 7 7 10 12 7 7 3 3 3 3 3 7 5 12 12 12 12 12 12 12 12 5 5 5 3 5 5 12 12 5 5 12 12 5 5 12 7 7 3 3 3 3 3 13 3 7 7 7 7 7 7 12 5 5 5 5 5 12 5 5 5 5 12 12 7 7 7 7 7 7 7 7 7 7 7 7 5 12 12 7 12 12 12 12 7 12 12 7 7 5 10 5 5 5 12 12 7 7 7 7 7 7 7 5 12 7 7 7 7 7 7 7 7 7 7 3 7 7 3 3 7 12 7 7 7 7 7 13 13 7 10 5 5 10 5 5 5 5 5 5 5 5 5 5 5 5 5 5 5 5 5 5 5 5 5 5 12 12 12 12 7 7 7 12 12 12 12 12 12 12 12 12 12 12 7 12 12 12 7 7 13 13 13 12 7 7 13 13 13 7 13 13 13 12 12 12 12 12 12 12 12 12 12 -9999 -9999 -9999 -9999 -9999 -9999 -9999 -9999 
-9999 7 7 7 7 7 5 7 7 3 3 3 3 7 7 5 12 12 5 12 12 12 10 12 12 5 5 5 12 12 12 12 12 5 5 12 5 5 12 7 7 7 3 3 3 3 13 13 7 13 7 7 7 10 10 3 12 12 5 5 5 5 12 5 12 12 7 7 7 10 7 3 7 7 7 7 7 7 5 12 12 12 12 12 7 12 7 7 7 7 7 7 10 10 5 5 5 5 7 7 7 7 7 7 7 7 7 7 12 7 7 7 7 7 7 7 7 7 7 7 7 13 13 13 12 7 7 13 7 3 7 13 13 5 5 5 5 5 5 5 5 5 10 5 5 5 5 5 5 5 5 5 5 5 5 5 5 5 12 12 7 12 12 12 12 7 12 12 12 12 12 12 12 12 7 12 12 12 12 12 12 7 7 7 13 13 13 7 13 13 13 13 13 13 13 13 7 12 7 12 7 7 7 12 12 12 -9999 -9999 -9999 -9999 -9999 -9999 -9999 -9999 
-9999 7 7 7 7 7 3 7 3 3 3 3 3 7 7 10 10 12 12 12 5 12 12 5 5 5 5 5 12 12 7 7 12 10 5 12 12 12 7 12 7 7 7 3 3 3 3 7 7 7 7 7 12 5 5 3 12 12 12 5 10 5 12 12 7 7 7 7 7 7 7 13 13 13 7 7 7 5 5 12 7 7 12 12 7 12 7 7 7 7 12 7 10 10 5 5 5 12 7 7 7 7 7 7 7 7 7 7 7 7 7 7 7 7 7 7 7 7 7 12 7 7 7 7 12 7 13 13 3 3 3 13 7 10 10 5 5 5 12 5 5 5 10 5 5 5 5 5 5 5 12 5 5 12 5 12 5 5 12 12 12 12 12 7 12 12 12 12 5 12 12 12 12 12 12 12 12 12 5 12 12 7 7 7 3 3 13 13 7 13 13 13 13 13 13 13 7 12 12 7 7 7 7 12 12 7 -9999 -9999 -9999 -9999 -9999 -9999 -9999 -9999 
-9999 7 7 7 3 3 3 3 3 3 3 3 3 7 3 3 5 12 7 7 7 10 5 5 5 5 5 3 12 12 12 7 7 7 5 12 12 7 7 3 7 13 3 13 7 13 7 7 7 7 7 12 5 5 3 3 12 7 12 12 12 12 12 12 12 7 7 7 7 7 7 7 13 7 7 7 7 5 12 12 12 12 7 7 7 7 7 7 7 7 5 7 12 10 5 5 5 12 7 7 7 7 7 7 7 7 7 12 12 7 7 7 12 7 7 7 7 7 7 7 7 12 12 7 7 7 3 13 13 13 13 7 13 5 5 5 12 12 7 5 5 5 5 5 5 5 5 5 5 5 5 5 5 5 5 12 5 12 12 12 12 12 12 10 12 12 12 5 7 12 12 12 12 12 12 12 12 12 12 12 12 7 7 7 7 7 13 7 3 13 3 3 13 13 13 13 7 12 7 7 7 13 13 12 7 7 -9999 -9999 -9999 -9999 -9999 -9999 -9999 -9999 
-9999 7 7 13 7 3 3 3 3 3 3 3 3 3 7 3 5 7 3 7 5 12 5 5 5 5 5 10 12 5 12 7 7 7 10 5 12 7 3 3 3 3 3 7 7 13 3 3 7 12 5 5 5 5 12 5 5 12 12 7 7 7 12 7 12 7 7 7 12 7 7 7 7 7 7 7 5 5 7 7 7 7 7 7 7 7 7 7 7 7 7 7 10 3 3 3 5 5 7 7 7 12 7 7 7 7 7 12 12 12 12 12 12 12 7 7 7 7 7 10 10 5 12 7 7 7 7 13 13 13 7 7 10 10 5 12 7 7 7 12 5 5 5 5 12 10 5 5 12 5 12 5 5 5 5 5 5 5 12 12 12 12 12 12 12 12 5 12 12 12 12 12 12 12 12 12 12 12 7 12 12 7 7 7 7 7 13 7 7 3 7 3 13 13 13 13 12 12 7 7 7 13 7 7 7 13 -9999 -9999 -9999 -9999 -9999 -9999 -9999 -9999 
-9999 7 7 7 3 3 3 3 3 3 3 3 3 3 3 7 12 7 7 3 7 12 5 12 12 12 12 5 12 12 5 7 7 7 10 5 12 7 3 3 3 3 3 3 7 7 13 13 7 5 5 5 5 5 12 5 12 12 12 12 7 7 12 7 7 7 7 7 12 7 7 7 7 7 7 10 5 7 7 7 7 7 7 7 7 7 7 7 7 7 12 7 5 3 3 5 5 5 12 7 12 7 12 12 12 12 12 12 12 12 12 12 12 7 7 7 12 7 7 7 3 12 12 7 7 7 7 13 13 13 7 13 7 5 5 5 12 7 12 5 5 5 12 10 12 12 12 5 5 5 5 5 5 12 5 12 12 7 12 12 12 12 12 12 12 5 5 5 5 12 5 12 12 5 12 5 12 12 7 7 7 7 12 7 7 7 3 7 3 13 13 7 13 13 13 13 7 7 7 7 13 13 13 7 7 7 -9999 -9999 -9999 -9999 -9999 -9999 -9999 -9999 
-9999 7 7 7 3 3 3 3 3 3 3 3 3 3 3 3 7 7 7 7 7 12 5 5 5 12 5 12 7 12 12 12 7 12 7 10 10 7 7 7 3 7 7 7 7 7 7 7 13 7 7 5 5 12 5 5 12 12 12 12 12 12 12 12 7 7 7 7 5 7 7 7 7 7 5 5 7 7 7 7 7 7 7 7 7 7 7 7 7 7 7 7 10 3 5 5 5 5 5 5 5 5 5 12 12 5 12 12 12 12 12 12 12 12 7 12 7 12 12 7 12 12 7 7 7 7 13 13 13 13 7 7 10 5 3 12 7 7 7 5 5 12 12 12 12 12 5 5 5 5 12 12 5 5 12 12 12 5 7 7 12 5 12 12 12 12 12 5 5 12 12 12 12 12 12 12 7 12 7 7 13 13 13 7 7 7 7 7 7 7 7 7 7 13 13 13 12 7 7 13 13 13 7 7 7 7 -9999 -9999 -9999 -9999 -9999 -9999 -9999 -9999 
-9999 7 7 7 7 3 3 13 3 3 3 3 3 3 3 7 7 3 3 7 3 5 5 5 5 12 5 12 5 12 12 12 12 12 7 7 5 7 7 13 3 7 7 7 7 7 7 7 7 12 12 5 5 5 12 5 5 12 12 7 12 12 12 12 7 7 7 12 12 12 7 12 12 5 10 7 7 7 7 7 7 7 7 7 7 7 7 7 7 7 7 10 5 5 10 3 5 5 5 5 12 12 12 7 12 12 12 12 5 7 5 12 12 12 12 12 12 7 7 7 7 7 7 7 7 7 13 13 13 13 7 7 7 5 5 12 7 7 10 5 5 12 12 12 12 12 5 5 5 5 12 12 5 5 5 12 12 5 12 5 12 5 5 12 5 12 12 10 12 5 12 12 12 12 12 12 7 7 12 12 7 13 7 12 7 7 12 7 7 7 7 7 13 13 13 13 7 7 12 13 13 13 7 13 7 7 -9999 -9999 -9999 -9999 -9999 -9999 -9999 -9999 
-9999 12 7 7 7 7 7 3 3 3 3 3 3 3 3 3 7 3 3 3 5 5 5 5 12 12 10 5 5 12 5 12 7 7 7 3 3 7 7 3 7 7 7 12 12 12 12 7 12 5 5 5 5 12 12 12 5 5 12 12 12 12 5 12 12 12 5 12 12 12 7 10 5 7 7 7 7 7 7 7 7 7 7 7 7 7 7 7 7 12 7 5 5 5 10 5 5 12 12 12 12 12 12 12 12 12 7 12 12 7 5 5 12 7 5 7 12 12 12 7 7 7 7 7 7 7 13 13 13 7 12 7 7 12 5 7 7 12 12 5 12 5 12 12 12 10 12 5 5 5 5 5 5 2 5 5 5 5 5 10 5 12 5 5 12 12 7 12 12 12 12 12 12 12 12 12 7 7 7 12 12 7 7 7 7 12 7 7 7 7 7 7 7 13 13 13 13 13 13 13 13 13 13 13 7 7 -9999 -9999 -9999 -9999 -9999 -9999 -9999 -9999 
-9999 5 12 12 7 7 7 7 7 3 3 3 3 3 3 3 3 3 3 3 3 5 12 7 7 10 5 5 12 12 12 12 7 7 7 3 7 3 3 3 3 3 7 7 7 12 12 5 12 5 5 5 12 7 7 7 10 5 12 7 7 5 5 12 12 12 12 12 7 7 7 7 5 7 7 7 7 7 7 13 7 7 7 7 7 7 7 7 12 12 5 5 10 10 10 5 12 12 12 12 12 12 12 7 12 7 7 7 7 12 12 12 5 5 5 5 7 12 7 7 7 7 7 7 7 13 13 13 3 3 7 7 7 12 12 7 7 7 5 12 12 12 5 12 12 12 5 5 5 5 5 5 5 5 5 5 5 5 10 5 12 12 12 5 12 12 12 12 12 12 5 12 12 7 7 12 12 12 12 10 7 12 12 12 7 7 7 12 7 7 7 7 7 13 13 13 13 13 13 13 13 13 13 7 13 7 -9999 -9999 -9999 -9999 -9999 -9999 -9999 -9999 
-9999 5 7 3 7 3 3 3 3 3 3 3 3 3 3 3 3 3 3 3 5 5 7 7 12 12 5 12 12 12 12 12 7 7 3 3 3 3 3 3 3 3 3 3 7 7 12 12 5 5 5 5 7 7 12 7 10 10 12 5 5 12 12 5 12 5 12 7 7 13 7 7 7 7 7 7 7 13 13 7 7 7 7 7 7 7 7 7 5 5 12 12 12 10 10 5 5 12 7 12 12 12 7 12 12 7 5 7 7 7 12 12 12 12 5 5 5 12 12 7 7 7 7 7 7 7 13 3 13 7 7 3 13 12 12 7 13 3 5 12 12 12 5 12 12 5 5 5 5 5 5 5 5 5 5 5 12 12 12 12 7 12 12 5 5 12 12 12 7 12 12 12 12 12 12 12 12 12 12 12 12 13 12 12 12 12 12 12 7 7 3 7 13 13 13 7 13 13 13 13 13 13 13 13 13 13 -9999 -9999 -9999 -9999 -9999 -9999 -9999 -9999 
-9999 7 3 3 3 3 3 3 3 3 3 3 3 3 3 3 3 3 3 3 3 7 7 3 7 3 5 12 12 12 12 12 12 7 3 3 3 3 3 3 3 3 3 7 7 7 5 12 12 5 12 5 12 12 12 7 7 10 12 12 5 12 12 12 12 12 7 7 7 7 7 7 7 7 7 13 7 7 7 7 13 7 7 7 7 7 5 5 5 12 12 12 7 12 10 5 5 12 12 7 12 10 7 12 12 12 3 7 7 12 12 7 12 12 12 5 12 12 7 7 7 7 7 7 7 7 13 7 13 7 7 3 7 7 7 7 7 12 12 12 12 12 5 12 10 12 5 12 5 5 5 5 5 5 5 12 12 12 12 12 5 12 12 12 12 12 7 12 12 12 12 12 12 12 12 12 12 12 12 12 12 12 7 12 12 12 7 7 7 7 13 7 7 3 13 7 7 13 13 13 13 13 13 13 13 13 -9999 -9999 -9999 -9999 -9999 -9999 -9999 -9999 
-9999 7 3 3 3 3 3 3 3 3 3 3 3 3 3 3 3 3 3 3 3 7 3 7 7 5 5 12 12 12 7 5 12 7 7 7 3 3 3 3 3 3 3 3 12 12 5 5 5 12 7 5 12 12 7 12 10 5 12 12 5 12 12 12 12 7 7 7 13 13 7 7 7 13 13 7 13 13 7 7 7 7 7 7 5 5 5 12 7 12 12 12 12 12 5 5 5 12 12 12 12 12 7 7 7 12 7 7 7 7 7 7 7 7 7 7 12 7 7 7 7 7 7 7 7 13 13 3 7 7 13 3 7 13 7 7 12 12 12 12 12 5 7 10 12 12 12 7 12 5 5 5 5 5 5 12 12 12 12 12 12 5 7 7 12 7 12 12 12 12 12 5 12 5 12 12 12 12 12 12 12 12 12 12 12 7 12 7 7 7 7 7 7 13 13 7 13 7 7 7 13 13 13 13 13 13 -9999 -9999 -9999 -9999 -9999 -9999 -9999 -9999 
-9999 3 3 13 3 3 3 3 3 3 3 3 3 13 3 3 3 13 3 3 3 3 13 3 3 7 5 12 12 7 7 5 12 7 7 7 7 3 3 3 3 3 3 12 7 5 12 12 12 7 7 5 12 7 7 7 12 12 12 12 12 12 12 12 7 7 7 7 13 13 7 7 7 13 13 7 13 13 7 13 7 7 7 7 7 7 12 7 7 12 7 12 12 12 5 5 5 5 7 12 12 12 12 12 12 12 12 12 12 7 7 12 7 7 7 7 7 7 7 7 7 7 7 7 7 7 7 13 7 13 13 3 7 13 7 7 12 12 12 12 12 12 12 12 7 7 7 7 12 12 5 5 5 5 5 12 5 7 12 12 12 12 12 7 7 7 7 7 12 12 5 12 12 12 5 12 10 12 12 12 12 12 12 12 12 12 7 12 7 7 12 13 7 13 13 7 13 7 7 7 13 13 13 13 13 13 -9999 -9999 -9999 -9999 -9999 -9999 -9999 -9999 
-9999 10 3 3 13 13 3 13 3 3 3 3 3 3 3 3 13 3 3 3 3 3 3 3 3 7 7 5 7 7 7 7 7 7 12 7 7 7 3 3 3 3 3 7 12 5 12 12 12 12 12 12 12 12 12 7 7 7 7 12 5 12 5 7 7 13 3 13 13 13 7 7 7 13 13 13 7 13 7 13 13 7 7 7 7 7 7 7 7 12 7 12 7 12 5 5 5 5 7 12 12 12 12 7 12 12 5 7 12 12 7 7 7 7 7 12 7 7 7 7 7 7 7 7 7 7 7 13 13 13 13 3 7 3 7 7 12 12 7 5 12 12 12 7 7 12 7 7 12 12 5 5 5 5 5 12 12 7 12 7 7 7 7 7 7 13 13 7 7 7 12 12 12 5 5 5 5 12 12 12 5 12 12 12 12 12 12 7 12 7 7 13 7 7 7 7 7 7 7 7 13 13 13 13 13 13 -9999 -9999 -9999 -9999 -9999 -9999 -9999 -9999 
-9999 -9999 3 3 3 13 3 3 3 3 3 3 3 3 3 3 7 3 3 3 3 3 3 3 7 7 12 5 12 7 7 7 3 3 7 7 7 3 3 3 3 3 13 3 3 5 12 7 7 12 12 7 12 12 7 3 13 7 12 7 12 12 12 7 7 13 13 13 13 7 7 13 13 13 13 7 7 7 7 13 13 13 7 7 7 7 7 7 7 7 7 7 12 7 5 5 12 5 12 7 12 12 12 12 12 12 7 12 12 12 7 12 7 7 7 7 7 7 7 7 7 13 7 7 7 7 7 7 13 7 13 3 7 7 7 7 12 12 7 12 12 7 12 12 12 12 12 12 12 5 5 5 5 5 5 12 5 12 12 7 7 7 7 7 7 7 7 7 7 12 12 12 12 12 12 12 12 12 12 12 12 12 12 12 12 12 7 7 12 7 13 12 12 7 7 7 7 7 7 13 13 13 13 13 13 13 -9999 -9999 -9999 -9999 -9999 -9999 -9999 -9999 
-9999 -9999 3 13 13 13 3 3 3 3 3 3 3 3 3 3 3 13 7 3 3 3 13 3 3 7 5 5 12 12 12 7 7 3 7 7 7 7 3 3 3 3 13 3 3 7 12 7 7 7 7 7 12 7 7 7 7 7 7 7 12 7 7 7 7 7 13 13 7 13 13 7 7 7 7 7 7 7 7 13 13 7 7 13 7 7 7 7 7 7 12 7 7 12 5 12 12 12 7 7 7 7 12 7 7 12 12 7 12 7 7 7 12 12 12 12 7 7 12 7 7 7 7 13 7 7 7 13 7 3 13 3 7 7 7 7 12 7 5 12 12 12 12 7 7 7 12 12 12 5 5 5 5 5 12 5 5 5 12 12 12 7 7 7 3 7 7 7 7 12 12 12 12 12 12 12 12 12 12 12 12 7 12 12 12 7 7 12 12 7 12 12 12 12 12 7 12 12 7 13 13 7 7 13 13 13 -9999 -9999 -9999 -9999 -9999 -9999 -9999 -9999 
-9999 -9999 3 13 3 13 13 3 3 3 3 3 3 3 3 3 3 3 7 7 3 3 13 3 3 7 7 10 7 7 12 12 7 3 7 3 7 3 3 13 3 3 3 3 3 3 13 3 3 7 7 7 12 7 7 7 7 7 7 7 5 12 7 7 13 13 13 7 13 13 13 13 13 7 7 7 7 7 7 7 7 13 7 7 7 7 7 7 7 7 7 7 7 7 5 12 12 5 12 12 12 12 12 12 7 7 12 7 7 7 7 7 7 12 12 12 7 12 7 7 7 7 7 7 7 7 7 13 7 7 3 7 7 7 7 7 7 12 10 12 7 7 7 12 12 12 12 12 5 5 5 5 5 5 5 12 12 12 12 12 12 7 7 7 7 7 13 7 13 12 7 12 10 12 12 12 12 12 12 12 12 12 12 12 12 12 12 12 7 12 12 12 12 7 12 12 12 12 7 7 7 13 7 13 13 13 -9999 -9999 -9999 -9999 -9999 -9999 -9999 -9999 
-9999 -9999 3 13 13 13 3 13 3 13 3 3 3 13 3 7 13 3 7 7 3 3 3 3 3 7 7 7 7 7 7 7 7 7 3 3 3 3 3 3 3 13 13 13 13 3 13 3 3 7 7 7 7 12 7 7 7 13 3 7 7 7 12 7 7 7 7 7 7 13 7 7 13 13 13 5 7 7 7 7 7 7 7 7 7 7 7 7 7 12 7 7 12 10 12 5 7 5 12 12 7 7 7 12 12 12 12 7 7 7 12 12 7 7 7 7 7 7 7 7 7 7 7 7 7 7 7 7 13 13 13 7 7 7 12 7 7 7 12 7 7 7 7 7 12 12 5 5 5 5 5 5 5 12 5 5 5 12 12 12 12 12 7 7 7 7 7 7 7 7 7 7 12 5 12 12 12 7 12 12 12 12 7 12 12 12 12 7 12 12 12 12 7 12 12 13 7 13 7 7 13 7 13 13 13 13 -9999 -9999 -9999 -9999 -9999 -9999 -9999 -9999 
-9999 -9999 3 3 3 3 13 13 3 13 3 3 3 13 3 3 3 3 7 7 7 3 3 13 3 7 5 7 7 7 7 7 7 7 3 3 3 3 3 3 13 13 3 7 13 13 13 13 13 7 7 12 7 12 7 7 7 7 7 13 7 7 7 7 7 7 7 13 13 7 7 7 7 7 7 7 7 12 12 7 7 7 7 7 7 7 7 7 7 12 12 12 10 5 5 5 12 12 7 12 7 7 7 7 7 7 7 7 7 12 12 7 7 7 7 7 7 7 7 7 7 7 7 7 7 7 7 7 13 7 3 3 3 7 7 7 7 7 7 7 7 7 7 12 12 12 5 5 5 12 5 5 12 12 12 5 12 12 12 7 12 7 12 7 7 7 12 7 7 7 7 12 10 5 7 12 7 7 10 12 12 12 12 12 12 12 12 12 12 12 7 12 12 7 13 13 7 13 13 7 7 7 13 13 13 13 -9999 -9999 -9999 -9999 -9999 -9999 -9999 -9999 
-9999 -9999 3 3 3 3 3 3 13 3 3 3 3 3 3 3 13 3 7 7 3 3 13 13 3 7 7 7 7 7 7 7 3 3 3 3 3 3 3 3 7 13 3 13 3 3 3 3 3 3 3 12 7 12 7 7 7 7 7 7 13 7 7 7 7 7 7 7 7 7 7 7 7 13 7 7 7 7 5 12 7 12 7 7 12 5 12 12 12 12 12 12 10 5 5 12 5 7 7 7 7 7 7 7 7 7 7 7 7 7 7 7 7 7 7 7 12 12 7 7 7 7 7 7 7 7 7 7 7 3 3 3 13 7 7 7 7 7 7 7 7 7 7 7 12 12 5 5 12 12 12 5 12 12 5 5 5 12 12 12 12 12 7 7 7 7 7 7 7 7 7 12 12 5 7 12 12 7 12 7 12 12 7 12 12 12 12 12 12 7 7 12 7 7 7 7 7 13 13 7 13 3 13 13 13 13 -9999 -9999 -9999 -9999 -9999 -9999 -9999 -9999 
-9999 -9999 3 3 3 13 3 13 3 3 13 3 13 7 7 3 3 3 3 7 3 13 13 3 3 7 7 3 7 7 7 3 3 3 3 13 3 3 3 13 13 13 13 3 3 3 3 3 3 3 3 7 12 7 7 7 7 7 7 7 13 13 12 12 7 7 7 7 7 7 7 7 7 7 7 7 7 7 7 7 5 5 5 12 5 5 5 5 5 5 5 5 5 5 5 5 7 12 7 7 7 7 7 7 7 7 7 7 7 7 7 7 7 7 12 12 12 7 7 7 7 7 7 7 7 7 7 5 7 7 3 3 13 7 7 7 12 12 12 12 12 12 12 12 12 12 5 12 12 12 12 12 12 12 5 5 5 12 12 5 12 12 7 7 12 12 7 7 7 7 12 12 12 5 12 7 12 12 12 12 12 7 12 7 7 7 12 12 12 12 12 12 12 12 7 7 7 7 13 13 13 13 13 7 7 7 -9999 -9999 -9999 -9999 -9999 -9999 -9999 -9999 
-9999 -9999 3 3 13 13 13 3 3 13 3 13 3 13 3 13 7 7 3 7 7 7 3 3 3 7 3 3 7 7 7 7 3 13 3 13 3 13 13 13 13 13 7 7 7 3 3 3 3 3 7 7 5 7 7 7 3 3 3 7 13 3 7 12 7 7 7 7 7 7 7 7 7 7 7 7 7 7 7 7 7 7 7 7 5 5 5 5 5 5 5 5 5 5 5 3 5 7 12 7 7 7 7 7 7 7 7 7 7 7 7 7 7 7 7 12 7 7 7 7 7 7 7 7 7 7 7 7 7 7 3 3 3 13 7 7 12 5 12 12 12 12 12 12 5 12 12 12 12 12 12 12 7 12 5 12 5 12 12 12 12 12 12 12 12 12 7 7 7 13 7 12 12 12 12 7 7 7 12 5 12 12 12 7 7 7 7 12 12 12 12 7 12 12 7 13 7 7 7 7 13 3 13 7 7 7 -9999 -9999 -9999 -9999 -9999 -9999 -9999 -9999 
-9999 -9999 3 3 3 13 13 3 3 3 7 3 3 3 7 7 7 7 5 7 7 3 3 3 13 3 3 3 7 3 7 7 7 7 3 3 3 3 3 13 13 13 3 3 7 7 3 13 3 3 7 7 10 7 7 3 3 3 3 7 13 7 7 12 12 7 7 7 7 7 12 12 7 7 7 7 7 7 7 7 7 7 7 7 7 7 7 12 7 12 12 5 5 5 5 3 3 5 12 12 7 7 7 7 7 7 7 7 7 7 7 7 7 7 12 7 7 7 7 7 7 7 7 7 7 7 7 7 7 7 3 3 3 3 7 12 12 12 12 12 12 12 12 12 12 12 12 12 7 12 12 7 7 12 10 5 12 12 12 12 12 12 12 12 12 12 12 12 7 7 12 12 5 12 12 7 7 7 12 5 12 12 12 7 7 7 7 7 7 12 12 12 12 12 12 7 7 7 7 7 13 13 7 7 7 7 -9999 -9999 -9999 -9999 -9999 -9999 -9999 -9999 
-9999 -9999 3 3 3 3 13 3 3 3 7 7 3 3 7 13 7 7 12 7 7 7 7 3 3 13 3 3 3 3 7 3 3 3 3 3 3 13 3 3 7 7 7 5 7 3 3 3 3 13 3 7 7 7 7 3 3 3 3 7 7 7 12 5 7 7 7 7 7 7 7 12 12 5 12 7 7 7 7 7 7 7 13 7 7 7 7 12 7 7 12 12 12 5 5 5 3 3 2 12 5 5 12 12 7 7 7 7 7 7 7 7 7 7 7 7 7 7 7 7 7 7 7 7 7 12 12 7 7 3 3 3 3 3 7 12 7 12 12 12 12 7 7 7 12 12 12 12 12 12 12 12 12 12 12 12 5 12 12 12 12 12 12 12 7 12 7 12 7 7 12 12 12 7 12 12 12 7 7 12 12 12 12 7 7 7 13 13 12 12 7 12 12 12 12 12 7 7 7 13 13 7 7 7 7 7 -9999 -9999 -9999 -9999 -9999 -9999 -9999 -9999 
-9999 -9999 3 3 3 3 13 3 3 3 3 7 3 3 3 7 7 12 7 7 7 3 13 3 3 13 3 3 3 3 7 3 3 3 7 7 13 7 3 7 7 7 7 7 7 7 3 3 13 13 3 3 7 12 7 7 3 3 13 3 5 5 5 5 12 12 7 7 7 5 12 12 7 5 12 7 7 7 7 7 7 7 7 7 7 7 7 7 7 12 12 12 12 5 5 5 5 10 5 5 5 5 5 12 12 7 7 12 7 7 7 7 7 7 5 7 7 7 7 3 7 7 7 5 12 7 12 7 7 3 3 3 3 3 13 7 12 12 12 12 7 7 12 12 12 12 12 12 12 12 12 7 12 12 12 5 12 5 12 12 12 12 12 12 12 12 7 12 7 7 7 12 12 12 7 7 7 12 12 12 12 7 7 7 7 13 13 7 13 7 12 12 7 12 12 7 7 7 7 7 13 7 7 7 7 13 -9999 -9999 -9999 -9999 -9999 -9999 -9999 -9999 
-9999 -9999 3 3 13 13 13 7 3 13 3 7 7 7 7 7 5 12 7 7 7 7 7 3 3 7 3 13 13 3 7 13 13 13 7 7 3 3 3 7 7 7 7 7 7 3 3 3 13 13 3 3 7 7 7 3 3 3 13 13 7 5 5 5 5 12 12 12 12 5 12 12 12 5 12 7 7 7 12 12 7 7 7 7 7 7 7 7 7 12 12 12 5 5 5 12 12 7 12 10 10 5 5 5 5 5 3 12 7 7 7 7 7 7 7 7 7 7 7 7 7 7 12 7 7 7 7 7 7 7 3 3 3 3 13 13 7 12 12 7 12 7 7 7 12 12 12 12 12 12 12 12 10 12 12 12 12 12 12 10 12 12 5 5 12 12 12 12 7 7 12 12 12 12 12 12 7 7 12 12 12 12 7 7 7 13 13 13 7 7 12 12 7 12 12 12 12 12 7 7 12 12 7 7 7 13 -9999 -9999 -9999 -9999 -9999 -9999 -9999 -9999 
-9999 -9999 3 3 13 3 3 3 3 3 13 13 7 7 7 12 5 7 7 7 7 3 7 7 13 7 7 13 3 13 3 13 13 3 13 7 3 7 7 7 7 7 7 7 3 13 3 3 13 13 3 13 3 7 7 7 13 7 3 13 13 7 12 12 12 5 12 12 12 5 12 12 12 5 12 7 7 10 5 7 7 7 7 7 7 12 7 7 7 7 7 5 5 5 5 12 7 7 7 12 12 12 12 12 12 7 5 5 7 7 7 12 7 7 12 7 7 7 7 7 7 7 7 7 7 7 3 3 3 3 3 13 3 3 3 7 7 12 7 12 7 12 7 12 12 12 12 12 12 12 7 7 12 10 12 12 12 7 7 7 12 12 12 5 12 12 12 12 12 12 12 7 12 12 12 12 12 12 12 7 12 7 7 7 7 3 13 13 13 12 12 12 7 12 12 12 12 12 12 12 12 12 7 7 7 7 -9999 -9999 -9999 -9999 -9999 -9999 -9999 -9999 
-9999 -9999 3 3 3 3 3 13 13 3 13 7 13 7 5 5 7 7 7 7 7 3 13 7 7 3 13 13 13 3 3 13 13 3 13 7 7 7 7 7 7 7 7 3 3 13 3 13 13 13 13 3 3 3 7 7 7 13 13 13 13 7 5 12 10 10 5 5 5 5 12 5 5 5 12 12 7 5 12 7 7 7 7 7 7 7 7 7 7 12 7 5 5 5 7 12 12 7 7 7 7 12 7 7 7 12 5 5 5 12 7 12 12 7 7 7 12 7 7 12 12 7 7 7 7 7 3 3 13 3 3 13 3 3 13 13 7 13 7 7 7 12 12 12 12 12 7 12 12 12 7 13 7 7 12 12 12 7 7 12 12 12 12 12 7 12 12 12 12 12 7 12 7 12 7 12 12 12 12 12 12 12 7 7 7 7 3 13 13 12 12 12 12 12 12 12 12 12 12 12 12 12 7 7 7 7 -9999 -9999 -9999 -9999 -9999 -9999 -9999 -9999 
-9999 -9999 3 13 3 13 13 13 13 3 3 7 7 3 5 5 7 7 7 7 3 3 13 7 7 13 13 13 7 13 13 13 13 13 3 7 3 7 7 12 7 7 7 3 3 7 13 13 13 13 13 7 13 3 7 7 7 7 7 7 7 12 12 12 12 5 10 5 5 5 12 12 5 5 12 12 12 12 12 7 7 7 7 7 7 7 7 12 7 7 12 12 5 3 7 7 7 7 7 7 12 7 7 7 7 7 7 10 7 5 5 12 12 12 5 12 12 7 7 12 7 7 7 7 3 3 3 3 3 3 3 13 3 3 3 3 13 13 13 7 12 12 12 12 12 12 12 7 7 12 7 12 12 12 12 5 12 12 7 12 7 12 12 12 12 12 12 12 12 12 12 7 12 7 7 7 7 7 12 7 12 12 7 7 7 13 13 12 12 12 5 12 12 12 12 12 12 12 12 12 12 7 12 12 12 7 -9999 -9999 -9999 -9999 -9999 -9999 -9999 -9999 
-9999 -9999 3 3 3 3 3 3 3 3 3 7 7 5 5 12 7 7 7 3 13 7 3 7 7 7 3 3 3 13 13 13 13 13 3 3 3 7 7 7 7 7 7 7 7 7 3 13 13 13 13 13 7 7 7 7 7 7 7 7 12 12 12 7 7 12 5 5 5 12 12 5 12 5 5 5 5 12 12 12 7 7 12 7 7 7 12 5 12 5 5 3 3 5 7 12 7 7 7 7 7 7 7 7 7 7 7 7 7 12 5 7 7 7 7 7 7 7 7 7 7 7 7 3 3 3 3 3 7 3 13 3 3 3 3 13 3 13 13 12 10 12 12 12 12 10 12 7 12 7 13 7 12 12 12 12 12 12 12 7 7 12 12 5 5 12 12 12 12 12 12 7 7 7 7 13 13 7 12 12 7 7 7 7 7 7 12 12 12 12 12 12 12 12 12 12 5 12 12 12 12 12 12 12 12 12 -9999 -9999 -9999 -9999 -9999 -9999 -9999 -9999 
-9999 -9999 3 3 3 3 13 3 3 13 3 7 7 5 5 7 7 7 7 3 3 13 13 3 7 7 7 7 13 13 13 13 13 13 7 7 7 7 12 7 7 7 7 7 7 3 13 13 13 13 13 3 3 7 12 7 12 12 5 12 5 12 12 12 5 5 12 12 5 5 12 7 7 7 10 10 5 5 12 12 12 12 12 7 7 7 7 12 12 12 5 5 5 7 7 7 7 7 7 7 7 7 7 7 7 7 7 7 7 7 7 7 7 7 7 7 7 7 7 7 7 13 7 13 7 3 3 3 7 3 3 3 3 7 3 13 3 13 13 7 12 12 12 7 12 7 7 7 12 7 7 10 12 12 12 12 12 7 12 7 13 12 5 12 5 5 5 12 12 7 12 12 7 7 13 13 13 12 12 12 7 7 7 7 7 12 7 7 12 12 10 12 12 12 12 12 12 5 12 12 12 7 7 12 12 12 -9999 -9999 -9999 -9999 -9999 -9999 -9999 -9999 
-9999 -9999 3 3 13 13 13 7 7 13 7 7 7 5 12 7 7 7 7 3 13 13 13 13 7 7 7 7 3 13 7 3 13 13 3 7 7 12 12 7 7 7 7 7 7 3 3 3 3 13 13 3 3 3 7 7 7 7 12 12 5 5 5 5 5 5 12 5 5 12 12 12 7 12 12 7 5 5 5 5 12 12 12 12 12 7 5 5 5 5 5 3 12 12 12 7 7 12 7 7 7 7 7 7 7 7 7 7 7 7 7 7 7 7 7 7 7 7 7 7 7 7 7 13 3 3 3 3 3 3 3 3 3 3 7 3 13 13 3 7 12 7 7 12 12 7 7 7 12 7 13 12 10 12 12 12 12 7 7 7 12 7 12 12 12 12 5 12 12 12 12 7 7 12 7 7 12 12 12 7 7 13 7 13 12 12 12 12 12 12 12 12 12 7 12 12 12 12 12 12 12 12 12 7 7 13 -9999 -9999 -9999 -9999 -9999 -9999 -9999 -9999 
-9999 -9999 3 3 3 13 7 7 13 7 7 7 7 5 7 7 7 7 7 13 7 13 3 3 3 7 7 7 7 3 3 3 3 13 7 7 7 12 12 7 7 7 7 3 7 7 13 13 13 3 3 13 13 3 7 7 7 7 7 7 12 12 10 5 5 5 12 12 12 7 7 7 7 7 7 12 5 5 5 5 5 5 7 7 12 12 12 5 5 5 5 5 12 12 5 3 12 7 7 7 7 7 7 7 7 7 7 7 7 7 7 7 7 7 7 7 7 7 7 7 7 7 7 13 3 3 3 3 3 7 7 7 7 7 3 13 13 13 13 7 7 7 7 7 7 7 13 13 7 7 12 12 12 5 12 7 7 7 13 7 12 12 12 12 7 12 5 5 5 12 12 5 12 12 7 7 12 12 12 12 7 7 12 12 12 12 12 12 12 12 12 12 12 12 12 12 7 12 12 7 7 7 7 7 3 -9999 -9999 -9999 -9999 -9999 -9999 -9999 -9999 -9999 
-9999 -9999 3 3 3 7 13 7 7 3 7 7 5 12 7 7 7 7 7 7 7 13 13 13 13 12 7 7 7 3 3 7 3 13 7 7 7 5 7 7 7 7 7 7 13 7 3 3 13 13 13 13 13 7 7 7 7 7 7 7 7 7 10 5 5 5 5 12 7 7 7 7 7 7 7 7 7 12 12 5 5 5 5 5 5 5 5 5 3 12 12 7 7 7 7 5 5 7 7 7 7 7 7 7 7 7 7 7 7 7 7 7 7 7 7 7 7 7 7 7 7 7 7 7 7 3 3 3 3 7 7 7 7 7 13 13 7 7 13 3 13 7 7 7 7 7 7 13 13 12 12 12 12 12 12 7 7 13 13 12 12 12 12 7 12 12 12 5 12 12 12 5 12 7 7 13 12 12 7 7 7 13 12 12 12 7 12 12 12 7 12 12 12 12 7 12 12 12 12 12 12 7 7 3 3 -9999 -9999 -9999 -9999 -9999 -9999 -9999 -9999 -9999 
-9999 -9999 3 3 3 3 7 7 7 13 7 7 5 12 7 7 7 7 7 7 7 7 13 13 13 7 12 7 7 7 7 7 3 7 7 7 5 5 12 7 7 7 7 7 3 13 13 13 3 13 3 3 13 7 7 7 7 7 7 7 7 5 12 5 5 12 5 12 12 7 7 7 7 7 7 7 12 12 12 12 5 5 12 5 5 5 5 5 5 7 12 7 7 7 7 7 3 7 7 7 7 7 7 7 7 7 7 7 7 7 7 7 7 7 7 7 7 7 7 7 7 7 7 7 7 7 7 7 7 7 7 7 7 13 3 13 7 7 7 13 13 7 7 13 13 7 7 13 3 7 12 7 12 12 12 7 7 7 12 12 12 7 12 12 12 12 12 12 12 12 12 12 12 7 7 13 12 12 7 7 7 13 7 12 12 12 12 12 12 12 12 12 12 12 7 12 7 12 12 12 12 12 7 3 3 -9999 -9999 -9999 -9999 -9999 -9999 -9999 -9999 -9999 
-9999 -9999 3 13 13 3 7 7 7 7 7 7 5 7 7 7 7 7 7 7 7 7 7 7 7 13 7 7 7 7 7 7 7 7 12 5 12 5 5 12 7 7 7 7 7 7 7 7 13 3 3 3 7 7 7 12 7 12 7 12 12 12 5 5 12 12 7 7 7 7 7 7 7 12 7 7 12 12 12 12 12 12 12 10 5 5 5 5 12 12 12 12 7 7 7 7 10 5 7 7 7 7 7 7 7 7 7 7 7 7 7 7 7 7 7 7 7 7 7 7 7 7 7 3 7 12 12 7 12 12 12 7 7 7 7 7 7 7 13 13 13 13 13 13 13 3 7 3 13 7 13 7 12 12 12 7 7 13 7 7 12 7 7 7 12 12 12 12 12 12 12 12 7 7 7 13 12 12 12 7 13 13 12 12 7 7 12 7 7 12 12 12 7 12 12 7 12 12 12 12 12 7 7 7 3 -9999 -9999 -9999 -9999 -9999 -9999 -9999 -9999 -9999 
-9999 -9999 2 3 13 13 7 7 7 12 7 7 12 7 7 7 7 7 7 7 7 7 7 7 7 3 7 7 7 7 7 7 7 7 12 12 7 7 12 12 7 5 5 12 7 7 7 7 3 3 13 3 7 7 7 3 7 12 12 12 12 7 5 12 7 7 7 7 7 7 7 7 7 7 7 7 12 12 12 12 12 12 10 5 5 5 5 12 12 12 12 12 7 7 7 7 7 5 7 7 7 7 7 7 7 7 7 7 7 7 7 7 7 7 7 7 7 7 7 7 7 7 7 7 7 12 12 12 12 12 12 12 7 7 7 7 7 7 7 7 3 13 7 3 13 3 13 7 13 13 7 7 12 7 12 7 7 13 7 7 12 7 7 7 7 12 5 12 12 12 12 12 7 7 7 13 7 7 7 7 13 7 13 7 13 7 12 12 7 7 12 7 7 12 12 12 12 12 12 12 12 12 7 7 3 -9999 -9999 -9999 -9999 -9999 -9999 -9999 -9999 -9999 
-9999 -9999 3 3 13 7 13 7 7 12 12 12 12 7 7 7 7 7 7 7 7 7 7 7 7 7 7 7 7 7 7 7 12 12 7 7 7 7 7 7 7 7 7 3 7 7 7 7 13 13 3 3 3 7 7 7 7 5 12 7 12 12 5 7 7 7 7 7 7 7 7 7 7 7 7 7 7 12 12 10 12 12 10 5 10 5 5 12 12 7 7 7 7 7 7 7 7 7 12 12 7 7 7 7 7 7 7 7 7 7 7 7 7 7 7 7 7 7 7 7 7 7 7 7 7 12 12 12 12 12 12 12 12 7 7 7 7 7 7 7 13 3 7 7 13 13 3 7 13 7 12 7 12 7 12 7 7 13 13 7 7 7 7 7 7 12 7 7 7 12 12 12 7 12 7 3 7 13 7 7 7 13 13 7 13 13 7 13 12 12 12 12 7 12 12 7 7 12 12 12 12 12 7 3 7 -9999 -9999 -9999 -9999 -9999 -9999 -9999 -9999 -9999 
-9999 -9999 3 3 3 13 13 7 7 7 12 12 12 7 7 7 7 7 7 7 7 7 7 7 7 7 7 7 12 7 12 12 12 7 7 7 7 7 7 7 7 7 7 7 7 7 3 7 13 3 13 13 13 7 7 7 7 10 7 7 7 7 7 5 7 7 7 7 7 7 7 7 7 7 12 7 7 7 12 12 12 7 5 5 12 5 12 12 7 12 7 7 7 7 7 7 7 7 7 12 7 7 7 7 7 7 7 7 7 7 7 7 7 7 12 7 7 7 10 12 12 5 12 12 12 12 12 12 12 12 7 12 7 7 12 7 7 7 7 7 7 7 7 7 7 7 7 7 7 13 13 13 7 7 7 7 7 13 13 7 13 7 7 13 7 7 7 13 7 12 12 12 12 12 7 7 7 7 13 7 7 3 13 13 13 7 7 13 7 13 12 12 12 10 12 12 7 7 13 7 12 12 7 7 7 -9999 -9999 -9999 -9999 -9999 -9999 -9999 -9999 -9999 
-9999 -9999 2 2 2 2 2 2 2 13 3 3 5 12 7 7 7 7 7 12 12 7 7 7 7 7 7 12 12 12 5 7 7 7 7 7 7 7 7 7 3 3 13 7 7 7 3 7 3 3 3 13 3 7 7 12 12 7 7 7 7 7 7 3 7 7 7 7 7 7 7 7 7 7 7 12 12 12 12 12 12 12 5 7 7 5 12 12 7 7 7 7 7 7 7 7 7 7 7 7 12 7 7 7 7 7 7 7 7 7 7 7 7 7 7 12 12 12 12 12 12 12 12 5 12 5 7 12 12 12 12 12 12 12 12 12 12 12 7 7 7 12 12 7 7 7 12 7 7 13 13 13 13 13 13 7 7 7 3 13 13 3 13 13 13 7 13 13 7 7 12 7 12 7 7 7 7 7 13 7 13 13 13 13 13 13 13 13 12 12 12 12 12 12 12 7 7 7 13 13 7 12 12 12 7 -9999 -9999 -9999 -9999 -9999 -9999 -9999 -9999 -9999 
-9999 -9999 -9999 -9999 -9999 2 2 2 2 2 3 3 3 5 3 3 7 7 7 12 7 7 7 7 7 7 7 7 5 5 5 12 7 7 7 7 7 7 7 13 13 3 13 3 7 7 7 7 7 3 13 13 13 13 7 7 7 7 7 7 7 7 13 13 7 7 7 7 7 7 7 7 10 5 5 12 5 5 5 5 12 5 5 12 5 12 12 12 7 7 7 12 7 7 7 7 7 7 7 7 7 7 7 7 7 7 7 7 7 7 7 7 7 12 5 5 5 12 5 12 5 5 12 5 12 12 7 12 12 12 12 5 12 12 12 12 12 12 12 12 7 7 12 12 12 12 12 7 7 7 7 7 13 13 13 7 3 7 3 7 3 13 3 13 3 13 13 13 7 7 7 7 7 7 13 7 7 7 3 7 3 3 3 13 13 13 13 7 13 12 12 12 12 12 12 12 7 7 13 13 13 12 13 12 7 -9999 -9999 -9999 -9999 -9999 -9999 -9999 -9999 -9999 
-9999 -9999 -9999 -9999 -9999 -9999 -9999 -9999 -9999 -9999 -9999 -9999 -9999 3 3 3 3 7 7 12 7 7 7 7 12 12 12 5 12 5 7 7 7 7 7 7 7 7 3 13 3 3 13 13 13 13 13 3 13 3 13 3 13 13 13 7 7 7 7 7 7 7 13 13 3 13 7 13 7 7 13 7 5 12 12 12 12 12 10 5 7 7 5 3 5 5 12 12 7 7 7 12 12 7 7 7 7 7 5 12 3 5 7 3 7 7 7 7 7 7 7 7 7 7 5 12 12 5 12 12 12 5 5 12 12 7 7 7 7 7 7 12 12 12 7 7 7 12 12 12 12 12 12 12 12 12 12 12 7 12 12 7 3 3 3 13 13 3 3 3 3 3 3 3 3 13 13 13 7 7 7 7 7 7 3 7 7 7 13 7 3 3 3 3 3 13 3 7 7 12 7 7 12 7 7 7 12 7 13 13 7 7 3 3 12 -9999 -9999 -9999 -9999 -9999 -9999 -9999 -9999 -9999 
-9999 -9999 -9999 -9999 -9999 -9999 -9999 -9999 -9999 -9999 -9999 -9999 -9999 -9999 -9999 -9999 -9999 -9999 7 12 12 12 7 10 5 5 5 5 7 7 7 7 7 7 7 7 7 7 3 3 3 13 13 13 13 13 13 13 3 13 3 13 13 13 7 7 7 7 7 7 7 13 7 3 13 13 7 7 13 7 7 13 7 12 7 12 12 12 12 12 5 5 5 5 3 5 5 12 12 12 12 12 7 7 7 7 7 7 7 7 3 3 7 13 7 7 7 7 7 5 12 12 12 10 12 12 5 5 5 5 5 12 12 7 7 7 7 7 7 7 7 7 12 12 7 7 7 7 12 12 12 12 12 12 12 12 12 12 12 12 12 7 7 3 3 13 7 3 3 3 13 3 3 3 3 13 13 3 13 13 7 7 13 3 13 3 7 3 3 3 3 3 3 3 3 13 3 7 13 7 12 12 12 7 7 13 12 7 13 13 7 7 3 3 7 -9999 -9999 -9999 -9999 -9999 -9999 -9999 -9999 -9999 
-9999 -9999 -9999 -9999 -9999 -9999 -9999 -9999 -9999 -9999 -9999 -9999 -9999 -9999 -9999 -9999 -9999 -9999 -9999 -9999 -9999 -9999 -9999 -9999 5 12 7 7 7 7 7 3 7 7 7 7 7 13 13 3 3 3 13 3 3 3 3 3 13 3 13 13 13 3 7 7 7 7 7 7 7 3 3 7 3 3 3 13 13 7 13 7 7 7 7 7 12 12 12 12 5 5 3 5 5 5 5 5 12 12 12 5 7 7 7 7 7 7 12 7 3 3 7 7 7 7 7 7 7 12 12 5 12 5 12 5 12 12 12 7 7 7 7 7 7 7 7 7 13 13 13 7 7 7 7 12 7 7 7 12 12 7 12 7 7 7 7 7 7 12 7 7 7 3 13 3 3 3 3 7 7 3 3 3 3 3 3 13 13 3 3 7 3 3 13 3 7 3 3 3 3 3 3 3 3 13 3 13 12 7 7 12 12 7 7 7 7 3 3 13 7 12 3 3 7 -9999 -9999 -9999 -9999 -9999 -9999 -9999 -9999 -9999 
-9999 -9999 -9999 -9999 -9999 -9999 -9999 -9999 -9999 -9999 -9999 -9999 -9999 -9999 -9999 -9999 -9999 -9999 -9999 -9999 -9999 -9999 -9999 -9999 -9999 -9999 -9999 -9999 -9999 -9999 -9999 -9999 13 3 7 13 7 7 3 3 3 3 5 3 3 3 3 3 3 3 3 13 13 7 7 13 7 7 7 3 7 3 13 13 3 3 13 13 13 7 7 7 7 7 7 7 7 12 12 12 5 5 5 5 12 5 5 5 5 5 5 5 5 7 7 7 7 7 7 7 7 7 7 7 7 7 7 12 7 12 5 12 5 12 12 12 12 12 7 7 7 7 7 7 7 7 7 13 13 3 3 7 12 12 7 7 7 7 7 7 12 7 7 7 7 7 7 7 12 7 7 12 7 7 3 7 3 3 3 7 7 13 3 3 13 3 3 3 3 3 3 7 3 3 3 3 3 3 3 3 3 3 3 3 3 13 3 13 7 13 13 13 12 7 3 3 7 3 3 3 3 3 3 3 7 -9999 -9999 -9999 -9999 -9999 -9999 -9999 -9999 -9999 
-9999 -9999 -9999 -9999 -9999 -9999 -9999 -9999 -9999 -9999 -9999 -9999 -9999 -9999 -9999 -9999 -9999 -9999 -9999 -9999 -9999 -9999 -9999 -9999 -9999 -9999 -9999 -9999 -9999 -9999 -9999 -9999 -9999 -9999 -9999 -9999 -9999 -9999 13 3 2 2 2 5 3 3 3 3 3 3 3 3 3 7 3 3 7 3 7 13 13 13 13 3 13 7 7 13 13 13 7 7 7 7 7 7 7 7 7 5 5 5 3 12 12 5 5 5 5 5 5 5 5 5 12 12 12 7 7 7 7 7 7 7 7 12 10 12 12 12 5 5 5 12 12 12 12 12 7 7 7 7 7 7 7 7 7 13 7 13 3 7 12 7 7 7 3 13 7 12 12 7 7 7 7 7 13 13 7 7 7 12 3 7 12 7 7 7 7 3 3 3 3 3 3 13 3 3 3 3 13 3 7 3 13 3 3 3 3 3 3 3 3 7 13 13 3 3 13 3 13 13 7 7 3 3 7 3 3 3 3 3 3 3 3 -9999 -9999 -9999 -9999 -9999 -9999 -9999 -9999 -9999 
-9999 -9999 -9999 -9999 -9999 -9999 -9999 -9999 -9999 -9999 -9999 -9999 -9999 -9999 -9999 -9999 -9999 -9999 -9999 -9999 -9999 -9999 -9999 -9999 -9999 -9999 -9999 -9999 -9999 -9999 -9999 -9999 -9999 -9999 -9999 -9999 -9999 -9999 -9999 -9999 -9999 -9999 -9999 3 3 2 3 3 3 3 3 3 3 3 -9999 -9999 -9999 -9999 -9999 3 3 3 3 3 13 13 13 13 13 13 7 7 13 7 7 7 7 7 7 5 5 3 3 5 5 3 2 5 10 5 5 5 5 5 5 12 12 12 7 7 7 7 7 7 7 7 5 5 5 5 12 5 5 5 12 5 12 12 7 7 7 7 7 7 7 3 3 3 7 13 13 7 12 7 7 7 3 13 7 7 7 7 7 7 7 7 3 3 7 3 3 7 3 3 3 7 7 7 7 3 3 3 3 3 3 3 3 3 13 3 13 3 7 3 3 3 3 3 3 3 3 3 3 3 3 3 13 7 13 3 3 13 7 7 3 3 3 7 3 3 3 3 3 3 3 -9999 -9999 -9999 -9999 -9999 -9999 -9999 -9999 -9999 
-9999 -9999 -9999 -9999 -9999 -9999 -9999 -9999 -9999 -9999 -9999 -9999 -9999 -9999 -9999 -9999 -9999 -9999 -9999 -9999 -9999 -9999 -9999 -9999 -9999 -9999 -9999 -9999 -9999 -9999 -9999 -9999 -9999 -9999 -9999 -9999 -9999 -9999 -9999 -9999 -9999 -9999 -9999 -9999 -9999 -9999 -9999 -9999 -9999 -9999 -9999 3 3 3 -9999 -9999 -9999 -9999 -9999 -9999 -9999 -9999 -9999 -9999 -9999 -9999 -9999 -9999 7 7 7 7 7 7 7 7 12 7 5 5 3 3 5 12 7 12 3 10 2 2 3 3 5 5 12 12 12 7 12 7 7 7 12 12 7 12 12 5 5 5 5 12 7 7 12 12 12 12 12 12 7 7 12 7 7 3 13 7 7 3 3 7 12 7 7 7 13 13 7 10 7 7 13 13 13 3 3 3 7 3 3 7 3 3 3 3 3 7 7 3 3 13 3 3 3 3 3 13 3 3 3 3 3 3 3 3 3 3 3 3 3 3 3 3 3 3 3 7 3 3 3 3 3 3 3 3 3 3 3 3 3 3 3 3 3 -9999 -9999 -9999 -9999 -9999 -9999 -9999 -9999 -9999 
-9999 -9999 -9999 -9999 -9999 -9999 -9999 -9999 -9999 -9999 -9999 -9999 -9999 -9999 -9999 -9999 -9999 -9999 -9999 -9999 -9999 -9999 -9999 -9999 -9999 -9999 -9999 -9999 -9999 -9999 -9999 -9999 -9999 -9999 -9999 -9999 -9999 -9999 -9999 -9999 -9999 -9999 -9999 -9999 -9999 -9999 -9999 -9999 -9999 -9999 -9999 -9999 -9999 -9999 -9999 -9999 -9999 -9999 -9999 -9999 -9999 -9999 -9999 -9999 -9999 -9999 -9999 -9999 -9999 -9999 -9999 -9999 -9999 -9999 -9999 7 7 12 3 3 3 5 12 7 12 7 7 7 10 10 2 2 5 5 5 12 12 12 5 12 7 12 5 12 5 12 5 5 5 5 5 12 7 7 7 12 12 5 12 5 12 5 7 7 7 7 7 7 7 3 3 7 7 12 7 7 13 13 7 7 7 7 3 13 3 3 3 3 3 13 3 13 3 3 3 3 3 7 7 7 3 7 3 3 3 3 3 13 3 7 3 3 3 3 3 7 3 3 3 3 3 3 3 3 3 3 3 3 3 3 3 3 3 3 3 3 3 3 7 3 3 3 3 3 3 -9999 -9999 -9999 -9999 -9999 -9999 -9999 -9999 -9999 
-9999 -9999 -9999 -9999 -9999 -9999 -9999 -9999 -9999 -9999 -9999 -9999 -9999 -9999 -9999 -9999 -9999 -9999 -9999 -9999 -9999 -9999 -9999 -9999 -9999 -9999 -9999 -9999 -9999 -9999 -9999 -9999 -9999 -9999 -9999 -9999 -9999 -9999 -9999 -9999 -9999 -9999 -9999 -9999 -9999 -9999 -9999 -9999 -9999 -9999 -9999 -9999 -9999 -9999 -9999 -9999 -9999 -9999 -9999 -9999 -9999 -9999 -9999 -9999 -9999 -9999 -9999 -9999 -9999 -9999 -9999 -9999 -9999 -9999 -9999 -9999 -9999 -9999 -9999 -9999 -9999 5 7 7 12 7 12 12 7 5 3 2 2 5 5 5 5 5 5 7 12 12 5 5 5 5 5 5 5 5 5 7 7 7 7 7 7 12 5 5 12 12 12 7 7 7 7 7 7 7 3 7 7 3 7 7 13 13 13 7 7 7 7 3 3 3 3 3 13 3 3 3 3 13 3 3 3 3 13 7 3 3 3 3 3 3 13 13 3 7 7 7 7 7 7 7 3 3 7 3 3 13 3 3 3 3 3 3 3 3 3 3 3 3 3 7 3 7 7 7 3 3 3 3 3 -9999 -9999 -9999 -9999 -9999 -9999 -9999 -9999 -9999 
-9999 -9999 -9999 -9999 -9999 -9999 -9999 -9999 -9999 -9999 -9999 -9999 -9999 -9999 -9999 -9999 -9999 -9999 -9999 -9999 -9999 -9999 -9999 -9999 -9999 -9999 -9999 -9999 -9999 -9999 -9999 -9999 -9999 -9999 -9999 -9999 -9999 -9999 -9999 -9999 -9999 -9999 -9999 -9999 -9999 -9999 -9999 -9999 -9999 -9999 -9999 -9999 -9999 -9999 -9999 -9999 -9999 -9999 -9999 -9999 -9999 -9999 -9999 -9999 -9999 -9999 -9999 -9999 -9999 -9999 -9999 -9999 -9999 -9999 -9999 -9999 -9999 -9999 -9999 -9999 -9999 -9999 -9999 7 7 7 7 7 7 7 7 10 3 2 5 5 5 5 5 5 5 5 5 5 5 5 5 5 5 12 5 5 7 7 7 7 7 7 7 12 12 12 12 12 12 12 12 7 7 7 3 3 3 3 13 7 7 13 13 7 7 7 3 3 3 3 3 3 13 13 3 13 3 3 3 3 13 3 3 3 7 7 7 13 13 3 13 3 3 3 7 7 7 7 7 7 3 7 7 3 3 3 3 3 3 3 3 3 3 3 3 3 3 3 3 3 7 7 3 3 3 3 3 3 3 -9999 -9999 -9999 -9999 -9999 -9999 -9999 -9999 -9999 
-9999 -9999 -9999 -9999 -9999 -9999 -9999 -9999 -9999 -9999 -9999 -9999 -9999 -9999 -9999 -9999 -9999 -9999 -9999 -9999 -9999 -9999 -9999 -9999 -9999 -9999 -9999 -9999 -9999 -9999 -9999 -9999 -9999 -9999 -9999 -9999 -9999 -9999 -9999 -9999 -9999 -9999 -9999 -9999 -9999 -9999 -9999 -9999 -9999 -9999 -9999 -9999 -9999 -9999 -9999 -9999 -9999 -9999 -9999 -9999 -9999 -9999 -9999 -9999 -9999 -9999 -9999 -9999 -9999 -9999 -9999 -9999 -9999 -9999 -9999 -9999 -9999 -9999 -9999 -9999 -9999 -9999 -9999 7 7 7 7 7 7 7 7 7 7 3 2 3 5 5 5 5 5 5 5 5 5 5 5 5 5 12 5 12 12 7 7 7 7 7 7 7 7 12 12 12 12 12 12 12 12 12 7 3 7 3 13 13 13 13 7 7 3 7 3 3 3 3 3 3 13 13 3 3 13 3 3 3 3 3 3 13 3 7 7 13 13 13 13 7 3 13 7 12 12 12 7 7 7 7 3 3 3 3 3 7 3 3 3 3 3 3 7 3 3 3 3 3 7 7 3 3 3 3 3 7 3 -9999 -9999 -9999 -9999 -9999 -9999 -9999 -9999 -9999 
-9999 -9999 -9999 -9999 -9999 -9999 -9999 -9999 -9999 -9999 -9999 -9999 -9999 -9999 -9999 -9999 -9999 -9999 -9999 -9999 -9999 -9999 -9999 -9999 -9999 -9999 -9999 -9999 -9999 -9999 -9999 -9999 -9999 -9999 -9999 -9999 -9999 -9999 -9999 -9999 -9999 -9999 -9999 -9999 -9999 -9999 -9999 -9999 -9999 -9999 -9999 -9999 -9999 -9999 -9999 -9999 -9999 -9999 -9999 -9999 -9999 -9999 -9999 -9999 -9999 -9999 -9999 -9999 -9999 -9999 -9999 -9999 -9999 -9999 -9999 -9999 -9999 -9999 -9999 -9999 -9999 -9999 -9999 -9999 7 7 7 7 7 7 7 7 7 7 5 5 5 5 5 5 5 5 5 5 5 5 12 7 5 5 12 12 10 12 7 7 3 3 13 7 7 7 7 12 12 12 12 12 12 12 12 7 7 7 7 13 13 13 13 3 13 3 3 3 3 3 3 3 13 13 3 3 13 3 3 3 3 3 3 13 3 5 7 13 13 13 13 7 3 13 7 12 12 12 12 7 7 7 3 3 3 3 3 7 3 3 3 3 3 3 7 7 3 3 13 7 7 7 7 3 3 3 3 7 7 -9999 -9999 -9999 -9999 -9999 -9999 -9999 -9999 -9999 
-9999 -9999 -9999 -9999 -9999 -9999 -9999 -9999 -9999 -9999 -9999 -9999 -9999 -9999 -9999 -9999 -9999 -9999 -9999 -9999 -9999 -9999 -9999 -9999 -9999 -9999 -9999 -9999 -9999 -9999 -9999 -9999 -9999 -9999 -9999 -9999 -9999 -9999 -9999 -9999 -9999 -9999 -9999 -9999 -9999 -9999 -9999 -9999 -9999 -9999 -9999 -9999 -9999 -9999 -9999 -9999 -9999 -9999 -9999 -9999 -9999 -9999 -9999 -9999 -9999 -9999 -9999 -9999 -9999 -9999 -9999 -9999 -9999 -9999 -9999 -9999 -9999 -9999 -9999 -9999 -9999 -9999 -9999 -9999 -9999 -9999 -9999 -9999 -9999 -9999 -9999 7 7 7 7 12 5 5 5 5 5 5 5 5 3 2 2 2 7 12 12 12 7 12 7 7 7 3 7 7 7 7 12 12 12 12 12 12 12 5 12 7 7 7 13 3 13 13 3 3 13 3 3 13 3 3 3 3 13 13 13 13 13 3 3 3 3 3 3 13 3 3 3 13 13 13 3 7 7 7 7 7 7 12 12 7 7 7 3 3 7 3 3 7 7 3 3 3 3 3 7 7 7 3 3 12 12 12 7 7 3 3 3 7 7 -9999 -9999 -9999 -9999 -9999 -9999 -9999 -9999 -9999 
-9999 -9999 -9999 -9999 -9999 -9999 -9999 -9999 -9999 -9999 -9999 -9999 -9999 -9999 -9999 -9999 -9999 -9999 -9999 -9999 -9999 -9999 -9999 -9999 -9999 -9999 -9999 -9999 -9999 -9999 -9999 -9999 -9999 -9999 -9999 -9999 -9999 -9999 -9999 -9999 -9999 -9999 -9999 -9999 -9999 -9999 -9999 -9999 -9999 -9999 -9999 -9999 -9999 -9999 -9999 -9999 -9999 -9999 -9999 -9999 -9999 -9999 -9999 -9999 -9999 -9999 -9999 -9999 -9999 -9999 -9999 -9999 -9999 -9999 -9999 -9999 -9999 -9999 -9999 -9999 -9999 -9999 -9999 -9999 -9999 -9999 -9999 -9999 -9999 -9999 -9999 -9999 -9999 -9999 -9999 -9999 -9999 5 5 5 5 12 5 5 5 2 2 2 7 7 12 12 7 13 3 7 3 3 13 7 12 12 12 12 5 7 12 12 12 12 7 7 7 7 3 3 13 3 7 3 3 3 3 3 3 3 3 3 3 13 13 13 13 13 3 3 3 3 3 3 13 13 3 13 13 13 3 13 3 7 12 12 12 12 12 12 7 7 3 7 7 3 3 12 3 13 3 3 3 3 13 7 12 7 7 12 12 7 7 7 7 3 3 7 7 -9999 -9999 -9999 -9999 -9999 -9999 -9999 -9999 -9999 
-9999 -9999 -9999 -9999 -9999 -9999 -9999 -9999 -9999 -9999 -9999 -9999 -9999 -9999 -9999 -9999 -9999 -9999 -9999 -9999 -9999 -9999 -9999 -9999 -9999 -9999 -9999 -9999 -9999 -9999 -9999 -9999 -9999 -9999 -9999 -9999 -9999 -9999 -9999 -9999 -9999 -9999 -9999 -9999 -9999 -9999 -9999 -9999 -9999 -9999 -9999 -9999 -9999 -9999 -9999 -9999 -9999 -9999 -9999 -9999 -9999 -9999 -9999 -9999 -9999 -9999 -9999 -9999 -9999 -9999 -9999 -9999 -9999 -9999 -9999 -9999 -9999 -9999 -9999 -9999 -9999 -9999 -9999 -9999 -9999 -9999 -9999 -9999 -9999 -9999 -9999 -9999 -9999 -9999 -9999 -9999 -9999 -9999 -9999 -9999 -9999 -9999 10 2 5 2 2 2 12 7 7 7 7 3 3 3 3 3 7 7 12 12 12 12 12 12 12 12 7 7 7 7 7 7 7 3 3 3 3 3 3 3 3 13 3 3 3 13 3 13 3 13 3 13 13 13 13 3 3 3 3 13 13 3 3 3 3 3 3 13 7 12 12 12 12 7 7 7 3 12 7 3 7 12 3 7 3 3 3 3 3 7 12 7 12 12 7 7 3 3 3 3 3 13 7 -9999 -9999 -9999 -9999 -9999 -9999 -9999 -9999 -9999 
-9999 -9999 -9999 -9999 -9999 -9999 -9999 -9999 -9999 -9999 -9999 -9999 -9999 -9999 -9999 -9999 -9999 -9999 -9999 -9999 -9999 -9999 -9999 -9999 -9999 -9999 -9999 -9999 -9999 -9999 -9999 -9999 -9999 -9999 -9999 -9999 -9999 -9999 -9999 -9999 -9999 -9999 -9999 -9999 -9999 -9999 -9999 -9999 -9999 -9999 -9999 -9999 -9999 -9999 -9999 -9999 -9999 -9999 -9999 -9999 -9999 -9999 -9999 -9999 -9999 -9999 -9999 -9999 -9999 -9999 -9999 -9999 -9999 -9999 -9999 -9999 -9999 -9999 -9999 -9999 -9999 -9999 -9999 -9999 -9999 -9999 -9999 -9999 -9999 -9999 -9999 -9999 -9999 -9999 -9999 -9999 -9999 -9999 -9999 -9999 -9999 -9999 -9999 -9999 -9999 -9999 -9999 -9999 -9999 7 7 7 3 3 3 3 3 3 7 7 7 12 5 12 5 12 12 12 7 7 13 7 7 3 13 13 3 3 3 3 3 3 3 3 3 3 3 3 13 13 3 13 13 13 3 13 3 3 3 13 13 3 3 3 3 13 3 3 13 3 13 12 12 12 12 12 7 12 7 12 7 7 13 7 7 7 3 7 7 7 7 7 12 12 12 12 7 7 7 3 7 7 3 13 7 -9999 -9999 -9999 -9999 -9999 -9999 -9999 -9999 -9999 
-9999 -9999 -9999 -9999 -9999 -9999 -9999 -9999 -9999 -9999 -9999 -9999 -9999 -9999 -9999 -9999 -9999 -9999 -9999 -9999 -9999 -9999 -9999 -9999 -9999 -9999 -9999 -9999 -9999 -9999 -9999 -9999 -9999 -9999 -9999 -9999 -9999 -9999 -9999 -9999 -9999 -9999 -9999 -9999 -9999 -9999 -9999 -9999 -9999 -9999 -9999 -9999 -9999 -9999 -9999 -9999 -9999 -9999 -9999 -9999 -9999 -9999 -9999 -9999 -9999 -9999 -9999 -9999 -9999 -9999 -9999 -9999 -9999 -9999 -9999 -9999 -9999 -9999 -9999 -9999 -9999 -9999 -9999 -9999 -9999 -9999 -9999 -9999 -9999 -9999 -9999 -9999 -9999 -9999 -9999 -9999 -9999 -9999 -9999 -9999 -9999 -9999 -9999 -9999 -9999 -9999 -9999 -9999 -9999 -9999 -9999 -9999 -9999 -9999 -9999 3 3 3 3 7 3 12 12 12 5 5 12 12 7 7 3 13 13 3 3 3 3 3 3 3 3 13 3 3 3 3 3 3 3 3 3 13 3 13 13 3 13 3 3 3 13 3 13 3 13 13 3 3 3 13 13 12 12 12 12 12 12 12 12 12 12 7 13 7 7 3 7 7 7 7 7 7 7 12 12 12 12 12 12 7 7 3 3 3 3 -9999 -9999 -9999 -9999 -9999 -9999 -9999 -9999 -9999 
-9999 -9999 -9999 -9999 -9999 -9999 -9999 -9999 -9999 -9999 -9999 -9999 -9999 -9999 -9999 -9999 -9999 -9999 -9999 -9999 -9999 -9999 -9999 -9999 -9999 -9999 -9999 -9999 -9999 -9999 -9999 -9999 -9999 -9999 -9999 -9999 -9999 -9999 -9999 -9999 -9999 -9999 -9999 -9999 -9999 -9999 -9999 -9999 -9999 -9999 -9999 -9999 -9999 -9999 -9999 -9999 -9999 -9999 -9999 -9999 -9999 -9999 -9999 -9999 -9999 -9999 -9999 -9999 -9999 -9999 -9999 -9999 -9999 -9999 -9999 -9999 -9999 -9999 -9999 -9999 -9999 -9999 -9999 -9999 -9999 -9999 -9999 -9999 -9999 -9999 -9999 -9999 -9999 -9999 -9999 -9999 -9999 -9999 -9999 -9999 -9999 -9999 -9999 -9999 -9999 -9999 -9999 -9999 -9999 -9999 -9999 -9999 -9999 -9999 -9999 -9999 -9999 -9999 -9999 -9999 -9999 7 12 12 5 12 12 7 7 7 3 3 3 3 13 13 13 3 3 3 13 3 13 13 3 3 13 3 3 3 13 3 3 13 13 3 3 3 3 3 13 13 13 13 3 7 3 3 3 3 7 12 12 12 12 12 12 12 12 12 7 7 3 13 7 3 7 12 12 12 7 12 12 12 12 12 12 12 12 7 7 3 3 13 13 -9999 -9999 -9999 -9999 -9999 -9999 -9999 -9999 -9999 
-9999 -9999 -9999 -9999 -9999 -9999 -9999 -9999 -9999 -9999 -9999 -9999 -9999 -9999 -9999 -9999 -9999 -9999 -9999 -9999 -9999 -9999 -9999 -9999 -9999 -9999 -9999 -9999 -9999 -9999 -9999 -9999 -9999 -9999 -9999 -9999 -9999 -9999 -9999 -9999 -9999 -9999 -9999 -9999 -9999 -9999 -9999 -9999 -9999 -9999 -9999 -9999 -9999 -9999 -9999 -9999 -9999 -9999 -9999 -9999 -9999 -9999 -9999 -9999 -9999 -9999 -9999 -9999 -9999 -9999 -9999 -9999 -9999 -9999 -9999 -9999 -9999 -9999 -9999 -9999 -9999 -9999 -9999 -9999 -9999 -9999 -9999 -9999 -9999 -9999 -9999 -9999 -9999 -9999 -9999 -9999 -9999 -9999 -9999 -9999 -9999 -9999 -9999 -9999 -9999 -9999 -9999 -9999 -9999 -9999 -9999 -9999 -9999 -9999 -9999 -9999 -9999 -9999 -9999 -9999 -9999 -9999 -9999 -9999 -9999 -9999 -9999 -9999 -9999 7 7 7 7 3 3 7 13 13 3 3 3 7 3 3 3 3 3 3 3 3 3 13 13 3 13 3 3 7 3 3 7 13 3 3 3 3 7 7 7 13 13 13 12 12 12 12 5 7 7 7 7 3 3 13 12 12 12 12 12 12 12 12 12 12 12 12 7 7 7 7 3 7 3 13 7 -9999 -9999 -9999 -9999 -9999 -9999 -9999 -9999 -9999 
-9999 -9999 -9999 -9999 -9999 -9999 -9999 -9999 -9999 -9999 -9999 -9999 -9999 -9999 -9999 -9999 -9999 -9999 -9999 -9999 -9999 -9999 -9999 -9999 -9999 -9999 -9999 -9999 -9999 -9999 -9999 -9999 -9999 -9999 -9999 -9999 -9999 -9999 -9999 -9999 -9999 -9999 -9999 -9999 -9999 -9999 -9999 -9999 -9999 -9999 -9999 -9999 -9999 -9999 -9999 -9999 -9999 -9999 -9999 -9999 -9999 -9999 -9999 -9999 -9999 -9999 -9999 -9999 -9999 -9999 -9999 -9999 -9999 -9999 -9999 -9999 -9999 -9999 -9999 -9999 -9999 -9999 -9999 -9999 -9999 -9999 -9999 -9999 -9999 -9999 -9999 -9999 -9999 -9999 -9999 -9999 -9999 -9999 -9999 -9999 -9999 -9999 -9999 -9999 -9999 -9999 -9999 -9999 -9999 -9999 -9999 -9999 -9999 -9999 -9999 -9999 -9999 -9999 -9999 -9999 -9999 -9999 -9999 -9999 -9999 -9999 -9999 -9999 -9999 -9999 -9999 -9999 -9999 -9999 -9999 7 7 3 13 13 3 7 3 3 3 13 3 3 3 3 3 3 3 3 13 3 3 3 7 7 7 13 3 3 3 3 13 7 12 7 13 13 7 7 12 12 12 12 12 7 7 13 7 7 13 7 7 12 12 12 12 12 12 12 7 7 7 13 13 13 13 7 7 7 7 -9999 -9999 -9999 -9999 -9999 -9999 -9999 -9999 -9999 
-9999 -9999 -9999 -9999 -9999 -9999 -9999 -9999 -9999 -9999 -9999 -9999 -9999 -9999 -9999 -9999 -9999 -9999 -9999 -9999 -9999 -9999 -9999 -9999 -9999 -9999 -9999 -9999 -9999 -9999 -9999 -9999 -9999 -9999 -9999 -9999 -9999 -9999 -9999 -9999 -9999 -9999 -9999 -9999 -9999 -9999 -9999 -9999 -9999 -9999 -9999 -9999 -9999 -9999 -9999 -9999 -9999 -9999 -9999 -9999 -9999 -9999 -9999 -9999 -9999 -9999 -9999 -9999 -9999 -9999 -9999 -9999 -9999 -9999 -9999 -9999 -9999 -9999 -9999 -9999 -9999 -9999 -9999 -9999 -9999 -9999 -9999 -9999 -9999 -9999 -9999 -9999 -9999 -9999 -9999 -9999 -9999 -9999 -9999 -9999 -9999 -9999 -9999 -9999 -9999 -9999 -9999 -9999 -9999 -9999 -9999 -9999 -9999 -9999 -9999 -9999 -9999 -9999 -9999 -9999 -9999 -9999 -9999 -9999 -9999 -9999 -9999 -9999 -9999 -9999 -9999 -9999 -9999 -9999 -9999 -9999 -9999 -9999 -9999 -9999 -9999 7 7 3 3 3 3 3 3 3 3 3 3 3 13 13 3 3 13 7 7 13 12 7 7 3 3 13 12 7 7 3 7 13 12 5 12 12 12 7 7 3 7 7 3 13 7 7 7 7 12 12 12 12 7 7 7 7 7 13 7 7 12 7 7 -9999 -9999 -9999 -9999 -9999 -9999 -9999 -9999 -9999 
-9999 -9999 -9999 -9999 -9999 -9999 -9999 -9999 -9999 -9999 -9999 -9999 -9999 -9999 -9999 -9999 -9999 -9999 -9999 -9999 -9999 -9999 -9999 -9999 -9999 -9999 -9999 -9999 -9999 -9999 -9999 -9999 -9999 -9999 -9999 -9999 -9999 -9999 -9999 -9999 -9999 -9999 -9999 -9999 -9999 -9999 -9999 -9999 -9999 -9999 -9999 -9999 -9999 -9999 -9999 -9999 -9999 -9999 -9999 -9999 -9999 -9999 -9999 -9999 -9999 -9999 -9999 -9999 -9999 -9999 -9999 -9999 -9999 -9999 -9999 -9999 -9999 -9999 -9999 -9999 -9999 -9999 -9999 -9999 -9999 -9999 -9999 -9999 -9999 -9999 -9999 -9999 -9999 -9999 -9999 -9999 -9999 -9999 -9999 -9999 -9999 -9999 -9999 -9999 -9999 -9999 -9999 -9999 -9999 -9999 -9999 -9999 -9999 -9999 -9999 -9999 -9999 -9999 -9999 -9999 -9999 -9999 -9999 -9999 -9999 -9999 -9999 -9999 -9999 -9999 -9999 -9999 -9999 -9999 -9999 -9999 -9999 -9999 -9999 -9999 -9999 -9999 -9999 -9999 -9999 -9999 -9999 -9999 -9999 3 3 3 3 3 3 3 3 13 12 12 12 7 7 7 3 3 13 13 7 12 7 7 13 13 12 12 12 12 7 7 12 12 12 7 13 13 7 13 7 7 12 12 12 12 12 7 7 7 7 13 13 7 7 12 12 -9999 -9999 -9999 -9999 -9999 -9999 -9999 -9999 -9999 
-9999 -9999 -9999 -9999 -9999 -9999 -9999 -9999 -9999 -9999 -9999 -9999 -9999 -9999 -9999 -9999 -9999 -9999 -9999 -9999 -9999 -9999 -9999 -9999 -9999 -9999 -9999 -9999 -9999 -9999 -9999 -9999 -9999 -9999 -9999 -9999 -9999 -9999 -9999 -9999 -9999 -9999 -9999 -9999 -9999 -9999 -9999 -9999 -9999 -9999 -9999 -9999 -9999 -9999 -9999 -9999 -9999 -9999 -9999 -9999 -9999 -9999 -9999 -9999 -9999 -9999 -9999 -9999 -9999 -9999 -9999 -9999 -9999 -9999 -9999 -9999 -9999 -9999 -9999 -9999 -9999 -9999 -9999 -9999 -9999 -9999 -9999 -9999 -9999 -9999 -9999 -9999 -9999 -9999 -9999 -9999 -9999 -9999 -9999 -9999 -9999 -9999 -9999 -9999 -9999 -9999 -9999 -9999 -9999 -9999 -9999 -9999 -9999 -9999 -9999 -9999 -9999 -9999 -9999 -9999 -9999 -9999 -9999 -9999 -9999 -9999 -9999 -9999 -9999 -9999 -9999 -9999 -9999 -9999 -9999 -9999 -9999 -9999 -9999 -9999 -9999 -9999 -9999 -9999 -9999 -9999 -9999 -9999 -9999 -9999 -9999 -9999 -9999 -9999 -9999 3 3 13 12 12 7 12 12 7 7 3 7 7 7 12 12 7 7 7 13 12 12 12 7 12 12 12 7 13 13 7 12 7 12 7 12 12 12 12 12 12 7 7 7 13 13 13 7 12 12 -9999 -9999 -9999 -9999 -9999 -9999 -9999 -9999 -9999 
-9999 -9999 -9999 -9999 -9999 -9999 -9999 -9999 -9999 -9999 -9999 -9999 -9999 -9999 -9999 -9999 -9999 -9999 -9999 -9999 -9999 -9999 -9999 -9999 -9999 -9999 -9999 -9999 -9999 -9999 -9999 -9999 -9999 -9999 -9999 -9999 -9999 -9999 -9999 -9999 -9999 -9999 -9999 -9999 -9999 -9999 -9999 -9999 -9999 -9999 -9999 -9999 -9999 -9999 -9999 -9999 -9999 -9999 -9999 -9999 -9999 -9999 -9999 -9999 -9999 -9999 -9999 -9999 -9999 -9999 -9999 -9999 -9999 -9999 -9999 -9999 -9999 -9999 -9999 -9999 -9999 -9999 -9999 -9999 -9999 -9999 -9999 -9999 -9999 -9999 -9999 -9999 -9999 -9999 -9999 -9999 -9999 -9999 -9999 -9999 -9999 -9999 -9999 -9999 -9999 -9999 -9999 -9999 -9999 -9999 -9999 -9999 -9999 -9999 -9999 -9999 -9999 -9999 -9999 -9999 -9999 -9999 -9999 -9999 -9999 -9999 -9999 -9999 -9999 -9999 -9999 -9999 -9999 -9999 -9999 -9999 -9999 -9999 -9999 -9999 -9999 -9999 -9999 -9999 -9999 -9999 -9999 -9999 -9999 -9999 -9999 -9999 -9999 -9999 -9999 -9999 -9999 -9999 -9999 -9999 -9999 12 12 12 7 13 12 7 7 12 12 12 12 12 12 12 12 12 12 7 7 12 12 7 7 12 12 12 12 12 12 12 7 7 12 7 7 7 7 7 7 7 7 12 12 -9999 -9999 -9999 -9999 -9999 -9999 -9999 -9999 -9999 
-9999 -9999 -9999 -9999 -9999 -9999 -9999 -9999 -9999 -9999 -9999 -9999 -9999 -9999 -9999 -9999 -9999 -9999 -9999 -9999 -9999 -9999 -9999 -9999 -9999 -9999 -9999 -9999 -9999 -9999 -9999 -9999 -9999 -9999 -9999 -9999 -9999 -9999 -9999 -9999 -9999 -9999 -9999 -9999 -9999 -9999 -9999 -9999 -9999 -9999 -9999 -9999 -9999 -9999 -9999 -9999 -9999 -9999 -9999 -9999 -9999 -9999 -9999 -9999 -9999 -9999 -9999 -9999 -9999 -9999 -9999 -9999 -9999 -9999 -9999 -9999 -9999 -9999 -9999 -9999 -9999 -9999 -9999 -9999 -9999 -9999 -9999 -9999 -9999 -9999 -9999 -9999 -9999 -9999 -9999 -9999 -9999 -9999 -9999 -9999 -9999 -9999 -9999 -9999 -9999 -9999 -9999 -9999 -9999 -9999 -9999 -9999 -9999 -9999 -9999 -9999 -9999 -9999 -9999 -9999 -9999 -9999 -9999 -9999 -9999 -9999 -9999 -9999 -9999 -9999 -9999 -9999 -9999 -9999 -9999 -9999 -9999 -9999 -9999 -9999 -9999 -9999 -9999 -9999 -9999 -9999 -9999 -9999 -9999 -9999 -9999 -9999 -9999 -9999 -9999 -9999 -9999 -9999 -9999 -9999 -9999 -9999 -9999 -9999 -9999 -9999 -9999 -9999 12 12 12 5 5 12 7 12 12 12 12 12 7 12 12 12 7 12 12 7 12 12 12 12 12 7 7 12 7 7 13 13 7 12 12 12 12 -9999 -9999 -9999 -9999 -9999 -9999 -9999 -9999 -9999 
-9999 -9999 -9999 -9999 -9999 -9999 -9999 -9999 -9999 -9999 -9999 -9999 -9999 -9999 -9999 -9999 -9999 -9999 -9999 -9999 -9999 -9999 -9999 -9999 -9999 -9999 -9999 -9999 -9999 -9999 -9999 -9999 -9999 -9999 -9999 -9999 -9999 -9999 -9999 -9999 -9999 -9999 -9999 -9999 -9999 -9999 -9999 -9999 -9999 -9999 -9999 -9999 -9999 -9999 -9999 -9999 -9999 -9999 -9999 -9999 -9999 -9999 -9999 -9999 -9999 -9999 -9999 -9999 -9999 -9999 -9999 -9999 -9999 -9999 -9999 -9999 -9999 -9999 -9999 -9999 -9999 -9999 -9999 -9999 -9999 -9999 -9999 -9999 -9999 -9999 -9999 -9999 -9999 -9999 -9999 -9999 -9999 -9999 -9999 -9999 -9999 -9999 -9999 -9999 -9999 -9999 -9999 -9999 -9999 -9999 -9999 -9999 -9999 -9999 -9999 -9999 -9999 -9999 -9999 -9999 -9999 -9999 -9999 -9999 -9999 -9999 -9999 -9999 -9999 -9999 -9999 -9999 -9999 -9999 -9999 -9999 -9999 -9999 -9999 -9999 -9999 -9999 -9999 -9999 -9999 -9999 -9999 -9999 -9999 -9999 -9999 -9999 -9999 -9999 -9999 -9999 -9999 -9999 -9999 -9999 -9999 -9999 -9999 -9999 -9999 -9999 -9999 -9999 -9999 -9999 -9999 -9999 -9999 -9999 12 7 12 12 12 12 7 12 12 12 12 12 12 12 12 12 12 12 12 12 7 7 7 7 13 13 7 12 12 12 7 -9999 -9999 -9999 -9999 -9999 -9999 -9999 -9999 -9999 
-9999 -9999 -9999 -9999 -9999 -9999 -9999 -9999 -9999 -9999 -9999 -9999 -9999 -9999 -9999 -9999 -9999 -9999 -9999 -9999 -9999 -9999 -9999 -9999 -9999 -9999 -9999 -9999 -9999 -9999 -9999 -9999 -9999 -9999 -9999 -9999 -9999 -9999 -9999 -9999 -9999 -9999 -9999 -9999 -9999 -9999 -9999 -9999 -9999 -9999 -9999 -9999 -9999 -9999 -9999 -9999 -9999 -9999 -9999 -9999 -9999 -9999 -9999 -9999 -9999 -9999 -9999 -9999 -9999 -9999 -9999 -9999 -9999 -9999 -9999 -9999 -9999 -9999 -9999 -9999 -9999 -9999 -9999 -9999 -9999 -9999 -9999 -9999 -9999 -9999 -9999 -9999 -9999 -9999 -9999 -9999 -9999 -9999 -9999 -9999 -9999 -9999 -9999 -9999 -9999 -9999 -9999 -9999 -9999 -9999 -9999 -9999 -9999 -9999 -9999 -9999 -9999 -9999 -9999 -9999 -9999 -9999 -9999 -9999 -9999 -9999 -9999 -9999 -9999 -9999 -9999 -9999 -9999 -9999 -9999 -9999 -9999 -9999 -9999 -9999 -9999 -9999 -9999 -9999 -9999 -9999 -9999 -9999 -9999 -9999 -9999 -9999 -9999 -9999 -9999 -9999 -9999 -9999 -9999 -9999 -9999 -9999 -9999 -9999 -9999 -9999 -9999 -9999 -9999 -9999 -9999 -9999 -9999 -9999 -9999 -9999 -9999 -9999 -9999 -9999 7 5 12 12 10 12 12 12 12 12 12 12 7 7 7 7 12 7 13 7 13 7 7 7 7 -9999 -9999 -9999 -9999 -9999 -9999 -9999 -9999 -9999 
-9999 -9999 -9999 -9999 -9999 -9999 -9999 -9999 -9999 -9999 -9999 -9999 -9999 -9999 -9999 -9999 -9999 -9999 -9999 -9999 -9999 -9999 -9999 -9999 -9999 -9999 -9999 -9999 -9999 -9999 -9999 -9999 -9999 -9999 -9999 -9999 -9999 -9999 -9999 -9999 -9999 -9999 -9999 -9999 -9999 -9999 -9999 -9999 -9999 -9999 -9999 -9999 -9999 -9999 -9999 -9999 -9999 -9999 -9999 -9999 -9999 -9999 -9999 -9999 -9999 -9999 -9999 -9999 -9999 -9999 -9999 -9999 -9999 -9999 -9999 -9999 -9999 -9999 -9999 -9999 -9999 -9999 -9999 -9999 -9999 -9999 -9999 -9999 -9999 -9999 -9999 -9999 -9999 -9999 -9999 -9999 -9999 -9999 -9999 -9999 -9999 -9999 -9999 -9999 -9999 -9999 -9999 -9999 -9999 -9999 -9999 -9999 -9999 -9999 -9999 -9999 -9999 -9999 -9999 -9999 -9999 -9999 -9999 -9999 -9999 -9999 -9999 -9999 -9999 -9999 -9999 -9999 -9999 -9999 -9999 -9999 -9999 -9999 -9999 -9999 -9999 -9999 -9999 -9999 -9999 -9999 -9999 -9999 -9999 -9999 -9999 -9999 -9999 -9999 -9999 -9999 -9999 -9999 -9999 -9999 -9999 -9999 -9999 -9999 -9999 -9999 -9999 -9999 -9999 -9999 -9999 -9999 -9999 -9999 -9999 -9999 -9999 -9999 -9999 -9999 -9999 -9999 -9999 -9999 -9999 -9999 -9999 5 12 12 12 7 3 13 7 13 7 13 3 7 12 7 13 7 7 -9999 -9999 -9999 -9999 -9999 -9999 -9999 -9999 -9999 
-9999 -9999 -9999 -9999 -9999 -9999 -9999 -9999 -9999 -9999 -9999 -9999 -9999 -9999 -9999 -9999 -9999 -9999 -9999 -9999 -9999 -9999 -9999 -9999 -9999 -9999 -9999 -9999 -9999 -9999 -9999 -9999 -9999 -9999 -9999 -9999 -9999 -9999 -9999 -9999 -9999 -9999 -9999 -9999 -9999 -9999 -9999 -9999 -9999 -9999 -9999 -9999 -9999 -9999 -9999 -9999 -9999 -9999 -9999 -9999 -9999 -9999 -9999 -9999 -9999 -9999 -9999 -9999 -9999 -9999 -9999 -9999 -9999 -9999 -9999 -9999 -9999 -9999 -9999 -9999 -9999 -9999 -9999 -9999 -9999 -9999 -9999 -9999 -9999 -9999 -9999 -9999 -9999 -9999 -9999 -9999 -9999 -9999 -9999 -9999 -9999 -9999 -9999 -9999 -9999 -9999 -9999 -9999 -9999 -9999 -9999 -9999 -9999 -9999 -9999 -9999 -9999 -9999 -9999 -9999 -9999 -9999 -9999 -9999 -9999 -9999 -9999 -9999 -9999 -9999 -9999 -9999 -9999 -9999 -9999 -9999 -9999 -9999 -9999 -9999 -9999 -9999 -9999 -9999 -9999 -9999 -9999 -9999 -9999 -9999 -9999 -9999 -9999 -9999 -9999 -9999 -9999 -9999 -9999 -9999 -9999 -9999 -9999 -9999 -9999 -9999 -9999 -9999 -9999 -9999 -9999 -9999 -9999 -9999 -9999 -9999 -9999 -9999 -9999 -9999 -9999 -9999 -9999 -9999 -9999 -9999 -9999 -9999 -9999 -9999 -9999 -9999 -9999 3 13 13 13 7 7 13 7 7 13 13 12 -9999 -9999 -9999 -9999 -9999 -9999 -9999 -9999 -9999 
-9999 -9999 -9999 -9999 -9999 -9999 -9999 -9999 -9999 -9999 -9999 -9999 -9999 -9999 -9999 -9999 -9999 -9999 -9999 -9999 -9999 -9999 -9999 -9999 -9999 -9999 -9999 -9999 -9999 -9999 -9999 -9999 -9999 -9999 -9999 -9999 -9999 -9999 -9999 -9999 -9999 -9999 -9999 -9999 -9999 -9999 -9999 -9999 -9999 -9999 -9999 -9999 -9999 -9999 -9999 -9999 -9999 -9999 -9999 -9999 -9999 -9999 -9999 -9999 -9999 -9999 -9999 -9999 -9999 -9999 -9999 -9999 -9999 -9999 -9999 -9999 -9999 -9999 -9999 -9999 -9999 -9999 -9999 -9999 -9999 -9999 -9999 -9999 -9999 -9999 -9999 -9999 -9999 -9999 -9999 -9999 -9999 -9999 -9999 -9999 -9999 -9999 -9999 -9999 -9999 -9999 -9999 -9999 -9999 -9999 -9999 -9999 -9999 -9999 -9999 -9999 -9999 -9999 -9999 -9999 -9999 -9999 -9999 -9999 -9999 -9999 -9999 -9999 -9999 -9999 -9999 -9999 -9999 -9999 -9999 -9999 -9999 -9999 -9999 -9999 -9999 -9999 -9999 -9999 -9999 -9999 -9999 -9999 -9999 -9999 -9999 -9999 -9999 -9999 -9999 -9999 -9999 -9999 -9999 -9999 -9999 -9999 -9999 -9999 -9999 -9999 -9999 -9999 -9999 -9999 -9999 -9999 -9999 -9999 -9999 -9999 -9999 -9999 -9999 -9999 -9999 -9999 -9999 -9999 -9999 -9999 -9999 -9999 -9999 -9999 -9999 -9999 -9999 -9999 -9999 -9999 -9999 -9999 7 13 7 12 13 13 10 -9999 -9999 -9999 -9999 -9999 -9999 -9999 -9999 -9999 
-9999 -9999 -9999 -9999 -9999 -9999 -9999 -9999 -9999 -9999 -9999 -9999 -9999 -9999 -9999 -9999 -9999 -9999 -9999 -9999 -9999 -9999 -9999 -9999 -9999 -9999 -9999 -9999 -9999 -9999 -9999 -9999 -9999 -9999 -9999 -9999 -9999 -9999 -9999 -9999 -9999 -9999 -9999 -9999 -9999 -9999 -9999 -9999 -9999 -9999 -9999 -9999 -9999 -9999 -9999 -9999 -9999 -9999 -9999 -9999 -9999 -9999 -9999 -9999 -9999 -9999 -9999 -9999 -9999 -9999 -9999 -9999 -9999 -9999 -9999 -9999 -9999 -9999 -9999 -9999 -9999 -9999 -9999 -9999 -9999 -9999 -9999 -9999 -9999 -9999 -9999 -9999 -9999 -9999 -9999 -9999 -9999 -9999 -9999 -9999 -9999 -9999 -9999 -9999 -9999 -9999 -9999 -9999 -9999 -9999 -9999 -9999 -9999 -9999 -9999 -9999 -9999 -9999 -9999 -9999 -9999 -9999 -9999 -9999 -9999 -9999 -9999 -9999 -9999 -9999 -9999 -9999 -9999 -9999 -9999 -9999 -9999 -9999 -9999 -9999 -9999 -9999 -9999 -9999 -9999 -9999 -9999 -9999 -9999 -9999 -9999 -9999 -9999 -9999 -9999 -9999 -9999 -9999 -9999 -9999 -9999 -9999 -9999 -9999 -9999 -9999 -9999 -9999 -9999 -9999 -9999 -9999 -9999 -9999 -9999 -9999 -9999 -9999 -9999 -9999 -9999 -9999 -9999 -9999 -9999 -9999 -9999 -9999 -9999 -9999 -9999 -9999 -9999 -9999 -9999 -9999 -9999 -9999 -9999 -9999 -9999 -9999 -9999 -9999 -9999 -9999 -9999 -9999 -9999 -9999 -9999 -9999 -9999 -9999 
